;-- START GCODE --
;Sliced for Type A Machines Series 1
;Sliced at: Sat 04-03-2017 18:16:21
;Basic settings:
; Layer height: 0.2
; Walls: 1
; Fill: 8
; Print Speed: 50
; Support: 0
; Retraction Speed: 35
; Retraction Distance: 0.4
;Print time: 1 hour 11 minutes
;Filament used: 5.021m 14.0g
;Settings based on: Type A Machines Everyday PLA
G21        ;metric values
G90        ;absolute positioning
G28     ;move to endstops
G29		;allows for auto-levelling
G1 Z15.0 F12000 ;move the platform down 15mm
G1 X150 Y5 F4800 ;center
M140 S55 ;Prep Heat Bed
M109 S220 ;Heat To temp
M190 S55 ;Heat Bed to temp
G1 X150 Y5 Z0.3 ;move the platform to purge extrusion
G92 E0 ;zero the extruded length
G1 F200 X250 E30 ;extrude 30mm of feed stock
G92 E0 ;zero the extruded length again
G1 X150 Y150  Z25 F12000 ;recenter and begin
G1 F4800

;Layer count: 176
;LAYER:0
M107
G0 F4800 X98.799 Y123.340 Z0.200
;TYPE:SKIRT
G1 F1200 X100.272 Y122.347 E0.07386
G1 X101.944 Y121.770 E0.14739
G1 X103.399 Y121.667 E0.20804
G1 X166.844 Y125.513 E2.85061
G1 X167.029 Y122.452 E2.97811
G1 X167.061 Y121.943 E2.99931
G1 X167.340 Y120.523 E3.05948
G1 X168.112 Y118.931 E3.13304
G1 X169.278 Y117.592 E3.20685
G1 X170.745 Y116.600 E3.28048
G1 X172.422 Y116.023 E3.35421
G1 X173.875 Y115.920 E3.41477
G1 X204.829 Y117.795 E4.70405
G1 X205.461 Y117.835 E4.73038
G1 X206.874 Y118.113 E4.79025
G1 X208.467 Y118.885 E4.86385
G1 X209.806 Y120.051 E4.93766
G1 X210.798 Y121.518 E5.01129
G1 X211.375 Y123.195 E5.08502
G1 X211.478 Y124.648 E5.14558
G1 X210.022 Y148.682 E6.14663
G1 X209.986 Y149.244 E6.17005
G1 X209.711 Y150.660 E6.23002
G1 X208.935 Y152.253 E6.30369
G1 X207.772 Y153.592 E6.37742
G1 X206.301 Y154.584 E6.45119
G1 X204.629 Y155.161 E6.52472
G1 X203.174 Y155.264 E6.58537
G1 X174.663 Y153.537 E7.77289
G1 X172.875 Y183.047 E9.00202
G1 X172.596 Y184.474 E9.06247
G1 X171.823 Y186.069 E9.13616
G1 X170.657 Y187.408 E9.20998
G1 X169.190 Y188.400 E9.28361
G1 X167.513 Y188.977 E9.35734
G1 X166.060 Y189.080 E9.41790
G1 X99.560 Y185.050 E12.18772
G1 X98.128 Y184.773 E12.24836
G1 X96.533 Y183.996 E12.32212
G1 X95.194 Y182.833 E12.39586
G1 X94.202 Y181.362 E12.46962
G1 X93.625 Y179.690 E12.54316
G1 X93.522 Y178.235 E12.60380
G1 X96.470 Y129.587 E14.63006
G1 X96.585 Y127.704 E14.70849
G1 X96.862 Y126.271 E14.76917
G1 X97.638 Y124.680 E14.84277
G1 X98.799 Y123.340 E14.91648
G0 F4800 X99.133 Y123.718
G1 F1200 X100.497 Y122.798 E14.98488
G1 X102.045 Y122.264 E15.05296
G1 X103.402 Y122.168 E15.10952
G1 X167.313 Y126.042 E17.77151
G1 X167.528 Y122.483 E17.91974
G1 X167.558 Y122.007 E17.93957
G1 X167.818 Y120.683 E17.99567
G1 X168.533 Y119.209 E18.06378
G1 X169.612 Y117.969 E18.13212
G1 X170.971 Y117.051 E18.20030
G1 X172.523 Y116.517 E18.26854
G1 X173.878 Y116.421 E18.32502
G1 X204.798 Y118.294 E19.61288
G1 X205.397 Y118.332 E19.63783
G1 X206.715 Y118.591 E19.69367
G1 X208.189 Y119.306 E19.76178
G1 X209.429 Y120.385 E19.83012
G1 X210.347 Y121.744 E19.89831
G1 X210.881 Y123.296 E19.96654
G1 X210.977 Y124.651 E20.02302
G1 X209.523 Y148.651 E21.02265
G1 X209.489 Y149.181 E21.04473
G1 X209.232 Y150.500 E21.10060
G1 X208.514 Y151.975 E21.16880
G1 X207.438 Y153.215 E21.23706
G1 X206.076 Y154.133 E21.30535
G1 X204.528 Y154.667 E21.37343
G1 X203.171 Y154.763 E21.42999
G1 X174.194 Y153.007 E22.63692
G1 X172.378 Y182.983 E23.88546
G1 X172.118 Y184.314 E23.94184
G1 X171.402 Y185.791 E24.01009
G1 X170.323 Y187.031 E24.07842
G1 X168.964 Y187.949 E24.14661
G1 X167.412 Y188.483 E24.21484
G1 X166.057 Y188.579 E24.27132
G1 X99.623 Y184.552 E27.03839
G1 X98.288 Y184.294 E27.09492
G1 X96.811 Y183.575 E27.16322
G1 X95.571 Y182.499 E27.23148
G1 X94.653 Y181.137 E27.29976
G1 X94.119 Y179.589 E27.36784
G1 X94.023 Y178.232 E27.42440
G1 X96.969 Y129.617 E29.44929
G1 X97.082 Y127.767 E29.52634
G1 X97.340 Y126.431 E29.58291
G1 X98.059 Y124.958 E29.65106
G1 X99.133 Y123.718 E29.71926
G0 F4800 X99.468 Y124.095
G1 F1200 X100.722 Y123.249 E29.78215
G1 X102.146 Y122.758 E29.84478
G1 X103.405 Y122.669 E29.89725
G1 X167.782 Y126.571 E32.57865
G1 X168.027 Y122.514 E32.74762
G1 X168.055 Y122.072 E32.76604
G1 X168.296 Y120.843 E32.81811
G1 X168.954 Y119.487 E32.88077
G1 X169.947 Y118.347 E32.94362
G1 X171.196 Y117.502 E33.00632
G1 X172.623 Y117.011 E33.06906
G1 X173.880 Y116.922 E33.12145
G1 X204.767 Y118.793 E34.40794
G1 X205.333 Y118.829 E34.43152
G1 X206.555 Y119.069 E34.48329
G1 X207.911 Y119.727 E34.54595
G1 X209.051 Y120.720 E34.60881
G1 X209.896 Y121.969 E34.67150
G1 X210.387 Y123.396 E34.73425
G1 X210.476 Y124.654 E34.78668
G1 X209.024 Y148.620 E35.78490
G1 X208.992 Y149.117 E35.80560
G1 X208.754 Y150.341 E35.85744
G1 X208.093 Y151.697 E35.92016
G1 X207.103 Y152.837 E35.98293
G1 X205.851 Y153.682 E36.04573
G1 X204.427 Y154.173 E36.10835
G1 X203.169 Y154.262 E36.16079
G1 X173.725 Y152.478 E37.38717
G1 X171.881 Y182.920 E38.65512
G1 X171.640 Y184.155 E38.70744
G1 X170.981 Y185.513 E38.77019
G1 X169.988 Y186.653 E38.83305
G1 X168.739 Y187.498 E38.89574
G1 X167.312 Y187.989 E38.95848
G1 X166.054 Y188.078 E39.01092
G1 X99.686 Y184.055 E41.77524
G1 X98.447 Y183.816 E41.82770
G1 X97.089 Y183.154 E41.89051
G1 X95.949 Y182.164 E41.95329
G1 X95.104 Y180.912 E42.01608
G1 X94.613 Y179.488 E42.07871
G1 X94.524 Y178.229 E42.13118
G1 X97.468 Y129.647 E44.15469
G1 X97.579 Y127.830 E44.23037
G1 X97.818 Y126.591 E44.28283
G1 X98.480 Y125.236 E44.34553
G1 X99.468 Y124.095 E44.40828
G0 F4800 X99.802 Y124.473
G1 F1200 X100.947 Y123.701 E44.46570
G1 X102.247 Y123.252 E44.52288
G1 X103.407 Y123.170 E44.57122
G1 X168.250 Y127.100 E47.27203
G1 X168.526 Y122.544 E47.46179
G1 X168.552 Y122.136 E47.47879
G1 X168.774 Y121.003 E47.52679
G1 X169.375 Y119.765 E47.58401
G1 X170.281 Y118.724 E47.64138
G1 X171.421 Y117.954 E47.69857
G1 X172.724 Y117.505 E47.75587
G1 X173.883 Y117.423 E47.80418
G1 X204.736 Y119.292 E49.08925
G1 X205.269 Y119.326 E49.11145
G1 X206.395 Y119.547 E49.15916
G1 X207.633 Y120.148 E49.21638
G1 X208.674 Y121.054 E49.27375
G1 X209.444 Y122.194 E49.33095
G1 X209.893 Y123.497 E49.38824
G1 X209.975 Y124.656 E49.43655
G1 X208.525 Y148.589 E50.43339
G1 X208.495 Y149.053 E50.45272
G1 X208.276 Y150.181 E50.50050
G1 X207.672 Y151.419 E50.55777
G1 X206.769 Y152.460 E50.61506
G1 X205.626 Y153.230 E50.67236
G1 X204.326 Y153.679 E50.72954
G1 X203.166 Y153.761 E50.77788
G1 X173.256 Y151.949 E52.02368
G1 X171.384 Y182.857 E53.31104
G1 X171.162 Y183.995 E53.35924
G1 X170.560 Y185.235 E53.41655
G1 X169.654 Y186.276 E53.47393
G1 X168.514 Y187.046 E53.53112
G1 X167.211 Y187.495 E53.58842
G1 X166.052 Y187.577 E53.63672
G1 X99.748 Y183.558 E56.39838
G1 X98.607 Y183.337 E56.44670
G1 X97.367 Y182.733 E56.50405
G1 X96.326 Y181.830 E56.56134
G1 X95.556 Y180.687 E56.61864
G1 X95.107 Y179.387 E56.67582
G1 X95.025 Y178.227 E56.72417
G1 X97.967 Y129.678 E58.74630
G1 X98.076 Y127.893 E58.82065
G1 X98.297 Y126.751 E58.86901
G1 X98.901 Y125.514 E58.92624
G1 X99.802 Y124.473 E58.98348
G0 F4800 X100.137 Y124.850
G1 F1200 X101.172 Y124.152 E59.03538
G1 X102.348 Y123.746 E59.08711
G1 X103.410 Y123.671 E59.13137
G1 X168.719 Y127.630 E61.85159
G1 X169.025 Y122.575 E62.06213
G1 X169.049 Y122.200 E62.07776
G1 X169.252 Y121.163 E62.12169
G1 X169.796 Y120.043 E62.17345
G1 X170.615 Y119.102 E62.22532
G1 X171.646 Y118.405 E62.27706
G1 X172.825 Y117.999 E62.32890
G1 X173.886 Y117.924 E62.37312
G1 X204.705 Y119.791 E63.65678
G1 X205.204 Y119.823 E63.67757
G1 X206.235 Y120.025 E63.72124
G1 X207.355 Y120.569 E63.77301
G1 X208.296 Y121.388 E63.82488
G1 X208.993 Y122.419 E63.87662
G1 X209.399 Y123.598 E63.92846
G1 X209.474 Y124.659 E63.97268
G1 X208.026 Y148.558 E64.96811
G1 X207.998 Y148.989 E64.98606
G1 X207.797 Y150.021 E65.02977
G1 X207.252 Y151.141 E65.08156
G1 X206.435 Y152.082 E65.13337
G1 X205.401 Y152.779 E65.18521
G1 X204.225 Y153.185 E65.23694
G1 X203.163 Y153.260 E65.28120
G1 X172.788 Y151.420 E66.54636
G1 X170.887 Y182.793 E67.85309
G1 X170.683 Y183.835 E67.89723
G1 X170.139 Y184.957 E67.94908
G1 X169.320 Y185.898 E68.00094
G1 X168.289 Y186.595 E68.05268
G1 X167.110 Y187.001 E68.10452
G1 X166.049 Y187.076 E68.14874
G1 X99.811 Y183.061 E70.90765
G1 X98.767 Y182.859 E70.95186
G1 X97.645 Y182.313 E71.00374
G1 X96.704 Y181.496 E71.05555
G1 X96.007 Y180.462 E71.10739
G1 X95.601 Y179.286 E71.15912
G1 X95.526 Y178.224 E71.20338
G1 X98.466 Y129.708 E73.22414
G1 X98.573 Y127.956 E73.29712
G1 X98.775 Y126.911 E73.34137
G1 X99.321 Y125.792 E73.39313
G1 X100.137 Y124.850 E73.44495
G0 F4800 X100.471 Y125.227
G1 F1200 X101.397 Y124.603 E73.49137
G1 X102.449 Y124.241 E73.53763
G1 X103.412 Y124.172 E73.57777
G1 X169.188 Y128.159 E76.31743
G1 X169.524 Y122.606 E76.54872
G1 X169.546 Y122.264 E76.56297
G1 X169.730 Y121.323 E76.60283
G1 X170.216 Y120.322 E76.64910
G1 X170.949 Y119.480 E76.69551
G1 X171.872 Y118.856 E76.74183
G1 X172.926 Y118.494 E76.78816
G1 X173.888 Y118.425 E76.82826
G1 X204.674 Y120.290 E78.11054
G1 X205.140 Y120.320 E78.12995
G1 X206.075 Y120.503 E78.16956
G1 X207.076 Y120.989 E78.21583
G1 X207.918 Y121.722 E78.26224
G1 X208.542 Y122.645 E78.30856
G1 X208.904 Y123.699 E78.35489
G1 X208.973 Y124.661 E78.39499
G1 X207.527 Y148.527 E79.38904
G1 X207.501 Y148.925 E79.40563
G1 X207.319 Y149.861 E79.44527
G1 X206.831 Y150.862 E79.49157
G1 X206.100 Y151.704 E79.53793
G1 X205.176 Y152.328 E79.58428
G1 X204.124 Y152.690 E79.63053
G1 X203.161 Y152.759 E79.67067
G1 X172.319 Y150.890 E80.95529
G1 X170.390 Y182.730 E82.28147
G1 X170.205 Y183.676 E82.32154
G1 X169.719 Y184.678 E82.36784
G1 X168.986 Y185.520 E82.41426
G1 X168.063 Y186.144 E82.46058
G1 X167.009 Y186.506 E82.50691
G1 X166.047 Y186.575 E82.54701
G1 X99.874 Y182.564 E85.30321
G1 X98.926 Y182.381 E85.34335
G1 X97.924 Y181.892 E85.38971
G1 X97.082 Y181.161 E85.43606
G1 X96.458 Y180.237 E85.48242
G1 X96.096 Y179.185 E85.52867
G1 X96.027 Y178.222 E85.56881
G1 X99.070 Y128.019 E87.65984
G1 X99.253 Y127.070 E87.70002
G1 X99.742 Y126.070 E87.74630
G1 X100.471 Y125.227 E87.79264
G0 F4800 X100.806 Y125.605
G1 F1200 X101.622 Y125.055 E87.83355
G1 X102.550 Y124.735 E87.87436
G1 X103.415 Y124.673 E87.91042
G1 X169.292 Y128.666 E90.65429
G1 X169.473 Y128.653 E90.66183
G1 X169.527 Y128.634 E90.66421
G1 X169.579 Y128.600 E90.66680
G1 X169.617 Y128.556 E90.66921
G1 X169.646 Y128.495 E90.67202
G1 X169.679 Y128.328 E90.67910
G1 X170.023 Y122.637 E90.91614
G1 X170.043 Y122.328 E90.92901
G1 X170.209 Y121.483 E90.96481
G1 X170.637 Y120.600 E91.00561
G1 X171.283 Y119.857 E91.04654
G1 X172.097 Y119.308 E91.08736
G1 X173.026 Y118.988 E91.12821
G1 X173.891 Y118.926 E91.16427
G1 X204.643 Y120.789 E92.44513
G1 X205.076 Y120.817 E92.46317
G1 X205.915 Y120.982 E92.49872
G1 X206.798 Y121.410 E92.53952
G1 X207.541 Y122.056 E92.58045
G1 X208.090 Y122.870 E92.62127
G1 X208.410 Y123.799 E92.66212
G1 X208.472 Y124.664 E92.69817
G1 X207.028 Y148.496 E93.69081
G1 X207.004 Y148.861 E93.70602
G1 X206.841 Y149.701 E93.74159
G1 X206.410 Y150.584 E93.78244
G1 X205.766 Y151.327 E93.82332
G1 X204.951 Y151.876 E93.86418
G1 X204.023 Y152.196 E93.90499
G1 X203.158 Y152.258 E93.94104
G1 X172.293 Y150.388 E95.22661
G1 X172.215 Y150.383 E95.22986
G1 X172.037 Y150.396 E95.23728
G1 X171.979 Y150.415 E95.23982
G1 X171.928 Y150.450 E95.24239
G1 X171.890 Y150.494 E95.24481
G1 X171.862 Y150.552 E95.24749
G1 X171.828 Y150.727 E95.25490
G1 X169.893 Y182.667 E96.58524
G1 X169.727 Y183.516 E96.62121
G1 X169.298 Y184.400 E96.66206
G1 X168.652 Y185.143 E96.70299
G1 X167.838 Y185.692 E96.74381
G1 X166.909 Y186.012 E96.78467
G1 X166.044 Y186.074 E96.82072
G1 X99.937 Y182.067 E99.57417
G1 X99.086 Y181.902 E99.61021
G1 X98.202 Y181.471 E99.65110
G1 X97.459 Y180.827 E99.69198
G1 X96.910 Y180.012 E99.73283
G1 X96.590 Y179.084 E99.77365
G1 X96.528 Y178.219 E99.80970
G1 X99.567 Y128.082 E101.89798
G1 X99.732 Y127.230 E101.93406
G1 X100.163 Y126.348 E101.97487
G1 X100.806 Y125.605 E102.01573
G0 F4800 X101.141 Y125.982
G1 F1200 X101.847 Y125.506 E102.05113
G1 X102.651 Y125.229 E102.08648
G1 X103.418 Y125.174 E102.11845
G1 X169.297 Y129.167 E104.86241
G1 X169.571 Y129.148 E104.87383
G1 X169.754 Y129.084 E104.88189
G1 X169.912 Y128.978 E104.88980
G1 X170.040 Y128.830 E104.89793
G1 X170.124 Y128.658 E104.90589
G1 X170.176 Y128.392 E104.91716
G1 X170.522 Y122.667 E105.15561
G1 X170.540 Y122.392 E105.16707
G1 X170.687 Y121.643 E105.19880
G1 X171.058 Y120.878 E105.23415
G1 X171.618 Y120.235 E105.26960
G1 X172.322 Y119.759 E105.30493
G1 X173.127 Y119.482 E105.34032
G1 X173.893 Y119.427 E105.37225
G1 X204.612 Y121.288 E106.65174
G1 X205.012 Y121.314 E106.66841
G1 X205.755 Y121.460 E106.69989
G1 X206.520 Y121.831 E106.73524
G1 X207.163 Y122.391 E106.77069
G1 X207.639 Y123.095 E106.80602
G1 X207.916 Y123.900 E106.84141
G1 X207.971 Y124.667 E106.87338
G1 X206.529 Y148.465 E107.86460
G1 X206.507 Y148.797 E107.87844
G1 X206.363 Y149.541 E107.90994
G1 X205.990 Y150.306 E107.94533
G1 X205.432 Y150.949 E107.98072
G1 X204.726 Y151.425 E108.01612
G1 X203.922 Y151.702 E108.05148
G1 X203.156 Y151.757 E108.08340
G1 X172.324 Y149.889 E109.36760
G1 X172.210 Y149.882 E109.37235
G1 X171.937 Y149.901 E109.38373
G1 X171.755 Y149.964 E109.39173
G1 X171.595 Y150.072 E109.39976
G1 X171.469 Y150.217 E109.40775
G1 X171.384 Y150.392 E109.41583
G1 X171.331 Y150.662 E109.42727
G1 X169.396 Y182.603 E110.75766
G1 X169.249 Y183.356 E110.78956
G1 X168.877 Y184.122 E110.82496
G1 X168.317 Y184.765 E110.86041
G1 X167.613 Y185.241 E110.89574
G1 X166.808 Y185.518 E110.93114
G1 X166.041 Y185.573 E110.96311
G1 X100.000 Y181.570 E113.71381
G1 X99.246 Y181.424 E113.74574
G1 X98.480 Y181.051 E113.78116
G1 X97.837 Y180.493 E113.81656
G1 X97.361 Y179.787 E113.85196
G1 X97.084 Y178.983 E113.88731
G1 X97.029 Y178.216 E113.91928
G1 X100.064 Y128.145 E116.00481
G1 X100.210 Y127.390 E116.03679
G1 X100.583 Y126.626 E116.07213
G1 X101.141 Y125.982 E116.10756
G0 F4800 X101.475 Y126.360
G1 F1200 X102.072 Y125.957 E116.13751
G1 X102.752 Y125.723 E116.16740
G1 X103.420 Y125.675 E116.19525
G1 X169.302 Y129.668 E118.93933
G1 X169.672 Y129.642 E118.95475
G1 X169.978 Y129.536 E118.96821
G1 X170.247 Y129.355 E118.98169
G1 X170.460 Y129.109 E118.99522
G1 X170.603 Y128.816 E119.00878
G1 X170.673 Y128.456 E119.02402
G1 X171.021 Y122.698 E119.26385
G1 X171.037 Y122.456 E119.27393
G1 X171.165 Y121.803 E119.30160
G1 X171.479 Y121.156 E119.33150
G1 X171.952 Y120.613 E119.36144
G1 X172.547 Y120.210 E119.39132
G1 X173.228 Y119.976 E119.42125
G1 X173.896 Y119.928 E119.44910
G1 X204.581 Y121.787 E120.72717
G1 X204.947 Y121.811 E120.74242
G1 X205.595 Y121.938 E120.76987
G1 X206.242 Y122.252 E120.79977
G1 X206.785 Y122.725 E120.82971
G1 X207.188 Y123.320 E120.85959
G1 X207.422 Y124.001 E120.88953
G1 X207.470 Y124.669 E120.91737
G1 X206.030 Y148.434 E121.90722
G1 X206.010 Y148.733 E121.91967
G1 X205.884 Y149.381 E121.94712
G1 X205.569 Y150.028 E121.97704
G1 X205.097 Y150.571 E122.00695
G1 X204.501 Y150.974 E122.03686
G1 X203.821 Y151.208 E122.06676
G1 X203.153 Y151.256 E122.09460
G1 X172.206 Y149.381 E123.38359
G1 X171.836 Y149.407 E123.39901
G1 X171.528 Y149.513 E123.41255
G1 X171.261 Y149.694 E123.42596
G1 X171.047 Y149.939 E123.43949
G1 X170.905 Y150.232 E123.45302
G1 X170.834 Y150.596 E123.46844
G1 X168.899 Y182.540 E124.79895
G1 X168.770 Y183.197 E124.82679
G1 X168.456 Y183.844 E124.85669
G1 X167.983 Y184.387 E124.88663
G1 X167.388 Y184.790 E124.91651
G1 X166.707 Y185.024 E124.94644
G1 X166.039 Y185.072 E124.97429
G1 X100.063 Y181.073 E127.72229
G1 X99.405 Y180.946 E127.75015
G1 X98.758 Y180.630 E127.78008
G1 X98.215 Y180.158 E127.80999
G1 X97.812 Y179.562 E127.83991
G1 X97.578 Y178.882 E127.86980
G1 X97.530 Y178.214 E127.89765
G1 X100.561 Y128.208 E129.98047
G1 X100.688 Y127.550 E130.00833
G1 X101.004 Y126.904 E130.03823
G1 X101.475 Y126.360 E130.06815
G0 F4800 X101.810 Y126.737
G1 F1200 X102.297 Y126.408 E130.09258
G1 X102.853 Y126.217 E130.11702
G1 X103.423 Y126.176 E130.14078
G1 X169.307 Y130.169 E132.88495
G1 X169.773 Y130.136 E132.90437
G1 X170.202 Y129.988 E132.92324
G1 X170.581 Y129.733 E132.94223
G1 X170.880 Y129.388 E132.96121
G1 X171.082 Y128.974 E132.98036
G1 X171.170 Y128.520 E132.99959
G1 X171.533 Y122.520 E133.24949
G1 X171.643 Y121.963 E133.27310
G1 X171.900 Y121.434 E133.29755
G1 X172.286 Y120.990 E133.32201
G1 X172.772 Y120.661 E133.34641
G1 X173.329 Y120.470 E133.37089
G1 X173.899 Y120.429 E133.39465
G1 X204.883 Y122.307 E134.68518
G1 X205.435 Y122.416 E134.70857
G1 X205.964 Y122.673 E134.73302
G1 X206.408 Y123.059 E134.75748
G1 X206.737 Y123.545 E134.78188
G1 X206.928 Y124.102 E134.80636
G1 X206.969 Y124.672 E134.83012
G1 X205.514 Y148.669 E135.82964
G1 X205.406 Y149.221 E135.85302
G1 X205.148 Y149.750 E135.87749
G1 X204.763 Y150.194 E135.90192
G1 X204.276 Y150.523 E135.92636
G1 X203.720 Y150.714 E135.95080
G1 X203.150 Y150.755 E135.97456
G1 X172.201 Y148.880 E137.26363
G1 X171.735 Y148.913 E137.28305
G1 X171.305 Y149.061 E137.30196
G1 X170.927 Y149.316 E137.32091
G1 X170.626 Y149.662 E137.33998
G1 X170.427 Y150.073 E137.35896
G1 X170.337 Y150.530 E137.37833
G1 X168.402 Y182.477 E138.70897
G1 X168.292 Y183.037 E138.73269
G1 X168.035 Y183.566 E138.75714
G1 X167.649 Y184.010 E138.78160
G1 X167.163 Y184.339 E138.80600
G1 X166.606 Y184.530 E138.83048
G1 X166.036 Y184.571 E138.85424
G1 X100.126 Y180.576 E141.59949
G1 X99.565 Y180.467 E141.62325
G1 X99.036 Y180.209 E141.64772
G1 X98.592 Y179.824 E141.67215
G1 X98.263 Y179.337 E141.69659
G1 X98.072 Y178.781 E141.72103
G1 X98.031 Y178.211 E141.74479
G1 X101.058 Y128.271 E143.82486
G1 X101.167 Y127.710 E143.84862
G1 X101.425 Y127.182 E143.87306
G1 X101.810 Y126.737 E143.89752
G0 F4800 X102.479 Y127.492
;TYPE:WALL-INNER
G1 F1200 X102.748 Y127.311 E143.91100
G1 X103.054 Y127.205 E143.92446
G1 X103.424 Y127.179 E143.93988
G1 X115.788 Y127.928 E144.45486
G1 X115.710 Y127.954 E144.45828
G1 X115.319 Y128.173 E144.47691
G1 X114.977 Y128.465 E144.49561
G1 X114.694 Y128.818 E144.51442
G1 X114.486 Y129.219 E144.53320
G1 X114.358 Y129.646 E144.55173
G1 X114.314 Y130.116 E144.57136
G1 X114.365 Y130.576 E144.59060
G1 X114.505 Y131.020 E144.60996
G1 X114.733 Y131.428 E144.62939
G1 X115.038 Y131.785 E144.64891
G1 X115.412 Y132.076 E144.66861
G1 X115.839 Y132.286 E144.68839
G1 X116.301 Y132.405 E144.70823
G1 X116.782 Y132.430 E144.72825
G1 X117.262 Y132.353 E144.74846
G1 X117.720 Y132.177 E144.76886
G1 X118.130 Y131.907 E144.78927
G1 X118.478 Y131.558 E144.80976
G1 X118.751 Y131.128 E144.83094
G1 X118.918 Y130.673 E144.85109
G1 X118.988 Y130.238 E144.86941
G1 X118.975 Y129.810 E144.88721
G1 X118.886 Y129.396 E144.90481
G1 X118.721 Y129.000 E144.92265
G1 X118.486 Y128.640 E144.94052
G1 X118.187 Y128.328 E144.95849
G1 X117.833 Y128.074 E144.97660
G1 X117.778 Y128.049 E144.97912
G1 X169.306 Y131.172 E147.12533
G1 X169.974 Y131.124 E147.15318
G1 X170.654 Y130.890 E147.18308
G1 X171.251 Y130.487 E147.21302
G1 X171.722 Y129.943 E147.24294
G1 X172.038 Y129.297 E147.27284
G1 X172.165 Y128.638 E147.30074
G1 X172.519 Y122.791 E147.54427
G1 X172.528 Y122.646 E147.55031
G1 X172.599 Y122.283 E147.56569
G1 X172.741 Y121.990 E147.57923
G1 X172.955 Y121.745 E147.59275
G1 X173.222 Y121.564 E147.60616
G1 X173.530 Y121.458 E147.61971
G1 X173.900 Y121.432 E147.63513
G1 X204.488 Y123.285 E148.90916
G1 X204.757 Y123.302 E148.92036
G1 X205.115 Y123.372 E148.93553
G1 X205.408 Y123.514 E148.94907
G1 X205.653 Y123.728 E148.96259
G1 X205.834 Y123.995 E148.97600
G1 X205.940 Y124.303 E148.98954
G1 X205.966 Y124.673 E149.00497
G1 X204.532 Y148.342 E149.99081
G1 X204.520 Y148.539 E149.99902
G1 X204.450 Y148.900 E150.01431
G1 X204.307 Y149.194 E150.02790
G1 X204.095 Y149.439 E150.04137
G1 X203.825 Y149.620 E150.05488
G1 X203.519 Y149.726 E150.06835
G1 X203.149 Y149.752 E150.08377
G1 X172.202 Y147.877 E151.37275
G1 X171.534 Y147.925 E151.40060
G1 X170.853 Y148.159 E151.43053
G1 X170.258 Y148.562 E151.46041
G1 X169.785 Y149.105 E151.49035
G1 X169.471 Y149.752 E151.52025
G1 X169.342 Y150.409 E151.54809
G1 X168.472 Y164.764 E152.14599
G1 X168.162 Y164.436 E152.16476
G1 X167.810 Y164.184 E152.18276
G1 X167.412 Y163.998 E152.20102
G1 X166.985 Y163.892 E152.21931
G1 X166.545 Y163.865 E152.23764
G1 X166.108 Y163.923 E152.25597
G1 X165.686 Y164.062 E152.27444
G1 X165.295 Y164.282 E152.29309
G1 X164.953 Y164.572 E152.31173
G1 X164.670 Y164.926 E152.33058
G1 X164.462 Y165.327 E152.34936
G1 X164.334 Y165.754 E152.36789
G1 X164.290 Y166.225 E152.38756
G1 X164.341 Y166.686 E152.40684
G1 X164.481 Y167.128 E152.42612
G1 X164.709 Y167.537 E152.44558
G1 X165.015 Y167.894 E152.46513
G1 X165.387 Y168.183 E152.48472
G1 X165.814 Y168.395 E152.50454
G1 X166.278 Y168.514 E152.52445
G1 X166.760 Y168.538 E152.54452
G1 X167.238 Y168.461 E152.56465
G1 X167.694 Y168.285 E152.58497
G1 X168.095 Y168.024 E152.60486
G1 X168.286 Y167.833 E152.61609
G1 X167.407 Y182.353 E153.22087
G1 X167.336 Y182.717 E153.23628
G1 X167.194 Y183.010 E153.24982
G1 X166.980 Y183.255 E153.26335
G1 X166.713 Y183.436 E153.27676
G1 X166.405 Y183.542 E153.29030
G1 X166.035 Y183.568 E153.30572
G1 X115.807 Y180.524 E155.39779
G1 X116.066 Y180.424 E155.40933
G1 X116.467 Y180.163 E155.42922
G1 X116.825 Y179.806 E155.45024
G1 X117.099 Y179.375 E155.47148
G1 X117.266 Y178.920 E155.49163
G1 X117.336 Y178.485 E155.50994
G1 X117.323 Y178.058 E155.52771
G1 X117.234 Y177.643 E155.54535
G1 X117.069 Y177.248 E155.56315
G1 X116.834 Y176.887 E155.58106
G1 X116.534 Y176.575 E155.59905
G1 X116.182 Y176.323 E155.61705
G1 X115.784 Y176.137 E155.63532
G1 X115.357 Y176.031 E155.65361
G1 X114.919 Y176.004 E155.67185
G1 X114.480 Y176.060 E155.69025
G1 X114.057 Y176.201 E155.70879
G1 X113.667 Y176.421 E155.72740
G1 X113.325 Y176.711 E155.74605
G1 X113.042 Y177.065 E155.76489
G1 X112.834 Y177.466 E155.78367
G1 X112.706 Y177.893 E155.80220
G1 X112.662 Y178.364 E155.82187
G1 X112.713 Y178.825 E155.84115
G1 X112.853 Y179.267 E155.86043
G1 X113.081 Y179.676 E155.87990
G1 X113.387 Y180.033 E155.89945
G1 X113.759 Y180.322 E155.91903
G1 X113.937 Y180.411 E155.92730
G1 X100.245 Y179.581 E156.49760
G1 X99.886 Y179.511 E156.51280
G1 X99.592 Y179.368 E156.52640
G1 X99.347 Y179.156 E156.53987
G1 X99.166 Y178.886 E156.55338
G1 X99.060 Y178.580 E156.56684
G1 X99.034 Y178.210 E156.58226
G1 X102.053 Y128.390 E158.65734
G1 X102.123 Y128.031 E158.67255
G1 X102.266 Y127.738 E158.68610
G1 X102.479 Y127.492 E158.69963
G1 F2100 E158.29963
G0 F4800 X166.024 Y137.867
G1 F2100 E158.69963
G1 F1200 X165.981 Y138.337 E158.71925
G1 X166.030 Y138.797 E158.73848
G1 X166.171 Y139.241 E158.75785
G1 X166.400 Y139.649 E158.77730
G1 X166.704 Y140.005 E158.79677
G1 X167.077 Y140.295 E158.81641
G1 X167.504 Y140.507 E158.83623
G1 X167.968 Y140.626 E158.85614
G1 X168.450 Y140.650 E158.87621
G1 X168.928 Y140.573 E158.89634
G1 X169.384 Y140.398 E158.91664
G1 X169.786 Y140.136 E158.93659
G1 X170.145 Y139.779 E158.95764
G1 X170.418 Y139.347 E158.97889
G1 X170.584 Y138.894 E158.99895
G1 X170.654 Y138.458 E159.01731
G1 X170.641 Y138.031 E159.03507
G1 X170.552 Y137.617 E159.05267
G1 X170.387 Y137.221 E159.07051
G1 X170.152 Y136.860 E159.08842
G1 X169.852 Y136.548 E159.10641
G1 X169.500 Y136.296 E159.12441
G1 X169.102 Y136.110 E159.14267
G1 X168.676 Y136.004 E159.16093
G1 X168.235 Y135.977 E159.17929
G1 X167.797 Y136.035 E159.19766
G1 X167.376 Y136.175 E159.21611
G1 X166.985 Y136.394 E159.23474
G1 X166.643 Y136.685 E159.25341
G1 X166.360 Y137.038 E159.27222
G1 X166.152 Y137.440 E159.29104
G1 X166.024 Y137.867 E159.30957
G0 F4800 X166.517 Y137.962
;TYPE:WALL-OUTER
G1 F1200 X166.484 Y138.333 E159.32506
G1 X166.522 Y138.694 E159.34015
G1 X166.632 Y139.041 E159.35528
G1 X166.812 Y139.362 E159.37058
G1 X167.051 Y139.642 E159.38589
G1 X167.344 Y139.870 E159.40132
G1 X167.679 Y140.036 E159.41687
G1 X168.043 Y140.129 E159.43249
G1 X168.422 Y140.148 E159.44826
G1 X168.797 Y140.088 E159.46405
G1 X169.155 Y139.950 E159.48000
G1 X169.470 Y139.745 E159.49563
G1 X169.752 Y139.464 E159.51218
G1 X169.967 Y139.125 E159.52887
G1 X170.098 Y138.767 E159.54472
G1 X170.153 Y138.426 E159.55908
G1 X170.142 Y138.092 E159.57297
G1 X170.073 Y137.767 E159.58679
G1 X169.943 Y137.456 E159.60080
G1 X169.759 Y137.173 E159.61483
G1 X169.523 Y136.928 E159.62898
G1 X169.246 Y136.729 E159.64316
G1 X168.934 Y136.583 E159.65748
G1 X168.600 Y136.500 E159.67179
G1 X168.253 Y136.479 E159.68624
G1 X167.910 Y136.524 E159.70062
G1 X167.579 Y136.634 E159.71512
G1 X167.272 Y136.806 E159.72975
G1 X167.004 Y137.035 E159.74441
G1 X166.781 Y137.312 E159.75919
G1 X166.617 Y137.629 E159.77403
G1 X166.517 Y137.962 E159.78849
G1 F2100 E159.38849
G0 F4800 X169.303 Y130.671
G1 F2100 E159.78849
G1 F1200 X169.873 Y130.630 E159.81225
G1 X170.429 Y130.439 E159.83669
G1 X170.916 Y130.110 E159.86112
G1 X171.301 Y129.665 E159.88559
G1 X171.559 Y129.137 E159.91002
G1 X171.668 Y128.575 E159.93382
G1 X172.031 Y122.578 E160.18360
G1 X172.120 Y122.124 E160.20284
G1 X172.320 Y121.713 E160.22184
G1 X172.621 Y121.367 E160.24091
G1 X172.999 Y121.112 E160.25986
G1 X173.429 Y120.964 E160.27877
G1 X173.895 Y120.931 E160.29819
G1 X204.825 Y122.805 E161.58647
G1 X205.274 Y122.893 E161.60549
G1 X205.685 Y123.093 E161.62450
G1 X206.031 Y123.394 E161.64356
G1 X206.286 Y123.772 E161.66252
G1 X206.434 Y124.202 E161.68143
G1 X206.467 Y124.668 E161.70085
G1 X205.016 Y148.610 E162.69807
G1 X204.929 Y149.058 E162.71704
G1 X204.727 Y149.472 E162.73619
G1 X204.428 Y149.817 E162.75517
G1 X204.049 Y150.072 E162.77417
G1 X203.620 Y150.220 E162.79303
G1 X203.154 Y150.253 E162.81246
G1 X172.205 Y148.378 E164.10152
G1 X171.635 Y148.419 E164.12528
G1 X171.078 Y148.610 E164.14976
G1 X170.592 Y148.939 E164.17416
G1 X170.206 Y149.383 E164.19862
G1 X169.949 Y149.912 E164.22308
G1 X169.839 Y150.472 E164.24680
G1 X167.904 Y182.419 E165.57744
G1 X167.814 Y182.876 E165.59680
G1 X167.615 Y183.287 E165.61579
G1 X167.314 Y183.633 E165.63486
G1 X166.936 Y183.888 E165.65381
G1 X166.506 Y184.036 E165.67272
G1 X166.040 Y184.069 E165.69214
G1 X100.181 Y180.078 E168.43526
G1 X99.728 Y179.990 E168.45445
G1 X99.314 Y179.788 E168.47360
G1 X98.969 Y179.489 E168.49258
G1 X98.714 Y179.110 E168.51157
G1 X98.566 Y178.681 E168.53044
G1 X98.533 Y178.215 E168.54986
G1 X101.556 Y128.326 E170.62781
G1 X101.644 Y127.873 E170.64700
G1 X101.846 Y127.459 E170.66615
G1 X102.145 Y127.114 E170.68513
G1 X102.524 Y126.859 E170.70412
G1 X102.953 Y126.711 E170.72299
G1 X103.419 Y126.678 E170.74241
G1 X169.303 Y130.671 E173.48657
G1 F2100 E173.08657
G0 F4800 X166.909 Y164.388
G1 F2100 E173.48657
G1 F1200 X166.563 Y164.367 E173.50099
G1 X166.220 Y164.412 E173.51537
G1 X165.889 Y164.521 E173.52986
G1 X165.582 Y164.694 E173.54451
G1 X165.314 Y164.922 E173.55914
G1 X165.091 Y165.200 E173.57395
G1 X164.927 Y165.516 E173.58875
G1 X164.827 Y165.850 E173.60325
G1 X164.793 Y166.221 E173.61874
G1 X164.832 Y166.582 E173.63383
G1 X164.942 Y166.929 E173.64897
G1 X165.121 Y167.250 E173.66425
G1 X165.362 Y167.530 E173.67961
G1 X165.654 Y167.758 E173.69501
G1 X165.989 Y167.924 E173.71055
G1 X166.353 Y168.017 E173.72617
G1 X166.732 Y168.036 E173.74195
G1 X167.107 Y167.976 E173.75774
G1 X167.465 Y167.838 E173.77369
G1 X167.779 Y167.633 E173.78928
G1 X168.061 Y167.352 E173.80583
G1 X168.276 Y167.013 E173.82252
G1 X168.408 Y166.654 E173.83842
G1 X168.463 Y166.314 E173.85274
G1 X168.452 Y165.980 E173.86664
G1 X168.383 Y165.654 E173.88049
G1 X168.253 Y165.344 E173.89447
G1 X168.069 Y165.061 E173.90850
G1 X167.833 Y164.816 E173.92264
G1 X167.556 Y164.617 E173.93682
G1 X167.244 Y164.471 E173.95115
G1 X166.909 Y164.388 E173.96549
G1 F2100 E173.56549
G0 F4800 X116.755 Y177.793
G1 F2100 E173.96549
G1 F1200 X116.625 Y177.483 E173.97947
G1 X116.441 Y177.200 E173.99350
G1 X116.205 Y176.955 E174.00765
G1 X115.928 Y176.756 E174.02183
G1 X115.616 Y176.610 E174.03615
G1 X115.281 Y176.527 E174.05050
G1 X114.936 Y176.506 E174.06487
G1 X114.592 Y176.550 E174.07929
G1 X114.260 Y176.660 E174.09383
G1 X113.954 Y176.833 E174.10844
G1 X113.686 Y177.061 E174.12307
G1 X113.463 Y177.339 E174.13789
G1 X113.299 Y177.655 E174.15269
G1 X113.199 Y177.989 E174.16718
G1 X113.165 Y178.360 E174.18267
G1 X113.204 Y178.721 E174.19777
G1 X113.314 Y179.068 E174.21290
G1 X113.493 Y179.389 E174.22818
G1 X113.734 Y179.669 E174.24354
G1 X114.026 Y179.897 E174.25894
G1 X114.361 Y180.063 E174.27449
G1 X114.725 Y180.156 E174.29011
G1 X115.104 Y180.175 E174.30588
G1 X115.479 Y180.115 E174.32167
G1 X115.837 Y179.977 E174.33763
G1 X116.151 Y179.772 E174.35322
G1 X116.433 Y179.491 E174.36977
G1 X116.648 Y179.152 E174.38646
G1 X116.780 Y178.793 E174.40236
G1 X116.835 Y178.453 E174.41668
G1 X116.824 Y178.119 E174.43057
G1 X116.755 Y177.793 E174.44443
G1 F2100 E174.04443
G0 F4800 X116.755 Y131.928
G1 F2100 E174.44443
G1 F1200 X117.131 Y131.868 E174.46026
G1 X117.490 Y131.730 E174.47625
G1 X117.812 Y131.518 E174.49227
G1 X118.085 Y131.243 E174.50838
G1 X118.300 Y130.905 E174.52504
G1 X118.432 Y130.546 E174.54094
G1 X118.487 Y130.206 E174.55526
G1 X118.476 Y129.871 E174.56920
G1 X118.407 Y129.546 E174.58301
G1 X118.277 Y129.235 E174.59702
G1 X118.093 Y128.953 E174.61102
G1 X117.858 Y128.707 E174.62517
G1 X117.580 Y128.508 E174.63938
G1 X117.268 Y128.363 E174.65368
G1 X116.933 Y128.280 E174.66803
G1 X116.588 Y128.258 E174.68241
G1 X116.244 Y128.303 E174.69683
G1 X115.913 Y128.413 E174.71133
G1 X115.606 Y128.585 E174.72596
G1 X115.338 Y128.814 E174.74062
G1 X115.115 Y129.092 E174.75543
G1 X114.951 Y129.408 E174.77023
G1 X114.851 Y129.742 E174.78473
G1 X114.817 Y130.112 E174.80018
G1 X114.856 Y130.473 E174.81527
G1 X114.966 Y130.821 E174.83045
G1 X115.145 Y131.141 E174.84569
G1 X115.385 Y131.422 E174.86106
G1 X115.679 Y131.650 E174.87652
G1 X116.014 Y131.815 E174.89205
G1 X116.377 Y131.908 E174.90763
G1 X116.755 Y131.928 E174.92337
G0 F4800 X117.000 Y132.572
;TYPE:SKIN
G1 F1200 X117.000 Y176.821 E176.76302
G0 F4800 X116.500 Y176.335
G1 F1200 X116.500 Y132.591 E178.58169
G0 F4800 X116.000 Y132.508
G1 F1200 X116.000 Y176.044 E180.39171
G0 F4800 X115.500 Y175.886
G1 F1200 X115.500 Y132.315 E182.20318
G0 F4800 X115.000 Y131.979
G1 F1200 X115.000 Y175.833 E184.02641
G0 F4800 X114.500 Y175.881
G1 F1200 X114.500 Y131.371 E185.87693
G1 F2100 E185.47693
G0 F4800 X114.500 Y128.811
G1 F2100 E185.87693
G1 F1200 X114.500 Y128.026 E185.90956
G0 F4800 X114.000 Y127.996
G1 F1200 X114.000 Y176.036 E187.90683
G0 F4800 X113.500 Y176.334
G1 F1200 X113.500 Y127.965 E189.91778
G0 F4800 X113.000 Y127.935
G1 F1200 X113.000 Y176.839 E191.95097
G0 F4800 X112.500 Y178.222
G1 F1200 X112.500 Y127.905 E194.04291
G0 F4800 X112.000 Y127.875
G1 F1200 X112.000 Y180.118 E196.21492
G0 F4800 X112.500 Y180.148
G1 F1200 X112.500 Y178.485 E196.28406
G0 F4800 X113.000 Y179.850
G1 F1200 X113.000 Y180.178 E196.29770
G1 F2100 E195.89770
G0 F4800 X111.500 Y180.087
G1 F2100 E196.29770
G1 F1200 X111.500 Y127.844 E198.46971
G0 F4800 X111.000 Y127.814
G1 F1200 X111.000 Y180.057 E200.64172
G0 F4800 X110.500 Y180.027
G1 F1200 X110.500 Y127.784 E202.81373
G0 F4800 X110.000 Y127.754
G1 F1200 X110.000 Y179.996 E204.98570
G0 F4800 X109.500 Y179.966
G1 F1200 X109.500 Y127.723 E207.15772
G0 F4800 X109.000 Y127.693
G1 F1200 X109.000 Y179.936 E209.32973
G0 F4800 X108.500 Y179.906
G1 F1200 X108.500 Y127.663 E211.50174
G0 F4800 X108.000 Y127.633
G1 F1200 X108.000 Y179.875 E213.67371
G0 F4800 X107.500 Y179.845
G1 F1200 X107.500 Y127.602 E215.84572
G0 F4800 X107.000 Y127.572
G1 F1200 X107.000 Y179.815 E218.01773
G0 F4800 X106.500 Y179.784
G1 F1200 X106.500 Y127.542 E220.18970
G0 F4800 X106.000 Y127.512
G1 F1200 X106.000 Y179.754 E222.36167
G0 F4800 X105.500 Y179.724
G1 F1200 X105.500 Y127.481 E224.53368
G0 F4800 X105.000 Y127.451
G1 F1200 X105.000 Y179.694 E226.70570
G0 F4800 X104.500 Y179.663
G1 F1200 X104.500 Y127.421 E228.87767
G0 F4800 X104.000 Y127.391
G1 F1200 X104.000 Y179.633 E231.04964
G0 F4800 X103.500 Y179.603
G1 F1200 X103.500 Y127.360 E233.22165
G0 F4800 X103.000 Y127.408
G1 F1200 X103.000 Y179.572 E235.39037
G0 F4800 X102.500 Y179.542
G1 F1200 X102.500 Y127.734 E237.54430
G1 F2100 E237.14430
G0 F4800 X102.000 Y132.154
G1 F2100 E237.54430
G1 F1200 X102.000 Y179.512 E239.51322
G0 F4800 X101.500 Y179.482
G1 F1200 X101.500 Y140.409 E241.13768
G1 F2100 E240.73768
G0 F4800 X101.000 Y148.663
G1 F2100 E241.13768
G1 F1200 X101.000 Y179.451 E242.41770
G0 F4800 X100.500 Y179.421
G1 F1200 X100.500 Y156.918 E243.35327
G1 F2100 E242.95327
G0 F4800 X100.000 Y165.172
G1 F2100 E243.35327
G1 F1200 X100.000 Y179.355 E243.94293
G1 F2100 E243.54293
G0 F4800 X117.000 Y179.856
G1 F2100 E243.94293
G1 F1200 X117.000 Y180.420 E243.96637
G0 F4800 X117.500 Y180.451
G1 F1200 X117.500 Y178.570 E244.04458
G0 F4800 X117.500 Y178.127
G1 F1200 X117.500 Y132.449 E245.94365
G0 F4800 X118.000 Y132.202
G1 F1200 X118.000 Y180.481 E247.95086
G0 F4800 X118.500 Y180.511
G1 F1200 X118.500 Y131.783 E249.97673
G0 F4800 X119.000 Y130.958
G1 F1200 X119.000 Y180.542 E252.03819
G0 F4800 X119.500 Y180.572
G1 F1200 X119.500 Y128.330 E254.21016
G0 F4800 X119.000 Y128.300
G1 F1200 X118.750 Y128.807 E254.24814
G1 X118.500 Y128.279 E254.27243
G1 F2100 E253.87243
G0 F4800 X115.000 Y128.215
G1 F2100 E254.27243
G1 F1200 X115.000 Y128.056 E254.27904
G0 F4800 X120.000 Y128.360
G1 F1200 X120.000 Y180.602 E256.45101
G0 F4800 X120.500 Y180.632
G1 F1200 X120.500 Y128.390 E258.62298
G0 F4800 X121.000 Y128.421
G1 F1200 X121.000 Y180.663 E260.79495
G0 F4800 X121.500 Y180.693
G1 F1200 X121.500 Y128.451 E262.96692
G0 F4800 X122.000 Y128.481
G1 F1200 X122.000 Y180.723 E265.13889
G0 F4800 X122.500 Y180.754
G1 F1200 X122.500 Y128.512 E267.31086
G0 F4800 X123.000 Y128.542
G1 F1200 X123.000 Y180.784 E269.48283
G0 F4800 X123.500 Y180.814
G1 F1200 X123.500 Y128.572 E271.65480
G0 F4800 X124.000 Y128.603
G1 F1200 X124.000 Y180.845 E273.82677
G0 F4800 X124.500 Y180.875
G1 F1200 X124.500 Y128.633 E275.99874
G0 F4800 X125.000 Y128.663
G1 F1200 X125.000 Y180.905 E278.17071
G0 F4800 X125.500 Y180.935
G1 F1200 X125.500 Y128.693 E280.34268
G0 F4800 X126.000 Y128.724
G1 F1200 X126.000 Y180.966 E282.51465
G0 F4800 X126.500 Y180.996
G1 F1200 X126.500 Y128.754 E284.68662
G0 F4800 X127.000 Y128.784
G1 F1200 X127.000 Y181.026 E286.85859
G0 F4800 X127.500 Y181.057
G1 F1200 X127.500 Y128.815 E289.03056
G0 F4800 X128.000 Y128.845
G1 F1200 X128.000 Y181.087 E291.20253
G0 F4800 X128.500 Y181.117
G1 F1200 X128.500 Y128.875 E293.37450
G0 F4800 X129.000 Y128.906
G1 F1200 X129.000 Y181.147 E295.54643
G0 F4800 X129.500 Y181.178
G1 F1200 X129.500 Y128.936 E297.71840
G0 F4800 X130.000 Y128.966
G1 F1200 X130.000 Y181.208 E299.89037
G0 F4800 X130.500 Y181.238
G1 F1200 X130.500 Y128.996 E302.06234
G0 F4800 X131.000 Y129.027
G1 F1200 X131.000 Y181.269 E304.23431
G0 F4800 X131.500 Y181.299
G1 F1200 X131.500 Y129.057 E306.40628
G0 F4800 X132.000 Y129.087
G1 F1200 X132.000 Y181.329 E308.57825
G0 F4800 X132.500 Y181.359
G1 F1200 X132.500 Y129.118 E310.75018
G0 F4800 X133.000 Y129.148
G1 F1200 X133.000 Y181.390 E312.92215
G0 F4800 X133.500 Y181.420
G1 F1200 X133.500 Y129.178 E315.09412
G0 F4800 X134.000 Y129.209
G1 F1200 X134.000 Y181.450 E317.26605
G0 F4800 X134.500 Y181.481
G1 F1200 X134.500 Y129.239 E319.43802
G0 F4800 X135.000 Y129.269
G1 F1200 X135.000 Y181.511 E321.60999
G0 F4800 X135.500 Y181.541
G1 F1200 X135.500 Y129.300 E323.78191
G0 F4800 X136.000 Y129.330
G1 F1200 X136.000 Y181.572 E325.95388
G0 F4800 X136.500 Y181.602
G1 F1200 X136.500 Y129.360 E328.12585
G0 F4800 X137.000 Y129.390
G1 F1200 X137.000 Y181.632 E330.29782
G0 F4800 X137.500 Y181.662
G1 F1200 X137.500 Y129.421 E332.46975
G0 F4800 X138.000 Y129.451
G1 F1200 X138.000 Y181.693 E334.64172
G0 F4800 X138.500 Y181.723
G1 F1200 X138.500 Y129.481 E336.81369
G0 F4800 X139.000 Y129.512
G1 F1200 X139.000 Y181.753 E338.98562
G0 F4800 X139.500 Y181.784
G1 F1200 X139.500 Y129.542 E341.15759
G0 F4800 X140.000 Y129.572
G1 F1200 X140.000 Y181.814 E343.32956
G0 F4800 X140.500 Y181.844
G1 F1200 X140.500 Y129.603 E345.50149
G0 F4800 X141.000 Y129.633
G1 F1200 X141.000 Y181.874 E347.67342
G0 F4800 X141.500 Y181.905
G1 F1200 X141.500 Y129.663 E349.84539
G0 F4800 X142.000 Y129.693
G1 F1200 X142.000 Y181.935 E352.01736
G0 F4800 X142.500 Y181.965
G1 F1200 X142.500 Y129.724 E354.18929
G0 F4800 X143.000 Y129.754
G1 F1200 X143.000 Y181.996 E356.36126
G0 F4800 X143.500 Y182.026
G1 F1200 X143.500 Y129.784 E358.53323
G0 F4800 X144.000 Y129.815
G1 F1200 X144.000 Y182.056 E360.70515
G0 F4800 X144.500 Y182.087
G1 F1200 X144.500 Y129.845 E362.87712
G0 F4800 X145.000 Y129.875
G1 F1200 X145.000 Y182.117 E365.04909
G0 F4800 X145.500 Y182.147
G1 F1200 X145.500 Y129.906 E367.22102
G0 F4800 X146.000 Y129.936
G1 F1200 X146.000 Y182.177 E369.39295
G0 F4800 X146.500 Y182.208
G1 F1200 X146.500 Y129.966 E371.56492
G0 F4800 X147.000 Y129.997
G1 F1200 X147.000 Y182.238 E373.73685
G0 F4800 X147.500 Y182.268
G1 F1200 X147.500 Y130.027 E375.90878
G0 F4800 X148.000 Y130.057
G1 F1200 X148.000 Y182.299 E378.08075
G0 F4800 X148.500 Y182.329
G1 F1200 X148.500 Y130.087 E380.25272
G0 F4800 X149.000 Y130.118
G1 F1200 X149.000 Y182.359 E382.42465
G0 F4800 X149.500 Y182.389
G1 F1200 X149.500 Y130.148 E384.59657
G0 F4800 X150.000 Y130.178
G1 F1200 X150.000 Y182.420 E386.76854
G0 F4800 X150.500 Y182.450
G1 F1200 X150.500 Y130.209 E388.94047
G0 F4800 X151.000 Y130.239
G1 F1200 X151.000 Y182.480 E391.11240
G0 F4800 X151.500 Y182.511
G1 F1200 X151.500 Y130.269 E393.28437
G0 F4800 X152.000 Y130.300
G1 F1200 X152.000 Y182.541 E395.45630
G0 F4800 X152.500 Y182.571
G1 F1200 X152.500 Y130.330 E397.62823
G0 F4800 X153.000 Y130.360
G1 F1200 X153.000 Y182.601 E399.80016
G0 F4800 X153.500 Y182.632
G1 F1200 X153.500 Y130.390 E401.97213
G0 F4800 X154.000 Y130.421
G1 F1200 X154.000 Y182.662 E404.14405
G0 F4800 X154.500 Y182.692
G1 F1200 X154.500 Y130.451 E406.31598
G0 F4800 X155.000 Y130.481
G1 F1200 X155.000 Y182.723 E408.48795
G0 F4800 X155.500 Y182.753
G1 F1200 X155.500 Y130.512 E410.65988
G0 F4800 X156.000 Y130.542
G1 F1200 X156.000 Y182.783 E412.83181
G0 F4800 X156.500 Y182.814
G1 F1200 X156.500 Y130.572 E415.00378
G0 F4800 X157.000 Y130.603
G1 F1200 X157.000 Y182.844 E417.17571
G0 F4800 X157.500 Y182.874
G1 F1200 X157.500 Y130.633 E419.34764
G0 F4800 X158.000 Y130.663
G1 F1200 X158.000 Y182.904 E421.51956
G0 F4800 X158.500 Y182.935
G1 F1200 X158.500 Y130.694 E423.69149
G0 F4800 X159.000 Y130.724
G1 F1200 X159.000 Y182.965 E425.86342
G0 F4800 X159.500 Y182.995
G1 F1200 X159.500 Y130.754 E428.03535
G0 F4800 X160.000 Y130.784
G1 F1200 X160.000 Y183.026 E430.20732
G0 F4800 X160.500 Y183.056
G1 F1200 X160.500 Y130.815 E432.37925
G0 F4800 X161.000 Y130.845
G1 F1200 X161.000 Y183.086 E434.55118
G0 F4800 X161.500 Y183.116
G1 F1200 X161.500 Y130.875 E436.72311
G0 F4800 X162.000 Y130.906
G1 F1200 X162.000 Y183.147 E438.89503
G0 F4800 X162.500 Y183.177
G1 F1200 X162.500 Y130.936 E441.06696
G0 F4800 X163.000 Y130.966
G1 F1200 X163.000 Y183.207 E443.23889
G0 F4800 X163.500 Y183.238
G1 F1200 X163.500 Y130.997 E445.41082
G0 F4800 X164.000 Y131.027
G1 F1200 X164.000 Y183.268 E447.58275
G0 F4800 X164.500 Y183.298
G1 F1200 X164.500 Y167.522 E448.23864
G0 F4800 X165.000 Y168.105
G1 F1200 X165.000 Y183.328 E448.87154
G0 F4800 X165.500 Y183.359
G1 F1200 X165.500 Y168.436 E449.49196
G0 F4800 X166.000 Y168.623
G1 F1200 X166.000 Y183.389 E450.10586
G0 F4800 X166.500 Y183.325
G1 F1200 X166.500 Y168.700 E450.71390
G0 F4800 X167.000 Y168.676
G1 F1200 X167.000 Y182.968 E451.30809
G1 F2100 E450.90809
G0 F4800 X167.500 Y177.926
G1 F2100 E451.30809
G1 F1200 X167.500 Y168.547 E451.69802
G0 F4800 X168.000 Y168.295
G1 F1200 X168.000 Y169.663 E451.75490
G1 F2100 E451.35490
G0 F4800 X168.000 Y164.104
G1 F2100 E451.75490
G1 F1200 X168.000 Y140.802 E452.72368
G0 F4800 X168.500 Y140.819
G1 F1200 X168.500 Y161.406 E453.57959
G1 F2100 E453.17959
G0 F4800 X167.500 Y163.845
G1 F2100 E453.57959
G1 F1200 X167.500 Y140.687 E454.54239
G0 F4800 X167.000 Y140.453
G1 F1200 X167.000 Y163.718 E455.50964
G0 F4800 X166.500 Y163.694
G1 F1200 X166.500 Y140.037 E456.49318
G1 F2100 E456.09318
G0 F4800 X169.000 Y140.732
G1 F2100 E456.49318
G1 F1200 X169.000 Y153.150 E457.00946
G1 F2100 E456.60946
G0 F4800 X169.500 Y149.292
G1 F2100 E457.00946
G1 F1200 X169.500 Y140.530 E457.37374
G0 F4800 X170.000 Y140.169
G1 F1200 X170.000 Y148.593 E457.72397
G0 F4800 X170.500 Y148.187
G1 F1200 X170.500 Y139.546 E458.08322
G1 F2100 E457.68322
G0 F4800 X170.500 Y137.074
G1 F2100 E458.08322
G1 F1200 X170.500 Y131.128 E458.33043
G0 F4800 X170.000 Y131.297
G1 F1200 X170.000 Y136.449 E458.54462
G0 F4800 X169.500 Y136.102
G1 F1200 X169.500 Y131.333 E458.74289
G0 F4800 X169.000 Y131.330
G1 F1200 X169.000 Y135.904 E458.93306
G0 F4800 X168.500 Y135.818
G1 F1200 X168.500 Y131.300 E459.12090
G0 F4800 X168.000 Y131.269
G1 F1200 X168.000 Y135.832 E459.31060
G0 F4800 X167.500 Y135.950
G1 F1200 X167.500 Y131.239 E459.50646
G0 F4800 X167.000 Y131.209
G1 F1200 X167.000 Y136.186 E459.71338
G0 F4800 X166.500 Y136.583
G1 F1200 X166.500 Y131.178 E459.93810
G0 F4800 X166.000 Y131.148
G1 F1200 X166.000 Y137.353 E460.19607
G1 F2100 E459.79607
G0 F4800 X166.000 Y139.282
G1 F2100 E460.19607
G1 F1200 X166.000 Y163.774 E461.21433
G0 F4800 X165.500 Y163.966
G1 F1200 X165.500 Y131.118 E462.57999
G0 F4800 X165.000 Y131.087
G1 F1200 X165.000 Y164.303 E463.96095
G0 F4800 X164.500 Y164.875
G1 F1200 X164.500 Y131.057 E465.36694
G1 F2100 E464.96694
G0 F4800 X171.000 Y130.867
G1 F2100 E465.36694
G1 F1200 X171.000 Y147.924 E466.07609
G0 F4800 X171.500 Y147.752
G1 F1200 X171.500 Y130.466 E466.79476
G0 F4800 X172.000 Y129.773
G1 F1200 X172.000 Y147.716 E467.54074
G0 F4800 X172.500 Y147.719
G1 F1200 X172.500 Y126.006 E468.44346
G1 F2100 E468.04346
G0 F4800 X173.000 Y121.958
G1 F2100 E468.44346
G1 F1200 X173.000 Y147.749 E469.51573
G0 F4800 X173.500 Y147.779
G1 F1200 X173.500 Y121.653 E470.60192
G0 F4800 X174.000 Y121.615
G1 F1200 X174.000 Y147.809 E471.69094
G0 F4800 X174.500 Y147.840
G1 F1200 X174.500 Y121.645 E472.78000
G0 F4800 X175.000 Y121.675
G1 F1200 X175.000 Y147.870 E473.86906
G0 F4800 X175.500 Y147.900
G1 F1200 X175.500 Y121.706 E474.95808
G0 F4800 X176.000 Y121.736
G1 F1200 X176.000 Y147.931 E476.04715
G0 F4800 X176.500 Y147.961
G1 F1200 X176.500 Y121.766 E477.13621
G0 F4800 X177.000 Y121.797
G1 F1200 X177.000 Y147.991 E478.22523
G0 F4800 X177.500 Y148.021
G1 F1200 X177.500 Y121.827 E479.31425
G0 F4800 X178.000 Y121.857
G1 F1200 X178.000 Y148.052 E480.40331
G0 F4800 X178.500 Y148.082
G1 F1200 X178.500 Y121.887 E481.49237
G0 F4800 X179.000 Y121.918
G1 F1200 X179.000 Y148.112 E482.58139
G0 F4800 X179.500 Y148.143
G1 F1200 X179.500 Y121.948 E483.67045
G0 F4800 X180.000 Y121.978
G1 F1200 X180.000 Y148.173 E484.75951
G0 F4800 X180.500 Y148.203
G1 F1200 X180.500 Y122.008 E485.84857
G0 F4800 X181.000 Y122.039
G1 F1200 X181.000 Y148.234 E486.93764
G0 F4800 X181.500 Y148.264
G1 F1200 X181.500 Y122.069 E488.02670
G0 F4800 X182.000 Y122.099
G1 F1200 X182.000 Y148.294 E489.11576
G0 F4800 X182.500 Y148.324
G1 F1200 X182.500 Y122.130 E490.20478
G0 F4800 X183.000 Y122.160
G1 F1200 X183.000 Y148.355 E491.29384
G0 F4800 X183.500 Y148.385
G1 F1200 X183.500 Y122.190 E492.38290
G0 F4800 X184.000 Y122.220
G1 F1200 X184.000 Y148.415 E493.47196
G0 F4800 X184.500 Y148.446
G1 F1200 X184.500 Y122.251 E494.56103
G0 F4800 X185.000 Y122.281
G1 F1200 X185.000 Y148.476 E495.65009
G0 F4800 X185.500 Y148.506
G1 F1200 X185.500 Y122.311 E496.73915
G0 F4800 X186.000 Y122.342
G1 F1200 X186.000 Y148.536 E497.82817
G0 F4800 X186.500 Y148.567
G1 F1200 X186.500 Y122.372 E498.91723
G0 F4800 X187.000 Y122.402
G1 F1200 X187.000 Y148.597 E500.00629
G0 F4800 X187.500 Y148.627
G1 F1200 X187.500 Y122.432 E501.09535
G0 F4800 X188.000 Y122.463
G1 F1200 X188.000 Y148.658 E502.18441
G0 F4800 X188.500 Y148.688
G1 F1200 X188.500 Y122.493 E503.27348
G0 F4800 X189.000 Y122.523
G1 F1200 X189.000 Y148.718 E504.36254
G0 F4800 X189.500 Y148.748
G1 F1200 X189.500 Y122.554 E505.45156
G0 F4800 X190.000 Y122.584
G1 F1200 X190.000 Y148.779 E506.54062
G0 F4800 X190.500 Y148.809
G1 F1200 X190.500 Y122.614 E507.62968
G0 F4800 X191.000 Y122.644
G1 F1200 X191.000 Y148.839 E508.71874
G0 F4800 X191.500 Y148.870
G1 F1200 X191.500 Y122.675 E509.80780
G0 F4800 X192.000 Y122.705
G1 F1200 X192.000 Y148.900 E510.89687
G0 F4800 X192.500 Y148.930
G1 F1200 X192.500 Y122.735 E511.98593
G0 F4800 X193.000 Y122.765
G1 F1200 X193.000 Y148.960 E513.07499
G0 F4800 X193.500 Y148.991
G1 F1200 X193.500 Y122.796 E514.16405
G0 F4800 X194.000 Y122.826
G1 F1200 X194.000 Y149.021 E515.25311
G0 F4800 X194.500 Y149.051
G1 F1200 X194.500 Y122.856 E516.34217
G0 F4800 X195.000 Y122.887
G1 F1200 X195.000 Y149.082 E517.43123
G0 F4800 X195.500 Y149.112
G1 F1200 X195.500 Y122.917 E518.52030
G0 F4800 X196.000 Y122.947
G1 F1200 X196.000 Y149.142 E519.60936
G0 F4800 X196.500 Y149.172
G1 F1200 X196.500 Y122.977 E520.69842
G0 F4800 X197.000 Y123.008
G1 F1200 X197.000 Y149.203 E521.78748
G0 F4800 X197.500 Y149.233
G1 F1200 X197.500 Y123.038 E522.87654
G0 F4800 X198.000 Y123.068
G1 F1200 X198.000 Y149.263 E523.96560
G0 F4800 X198.500 Y149.294
G1 F1200 X198.500 Y123.099 E525.05467
G0 F4800 X199.000 Y123.129
G1 F1200 X199.000 Y149.324 E526.14373
G0 F4800 X199.500 Y149.354
G1 F1200 X199.500 Y123.159 E527.23279
G0 F4800 X200.000 Y123.189
G1 F1200 X200.000 Y149.384 E528.32185
G0 F4800 X200.500 Y149.415
G1 F1200 X200.500 Y123.220 E529.41091
G0 F4800 X201.000 Y123.250
G1 F1200 X201.000 Y149.445 E530.49997
G0 F4800 X201.500 Y149.475
G1 F1200 X201.500 Y123.280 E531.58903
G0 F4800 X202.000 Y123.311
G1 F1200 X202.000 Y149.506 E532.67810
G0 F4800 X202.500 Y149.536
G1 F1200 X202.500 Y123.341 E533.76716
G0 F4800 X203.000 Y123.371
G1 F1200 X203.000 Y149.566 E534.85622
G0 F4800 X203.500 Y149.548
G1 F1200 X203.500 Y123.401 E535.94329
G0 F4800 X204.000 Y123.432
G1 F1200 X204.000 Y149.282 E537.01800
G1 F2100 E536.61800
G0 F4800 X204.500 Y145.980
G1 F2100 E537.01800
G1 F1200 X204.500 Y123.462 E537.95419
G0 F4800 X205.000 Y123.528
G1 F1200 X205.000 Y137.720 E538.54423
G1 F2100 E538.14423
G0 F4800 X205.500 Y129.460
G1 F2100 E538.54423
G1 F1200 X205.500 Y123.827 E538.77842
G1 F2100 E538.37842
G0 F4800 X99.500 Y173.427
G1 F2100 E538.77842
G1 F1200 X99.500 Y179.057 E539.01249
;LAYER:1
M106 S10
G0 F4800 X99.347 Y179.156 Z0.400
;TYPE:WALL-INNER
G1 F1560 X99.166 Y178.886 E539.02600
G1 X99.060 Y178.580 E539.03947
G1 X99.034 Y178.210 E539.05489
G1 X102.053 Y128.390 E541.12996
G1 X102.123 Y128.031 E541.14517
G1 X102.266 Y127.738 E541.15872
G1 X102.479 Y127.492 E541.17225
G1 X102.748 Y127.311 E541.18573
G1 X103.054 Y127.205 E541.19920
G1 X103.424 Y127.179 E541.21462
G1 X115.791 Y127.928 E541.72972
G1 X115.693 Y127.962 E541.73403
G1 X115.305 Y128.184 E541.75262
G1 X114.965 Y128.478 E541.77130
G1 X114.685 Y128.833 E541.79010
G1 X114.479 Y129.239 E541.80903
G1 X114.355 Y129.675 E541.82787
G1 X114.319 Y130.058 E541.84387
G1 X114.319 Y130.169 E541.84848
G1 X114.370 Y130.596 E541.86636
G1 X114.513 Y131.037 E541.88564
G1 X114.744 Y131.442 E541.90502
G1 X115.047 Y131.792 E541.92427
G1 X115.394 Y132.065 E541.94262
G1 X115.850 Y132.290 E541.96376
G1 X116.314 Y132.407 E541.98366
G1 X116.795 Y132.429 E542.00368
G1 X117.273 Y132.350 E542.02382
G1 X117.729 Y132.172 E542.04417
G1 X118.134 Y131.903 E542.06438
G1 X118.488 Y131.545 E542.08532
G1 X118.759 Y131.108 E542.10669
G1 X118.916 Y130.686 E542.12541
G1 X118.988 Y130.239 E542.14424
G1 X118.975 Y129.807 E542.16221
G1 X118.884 Y129.391 E542.17991
G1 X118.717 Y128.993 E542.19786
G1 X118.480 Y128.634 E542.21574
G1 X118.180 Y128.323 E542.23370
G1 X117.823 Y128.068 E542.25194
G1 X117.781 Y128.049 E542.25386
G1 X169.306 Y131.172 E544.39995
G1 X169.974 Y131.124 E544.42780
G1 X170.654 Y130.890 E544.45769
G1 X171.251 Y130.487 E544.48764
G1 X171.722 Y129.943 E544.51756
G1 X172.038 Y129.297 E544.54746
G1 X172.165 Y128.638 E544.57536
G1 X172.528 Y122.647 E544.82489
G1 X172.599 Y122.283 E544.84031
G1 X172.741 Y121.990 E544.85385
G1 X172.955 Y121.745 E544.86737
G1 X173.222 Y121.564 E544.88078
G1 X173.527 Y121.459 E544.89419
G1 X173.901 Y121.432 E544.90978
G1 X204.751 Y123.301 E546.19473
G1 X205.115 Y123.372 E546.21015
G1 X205.408 Y123.514 E546.22368
G1 X205.653 Y123.728 E546.23721
G1 X205.834 Y123.995 E546.25062
G1 X205.940 Y124.303 E546.26416
G1 X205.966 Y124.673 E546.27958
G1 X204.530 Y148.367 E547.26647
G1 X204.517 Y148.556 E547.27435
G1 X204.450 Y148.900 E547.28892
G1 X204.307 Y149.194 E547.30251
G1 X204.095 Y149.439 E547.31598
G1 X203.825 Y149.620 E547.32949
G1 X203.519 Y149.726 E547.34296
G1 X203.149 Y149.752 E547.35838
G1 X172.834 Y147.916 E548.62104
G1 X172.203 Y147.877 E548.64732
G1 X171.534 Y147.925 E548.67521
G1 X170.853 Y148.159 E548.70515
G1 X170.258 Y148.562 E548.73502
G1 X169.785 Y149.105 E548.76496
G1 X169.471 Y149.752 E548.79486
G1 X169.342 Y150.409 E548.82270
G1 X168.472 Y164.767 E549.42073
G1 X168.156 Y164.431 E549.43991
G1 X167.800 Y164.178 E549.45806
G1 X167.399 Y163.994 E549.47641
G1 X166.971 Y163.890 E549.49472
G1 X166.529 Y163.866 E549.51312
G1 X166.092 Y163.927 E549.53147
G1 X165.669 Y164.070 E549.55003
G1 X165.281 Y164.293 E549.56864
G1 X164.942 Y164.585 E549.58724
G1 X164.661 Y164.941 E549.60609
G1 X164.455 Y165.347 E549.62502
G1 X164.331 Y165.783 E549.64387
G1 X164.295 Y166.167 E549.65990
G1 X164.295 Y166.278 E549.66452
G1 X164.346 Y166.705 E549.68240
G1 X164.489 Y167.145 E549.70163
G1 X164.720 Y167.552 E549.72109
G1 X165.024 Y167.901 E549.74033
G1 X165.369 Y168.172 E549.75857
G1 X165.825 Y168.399 E549.77975
G1 X166.291 Y168.516 E549.79972
G1 X166.772 Y168.537 E549.81974
G1 X167.249 Y168.458 E549.83984
G1 X167.704 Y168.280 E549.86015
G1 X168.109 Y168.013 E549.88032
G1 X168.286 Y167.836 E549.89073
G1 X167.407 Y182.353 E550.49538
G1 X167.336 Y182.717 E550.51080
G1 X167.194 Y183.010 E550.52434
G1 X166.980 Y183.255 E550.53786
G1 X166.713 Y183.436 E550.55127
G1 X166.405 Y183.542 E550.56481
G1 X166.035 Y183.568 E550.58023
G1 X115.809 Y180.524 E552.67222
G1 X116.076 Y180.420 E552.68413
G1 X116.483 Y180.151 E552.70442
G1 X116.832 Y179.799 E552.72502
G1 X117.107 Y179.354 E552.74677
G1 X117.264 Y178.933 E552.76545
G1 X117.336 Y178.485 E552.78432
G1 X117.323 Y178.056 E552.80216
G1 X117.232 Y177.637 E552.81999
G1 X117.065 Y177.241 E552.83786
G1 X116.828 Y176.881 E552.85578
G1 X116.528 Y176.570 E552.87374
G1 X116.172 Y176.317 E552.89190
G1 X115.771 Y176.133 E552.91024
G1 X115.343 Y176.029 E552.92855
G1 X114.902 Y176.005 E552.94691
G1 X114.464 Y176.065 E552.96529
G1 X114.040 Y176.210 E552.98392
G1 X113.653 Y176.432 E553.00247
G1 X113.314 Y176.724 E553.02108
G1 X113.033 Y177.080 E553.03993
G1 X112.827 Y177.486 E553.05886
G1 X112.703 Y177.922 E553.07770
G1 X112.667 Y178.306 E553.09374
G1 X112.667 Y178.417 E553.09835
G1 X112.718 Y178.844 E553.11623
G1 X112.861 Y179.284 E553.13547
G1 X113.092 Y179.691 E553.15492
G1 X113.396 Y180.040 E553.17417
G1 X113.741 Y180.311 E553.19241
G1 X113.941 Y180.411 E553.20170
G1 X100.245 Y179.581 E553.77216
G1 X99.886 Y179.511 E553.78737
G1 X99.592 Y179.368 E553.80096
G1 X99.347 Y179.156 E553.81443
G1 F2100 E553.41443
G0 F4800 X166.411 Y139.664
G1 F2100 E553.81443
G1 F1560 X166.713 Y140.012 E553.83359
G1 X167.059 Y140.284 E553.85188
G1 X167.515 Y140.511 E553.87306
G1 X167.978 Y140.627 E553.89291
G1 X168.379 Y140.648 E553.90960
G1 X168.490 Y140.644 E553.91422
G1 X168.939 Y140.570 E553.93314
G1 X169.394 Y140.393 E553.95344
G1 X169.799 Y140.125 E553.97363
G1 X170.156 Y139.765 E553.99470
G1 X170.425 Y139.327 E554.01607
G1 X170.582 Y138.908 E554.03468
G1 X170.654 Y138.458 E554.05362
G1 X170.641 Y138.028 E554.07151
G1 X170.550 Y137.612 E554.08921
G1 X170.383 Y137.214 E554.10716
G1 X170.146 Y136.854 E554.12508
G1 X169.846 Y136.543 E554.14304
G1 X169.490 Y136.290 E554.16120
G1 X169.089 Y136.106 E554.17954
G1 X168.662 Y136.002 E554.19781
G1 X168.219 Y135.978 E554.21626
G1 X167.780 Y136.039 E554.23469
G1 X167.359 Y136.183 E554.25319
G1 X166.971 Y136.405 E554.27177
G1 X166.632 Y136.698 E554.29040
G1 X166.351 Y137.053 E554.30922
G1 X166.145 Y137.460 E554.32819
G1 X166.020 Y137.896 E554.34704
G1 X165.986 Y138.281 E554.36311
G1 X165.986 Y138.388 E554.36756
G1 X166.036 Y138.816 E554.38548
G1 X166.180 Y139.258 E554.40480
G1 X166.411 Y139.664 E554.42422
G0 F4800 X166.821 Y139.373
;TYPE:WALL-OUTER
G1 F1560 X167.060 Y139.649 E554.43940
G1 X167.328 Y139.859 E554.45356
G1 X167.689 Y140.039 E554.47033
G1 X168.053 Y140.130 E554.48593
G1 X168.384 Y140.147 E554.49971
G1 X168.441 Y140.145 E554.50208
G1 X168.806 Y140.085 E554.51746
G1 X169.163 Y139.946 E554.53339
G1 X169.482 Y139.736 E554.54926
G1 X169.757 Y139.458 E554.56552
G1 X169.974 Y139.106 E554.58271
G1 X170.096 Y138.779 E554.59722
G1 X170.153 Y138.426 E554.61209
G1 X170.142 Y138.089 E554.62611
G1 X170.071 Y137.763 E554.63998
G1 X169.940 Y137.451 E554.65405
G1 X169.754 Y137.168 E554.66813
G1 X169.518 Y136.924 E554.68224
G1 X169.239 Y136.725 E554.69649
G1 X168.924 Y136.581 E554.71089
G1 X168.589 Y136.499 E554.72523
G1 X168.240 Y136.480 E554.73976
G1 X167.897 Y136.528 E554.75416
G1 X167.566 Y136.641 E554.76870
G1 X167.261 Y136.815 E554.78330
G1 X166.995 Y137.045 E554.79792
G1 X166.774 Y137.324 E554.81271
G1 X166.612 Y137.643 E554.82759
G1 X166.514 Y137.987 E554.84246
G1 X166.486 Y138.303 E554.85565
G1 X166.486 Y138.359 E554.85798
G1 X166.527 Y138.709 E554.87263
G1 X166.639 Y139.055 E554.88775
G1 X166.821 Y139.373 E554.90298
G1 F2100 E554.50298
G0 F4800 X169.303 Y130.671
G1 F2100 E554.90298
G1 F1560 X169.873 Y130.630 E554.92674
G1 X170.429 Y130.439 E554.95118
G1 X170.916 Y130.110 E554.97562
G1 X171.301 Y129.665 E555.00008
G1 X171.559 Y129.137 E555.02451
G1 X171.668 Y128.575 E555.04831
G1 X172.031 Y122.581 E555.29797
G1 X172.121 Y122.124 E555.31734
G1 X172.320 Y121.713 E555.33632
G1 X172.621 Y121.367 E555.35539
G1 X172.999 Y121.112 E555.37434
G1 X173.425 Y120.965 E555.39308
G1 X173.896 Y120.931 E555.41271
G1 X204.817 Y122.804 E556.70062
G1 X205.274 Y122.894 E556.71998
G1 X205.685 Y123.093 E556.73897
G1 X206.031 Y123.394 E556.75803
G1 X206.286 Y123.772 E556.77699
G1 X206.434 Y124.202 E556.79590
G1 X206.467 Y124.668 E556.81532
G1 X205.029 Y148.397 E557.80366
G1 X205.014 Y148.620 E557.81296
G1 X204.929 Y149.058 E557.83151
G1 X204.727 Y149.472 E557.85066
G1 X204.428 Y149.817 E557.86964
G1 X204.049 Y150.072 E557.88863
G1 X203.620 Y150.220 E557.90750
G1 X203.154 Y150.253 E557.92692
G1 X172.205 Y148.378 E559.21599
G1 X171.635 Y148.419 E559.23975
G1 X171.078 Y148.610 E559.26423
G1 X170.592 Y148.939 E559.28863
G1 X170.206 Y149.383 E559.31309
G1 X169.949 Y149.912 E559.33754
G1 X169.839 Y150.472 E559.36127
G1 X167.904 Y182.419 E560.69190
G1 X167.814 Y182.876 E560.71127
G1 X167.615 Y183.287 E560.73025
G1 X167.314 Y183.633 E560.74932
G1 X166.936 Y183.888 E560.76828
G1 X166.506 Y184.036 E560.78718
G1 X166.040 Y184.069 E560.80661
G1 X100.181 Y180.078 E563.54973
G1 X99.728 Y179.990 E563.56891
G1 X99.314 Y179.788 E563.58807
G1 X98.968 Y179.488 E563.60710
G1 X98.714 Y179.110 E563.62604
G1 X98.566 Y178.681 E563.64491
G1 X98.533 Y178.215 E563.66433
G1 X101.556 Y128.326 E565.74228
G1 X101.644 Y127.873 E565.76146
G1 X101.846 Y127.459 E565.78061
G1 X102.145 Y127.114 E565.79959
G1 X102.524 Y126.859 E565.81859
G1 X102.953 Y126.711 E565.83745
G1 X103.419 Y126.678 E565.85688
G1 X169.303 Y130.671 E568.60104
G1 F2100 E568.20104
G0 F4800 X166.898 Y164.387
G1 F2100 E568.60104
G1 F1560 X166.550 Y164.368 E568.61553
G1 X166.207 Y164.416 E568.62993
G1 X165.876 Y164.528 E568.64446
G1 X165.571 Y164.703 E568.65908
G1 X165.305 Y164.932 E568.67367
G1 X165.084 Y165.212 E568.68850
G1 X164.922 Y165.530 E568.70334
G1 X164.824 Y165.875 E568.71825
G1 X164.795 Y166.190 E568.73140
G1 X164.795 Y166.248 E568.73381
G1 X164.837 Y166.597 E568.74843
G1 X164.949 Y166.942 E568.76351
G1 X165.130 Y167.261 E568.77875
G1 X165.370 Y167.537 E568.79396
G1 X165.638 Y167.747 E568.80812
G1 X165.999 Y167.927 E568.82489
G1 X166.364 Y168.019 E568.84054
G1 X166.742 Y168.035 E568.85627
G1 X167.116 Y167.973 E568.87203
G1 X167.473 Y167.834 E568.88795
G1 X167.791 Y167.624 E568.90380
G1 X168.066 Y167.347 E568.92003
G1 X168.284 Y166.994 E568.93728
G1 X168.406 Y166.666 E568.95182
G1 X168.463 Y166.314 E568.96665
G1 X168.452 Y165.978 E568.98063
G1 X168.381 Y165.649 E568.99462
G1 X168.250 Y165.339 E569.00861
G1 X168.064 Y165.056 E569.02269
G1 X167.828 Y164.812 E569.03680
G1 X167.549 Y164.613 E569.05105
G1 X167.234 Y164.469 E569.06545
G1 X166.898 Y164.387 E569.07983
G1 F2100 E568.67983
G0 F4800 X116.753 Y177.788
G1 F2100 E569.07983
G1 F1560 X116.622 Y177.478 E569.09382
G1 X116.436 Y177.195 E569.10790
G1 X116.200 Y176.951 E569.12201
G1 X115.921 Y176.752 E569.13626
G1 X115.606 Y176.608 E569.15066
G1 X115.270 Y176.526 E569.16504
G1 X114.923 Y176.507 E569.17949
G1 X114.579 Y176.554 E569.19392
G1 X114.247 Y176.667 E569.20851
G1 X113.943 Y176.842 E569.22309
G1 X113.677 Y177.071 E569.23768
G1 X113.456 Y177.351 E569.25251
G1 X113.294 Y177.669 E569.26735
G1 X113.196 Y178.014 E569.28226
G1 X113.167 Y178.329 E569.29541
G1 X113.167 Y178.387 E569.29782
G1 X113.209 Y178.736 E569.31244
G1 X113.321 Y179.081 E569.32752
G1 X113.502 Y179.400 E569.34277
G1 X113.742 Y179.676 E569.35797
G1 X114.010 Y179.886 E569.37213
G1 X114.371 Y180.066 E569.38890
G1 X114.736 Y180.158 E569.40455
G1 X115.114 Y180.174 E569.42028
G1 X115.488 Y180.112 E569.43604
G1 X115.845 Y179.973 E569.45197
G1 X116.164 Y179.762 E569.46787
G1 X116.437 Y179.488 E569.48395
G1 X116.656 Y179.133 E569.50129
G1 X116.778 Y178.805 E569.51584
G1 X116.835 Y178.453 E569.53066
G1 X116.824 Y178.117 E569.54464
G1 X116.753 Y177.788 E569.55863
G1 F2100 E569.15863
G0 F4800 X116.766 Y131.927
G1 F2100 E569.55863
G1 F1560 X117.140 Y131.865 E569.57440
G1 X117.497 Y131.726 E569.59032
G1 X117.815 Y131.514 E569.60621
G1 X118.090 Y131.238 E569.62241
G1 X118.308 Y130.887 E569.63959
G1 X118.430 Y130.558 E569.65418
G1 X118.487 Y130.206 E569.66900
G1 X118.476 Y129.868 E569.68306
G1 X118.405 Y129.542 E569.69693
G1 X118.274 Y129.230 E569.71100
G1 X118.088 Y128.948 E569.72505
G1 X117.852 Y128.703 E569.73919
G1 X117.572 Y128.503 E569.75350
G1 X117.258 Y128.361 E569.76782
G1 X116.922 Y128.279 E569.78220
G1 X116.575 Y128.259 E569.79665
G1 X116.231 Y128.307 E569.81109
G1 X115.900 Y128.420 E569.82564
G1 X115.595 Y128.594 E569.84023
G1 X115.328 Y128.825 E569.85491
G1 X115.108 Y129.104 E569.86968
G1 X114.946 Y129.422 E569.88452
G1 X114.848 Y129.767 E569.89943
G1 X114.819 Y130.081 E569.91254
G1 X114.819 Y130.139 E569.91495
G1 X114.861 Y130.488 E569.92957
G1 X114.973 Y130.834 E569.94469
G1 X115.154 Y131.152 E569.95990
G1 X115.394 Y131.429 E569.97514
G1 X115.662 Y131.640 E569.98932
G1 X116.023 Y131.818 E570.00605
G1 X116.387 Y131.910 E570.02166
G1 X116.766 Y131.927 E570.03744
G0 F4800 X117.366 Y132.500
;TYPE:SKIN
G1 F1560 X205.314 Y132.500 E573.69389
G0 F4800 X205.284 Y133.000
G1 F1560 X101.948 Y133.000 E577.99010
G0 F4800 X101.918 Y133.500
G1 F1560 X205.253 Y133.500 E582.28627
G0 F4800 X205.223 Y134.000
G1 F1560 X101.888 Y134.000 E586.58244
G0 F4800 X101.857 Y134.500
G1 F1560 X205.193 Y134.500 E590.87865
G0 F4800 X205.163 Y135.000
G1 F1560 X101.827 Y135.000 E595.17486
G0 F4800 X101.797 Y135.500
G1 F1560 X205.132 Y135.500 E599.47103
G0 F4800 X205.102 Y136.000
G1 F1560 X169.278 Y136.000 E600.96042
G0 F4800 X170.047 Y136.500
G1 F1560 X205.072 Y136.500 E602.41659
G0 F4800 X205.041 Y137.000
G1 F1560 X170.451 Y137.000 E603.85468
G0 F4800 X170.692 Y137.500
G1 F1560 X205.011 Y137.500 E605.28150
G0 F4800 X204.981 Y138.000
G1 F1560 X170.813 Y138.000 E606.70204
G0 F4800 X170.824 Y138.500
G1 F1560 X204.951 Y138.500 E608.12087
G0 F4800 X204.920 Y139.000
G1 F1560 X170.734 Y139.000 E609.54216
G0 F4800 X170.523 Y139.500
G1 F1560 X204.890 Y139.500 E610.97098
G1 F2100 E610.57098
G0 F4800 X205.344 Y132.000
G1 F2100 E610.97098
G1 F1560 X118.283 Y132.000 E614.59055
G0 F4800 X118.721 Y131.500
G1 F1560 X205.375 Y131.500 E618.19321
G0 F4800 X205.405 Y131.000
G1 F1560 X170.802 Y131.000 E619.63183
G0 F4800 X171.470 Y130.500
G1 F1560 X205.435 Y130.500 E621.04393
G0 F4800 X205.465 Y130.000
G1 F1560 X171.888 Y130.000 E622.43990
G0 F4800 X172.133 Y129.500
G1 F1560 X205.496 Y129.500 E623.82697
G0 F4800 X205.526 Y129.000
G1 F1560 X172.273 Y129.000 E625.20947
G0 F4800 X172.349 Y128.500
G1 F1560 X205.556 Y128.500 E626.59006
G0 F4800 X205.587 Y128.000
G1 F1560 X172.379 Y128.000 E627.97069
G0 F4800 X172.409 Y127.500
G1 F1560 X205.617 Y127.500 E629.35132
G0 F4800 X205.647 Y127.000
G1 F1560 X172.439 Y127.000 E630.73194
G0 F4800 X172.470 Y126.500
G1 F1560 X205.677 Y126.500 E632.11253
G0 F4800 X205.708 Y126.000
G1 F1560 X172.500 Y126.000 E633.49316
G0 F4800 X172.530 Y125.500
G1 F1560 X205.738 Y125.500 E634.87379
G0 F4800 X205.768 Y125.000
G1 F1560 X172.560 Y125.000 E636.25442
G0 F4800 X172.590 Y124.500
G1 F1560 X205.778 Y124.500 E637.63421
G0 F4800 X205.626 Y124.000
G1 F1560 X172.621 Y124.000 E639.00640
G0 F4800 X172.651 Y123.500
G1 F1560 X204.866 Y123.500 E640.34574
G1 F2100 E639.94574
G0 F4800 X196.905 Y123.000
G1 F2100 E640.34574
G1 F1560 X172.681 Y123.000 E641.35286
G0 F4800 X172.734 Y122.500
G1 F1560 X188.646 Y122.500 E642.01441
G1 F2100 E641.61441
G0 F4800 X180.387 Y122.000
G1 F2100 E642.01441
G1 F1560 X172.962 Y122.000 E642.32310
G1 F2100 E641.92310
G0 F4800 X163.581 Y131.000
G1 F2100 E642.32310
G1 F1560 X118.986 Y131.000 E644.17715
G0 F4800 X119.123 Y130.500
G1 F1560 X155.331 Y130.500 E645.68250
G1 F2100 E645.28250
G0 F4800 X147.081 Y130.000
G1 F2100 E645.68250
G1 F1560 X119.154 Y130.000 E646.84357
G0 F4800 X119.086 Y129.500
G1 F1560 X138.831 Y129.500 E647.66447
G1 F2100 E647.26447
G0 F4800 X130.581 Y129.000
G1 F2100 E647.66447
G1 F1560 X118.908 Y129.000 E648.14978
G0 F4800 X118.594 Y128.500
G1 F1560 X122.331 Y128.500 E648.30514
G1 F2100 E647.90514
G0 F4800 X115.972 Y132.500
G1 F2100 E648.30514
G1 F1560 X101.979 Y132.500 E648.88691
G0 F4800 X102.009 Y132.000
G1 F1560 X115.028 Y132.000 E649.42817
G0 F4800 X114.575 Y131.500
G1 F1560 X102.039 Y131.500 E649.94936
G0 F4800 X102.069 Y131.000
G1 F1560 X114.316 Y131.000 E650.45853
G0 F4800 X114.182 Y130.500
G1 F1560 X102.100 Y130.500 E650.96084
G0 F4800 X102.130 Y130.000
G1 F1560 X114.147 Y130.000 E651.46045
G0 F4800 X114.221 Y129.500
G1 F1560 X102.160 Y129.500 E651.96189
G0 F4800 X102.191 Y129.000
G1 F1560 X114.402 Y129.000 E652.46956
G0 F4800 X114.721 Y128.500
G1 F1560 X102.221 Y128.500 E652.98925
G0 F4800 X102.332 Y128.000
G1 F1560 X114.097 Y128.000 E653.47838
G1 F2100 E653.07838
G0 F4800 X105.832 Y127.500
G1 F2100 E653.47838
G1 F1560 X102.778 Y127.500 E653.60535
G1 F2100 E653.20535
G0 F4800 X101.767 Y136.000
G1 F2100 E653.60535
G1 F1560 X167.349 Y136.000 E656.33194
G0 F4800 X166.591 Y136.500
G1 F1560 X101.736 Y136.500 E659.02829
G0 F4800 X101.706 Y137.000
G1 F1560 X166.180 Y137.000 E661.70881
G0 F4800 X165.950 Y137.500
G1 F1560 X101.676 Y137.500 E664.38101
G0 F4800 X101.645 Y138.000
G1 F1560 X165.834 Y138.000 E667.04968
G0 F4800 X165.822 Y138.500
G1 F1560 X101.615 Y138.500 E669.71910
G0 F4800 X101.585 Y139.000
G1 F1560 X165.911 Y139.000 E672.39346
G0 F4800 X166.116 Y139.500
G1 F1560 X101.555 Y139.500 E675.07760
G0 F4800 X101.524 Y140.000
G1 F1560 X166.471 Y140.000 E677.77778
G0 F4800 X167.102 Y140.500
G1 F1560 X101.494 Y140.500 E680.50544
G0 F4800 X101.464 Y141.000
G1 F1560 X204.799 Y141.000 E684.80162
G0 F4800 X204.769 Y141.500
G1 F1560 X101.433 Y141.500 E689.09783
G0 F4800 X101.403 Y142.000
G1 F1560 X204.739 Y142.000 E693.39404
G0 F4800 X204.708 Y142.500
G1 F1560 X101.373 Y142.500 E697.69021
G0 F4800 X101.343 Y143.000
G1 F1560 X204.678 Y143.000 E701.98638
G0 F4800 X204.648 Y143.500
G1 F1560 X101.312 Y143.500 E706.28259
G0 F4800 X101.282 Y144.000
G1 F1560 X204.617 Y144.000 E710.57876
G0 F4800 X204.587 Y144.500
G1 F1560 X101.252 Y144.500 E714.87493
G0 F4800 X101.221 Y145.000
G1 F1560 X204.557 Y145.000 E719.17114
G0 F4800 X204.527 Y145.500
G1 F1560 X101.191 Y145.500 E723.46735
G0 F4800 X101.161 Y146.000
G1 F1560 X204.496 Y146.000 E727.76352
G0 F4800 X204.466 Y146.500
G1 F1560 X101.130 Y146.500 E732.05974
G0 F4800 X101.100 Y147.000
G1 F1560 X204.436 Y147.000 E736.35595
G0 F4800 X204.406 Y147.500
G1 F1560 X101.070 Y147.500 E740.65216
G0 F4800 X101.040 Y148.000
G1 F1560 X170.773 Y148.000 E743.55132
G0 F4800 X170.078 Y148.500
G1 F1560 X101.009 Y148.500 E746.42288
G0 F4800 X100.979 Y149.000
G1 F1560 X169.642 Y149.000 E749.27755
G0 F4800 X169.397 Y149.500
G1 F1560 X100.949 Y149.500 E752.12329
G0 F4800 X100.918 Y150.000
G1 F1560 X169.243 Y150.000 E754.96391
G0 F4800 X169.159 Y150.500
G1 F1560 X100.888 Y150.500 E757.80229
G0 F4800 X100.858 Y151.000
G1 F1560 X169.129 Y151.000 E760.64067
G0 F4800 X169.098 Y151.500
G1 F1560 X100.828 Y151.500 E763.47900
G0 F4800 X100.797 Y152.000
G1 F1560 X169.068 Y152.000 E766.31738
G0 F4800 X169.038 Y152.500
G1 F1560 X100.767 Y152.500 E769.15576
G0 F4800 X100.737 Y153.000
G1 F1560 X169.007 Y153.000 E771.99410
G0 F4800 X168.977 Y153.500
G1 F1560 X100.706 Y153.500 E774.83248
G0 F4800 X100.676 Y154.000
G1 F1560 X168.947 Y154.000 E777.67086
G0 F4800 X168.917 Y154.500
G1 F1560 X100.646 Y154.500 E780.50923
G0 F4800 X100.616 Y155.000
G1 F1560 X168.886 Y155.000 E783.34757
G0 F4800 X168.856 Y155.500
G1 F1560 X100.585 Y155.500 E786.18595
G0 F4800 X100.555 Y156.000
G1 F1560 X168.826 Y156.000 E789.02433
G0 F4800 X168.796 Y156.500
G1 F1560 X100.525 Y156.500 E791.86271
G0 F4800 X100.494 Y157.000
G1 F1560 X168.765 Y157.000 E794.70108
G0 F4800 X168.735 Y157.500
G1 F1560 X100.464 Y157.500 E797.53946
G0 F4800 X100.434 Y158.000
G1 F1560 X168.705 Y158.000 E800.37784
G0 F4800 X168.674 Y158.500
G1 F1560 X100.404 Y158.500 E803.21618
G0 F4800 X100.373 Y159.000
G1 F1560 X168.644 Y159.000 E806.05456
G0 F4800 X168.614 Y159.500
G1 F1560 X100.343 Y159.500 E808.89293
G0 F4800 X100.313 Y160.000
G1 F1560 X168.584 Y160.000 E811.73131
G0 F4800 X168.553 Y160.500
G1 F1560 X100.282 Y160.500 E814.56969
G0 F4800 X100.252 Y161.000
G1 F1560 X168.523 Y161.000 E817.40807
G0 F4800 X168.493 Y161.500
G1 F1560 X100.222 Y161.500 E820.24645
G0 F4800 X100.192 Y162.000
G1 F1560 X168.462 Y162.000 E823.08478
G0 F4800 X168.432 Y162.500
G1 F1560 X100.161 Y162.500 E825.92316
G0 F4800 X100.131 Y163.000
G1 F1560 X168.402 Y163.000 E828.76154
G0 F4800 X168.372 Y163.500
G1 F1560 X100.101 Y163.500 E831.59992
G0 F4800 X100.070 Y164.000
G1 F1560 X165.436 Y164.000 E834.31752
G0 F4800 X164.783 Y164.500
G1 F1560 X100.040 Y164.500 E837.00922
G0 F4800 X100.010 Y165.000
G1 F1560 X164.432 Y165.000 E839.68758
G0 F4800 X164.228 Y165.500
G1 F1560 X99.980 Y165.500 E842.35870
G0 F4800 X99.949 Y166.000
G1 F1560 X164.134 Y166.000 E845.02720
G0 F4800 X164.145 Y166.500
G1 F1560 X99.919 Y166.500 E847.69741
G0 F4800 X99.889 Y167.000
G1 F1560 X164.257 Y167.000 E850.37352
G0 F4800 X164.489 Y167.500
G1 F1560 X99.858 Y167.500 E853.06056
G0 F4800 X99.828 Y168.000
G1 F1560 X164.878 Y168.000 E855.76503
G0 F4800 X165.635 Y168.500
G1 F1560 X99.798 Y168.500 E858.50221
G0 F4800 X99.768 Y169.000
G1 F1560 X168.039 Y169.000 E861.34059
G0 F4800 X168.069 Y168.500
G1 F1560 X167.618 Y168.500 E861.35934
G0 F4800 X168.008 Y169.500
G1 F1560 X99.737 Y169.500 E864.19772
G0 F4800 X99.707 Y170.000
G1 F1560 X167.978 Y170.000 E867.03610
G0 F4800 X167.948 Y170.500
G1 F1560 X99.677 Y170.500 E869.87448
G0 F4800 X99.646 Y171.000
G1 F1560 X167.918 Y171.000 E872.71290
G0 F4800 X167.887 Y171.500
G1 F1560 X99.616 Y171.500 E875.55128
G0 F4800 X99.586 Y172.000
G1 F1560 X167.857 Y172.000 E878.38965
G0 F4800 X167.827 Y172.500
G1 F1560 X99.556 Y172.500 E881.22803
G0 F4800 X99.525 Y173.000
G1 F1560 X167.796 Y173.000 E884.06641
G0 F4800 X167.766 Y173.500
G1 F1560 X99.495 Y173.500 E886.90479
G0 F4800 X99.465 Y174.000
G1 F1560 X167.736 Y174.000 E889.74317
G0 F4800 X167.706 Y174.500
G1 F1560 X99.434 Y174.500 E892.58159
G0 F4800 X99.404 Y175.000
G1 F1560 X167.675 Y175.000 E895.41997
G0 F4800 X167.645 Y175.500
G1 F1560 X99.374 Y175.500 E898.25834
G0 F4800 X99.344 Y176.000
G1 F1560 X114.109 Y176.000 E898.87220
G0 F4800 X113.303 Y176.500
G1 F1560 X99.313 Y176.500 E899.45384
G0 F4800 X99.283 Y177.000
G1 F1560 X112.875 Y177.000 E900.01893
G0 F4800 X112.639 Y177.500
G1 F1560 X99.253 Y177.500 E900.57545
G0 F4800 X99.222 Y178.000
G1 F1560 X112.519 Y178.000 E901.12828
G0 F4800 X112.500 Y178.500
G1 F1560 X99.228 Y178.500 E901.68006
G0 F4800 X99.452 Y179.000
G1 F1560 X112.584 Y179.000 E902.22603
G0 F4800 X112.782 Y179.500
G1 F1560 X101.811 Y179.500 E902.68215
G1 F2100 E902.28215
G0 F4800 X115.902 Y176.000
G1 F2100 E902.68215
G1 F1560 X167.615 Y176.000 E904.83213
G0 F4800 X167.585 Y176.500
G1 F1560 X116.703 Y176.500 E906.94755
G0 F4800 X117.114 Y177.000
G1 F1560 X167.554 Y177.000 E909.04461
G0 F4800 X167.524 Y177.500
G1 F1560 X117.363 Y177.500 E911.13006
G0 F4800 X117.489 Y178.000
G1 F1560 X167.494 Y178.000 E913.20902
G0 F4800 X167.464 Y178.500
G1 F1560 X117.511 Y178.500 E915.28583
G0 F4800 X117.425 Y179.000
G1 F1560 X167.433 Y179.000 E917.36492
G0 F4800 X167.403 Y179.500
G1 F1560 X117.222 Y179.500 E919.45120
G0 F4800 X116.878 Y180.000
G1 F1560 X167.373 Y180.000 E921.55054
G0 F4800 X167.343 Y180.500
G1 F1560 X118.324 Y180.500 E923.58851
G1 F2100 E923.18851
G0 F4800 X113.129 Y180.000
G1 F2100 E923.58851
G1 F1560 X110.066 Y180.000 E923.71586
G1 F2100 E923.31586
G0 F4800 X126.576 Y181.000
G1 F2100 E923.71586
G1 F1560 X167.312 Y181.000 E925.40946
G0 F4800 X167.282 Y181.500
G1 F1560 X134.828 Y181.500 E926.75875
G1 F2100 E926.35875
G0 F4800 X143.081 Y182.000
G1 F2100 E926.75875
G1 F1560 X167.252 Y182.000 E927.76366
G0 F4800 X167.199 Y182.500
G1 F1560 X151.333 Y182.500 E928.42329
G1 F2100 E928.02329
G0 F4800 X159.585 Y183.000
G1 F2100 E928.42329
G1 F1560 X166.969 Y183.000 E928.73028
G1 F2100 E928.33028
G0 F4800 X167.832 Y164.000
G1 F2100 E928.73028
G1 F1560 X168.341 Y164.000 E928.75144
G1 F2100 E928.35144
G0 F4800 X177.153 Y148.000
G1 F2100 E928.75144
G1 F1560 X204.375 Y148.000 E929.88320
G0 F4800 X204.344 Y148.500
G1 F1560 X185.407 Y148.500 E930.67051
G1 F2100 E930.27051
G0 F4800 X193.661 Y149.000
G1 F2100 E930.67051
G1 F1560 X204.205 Y149.000 E931.10888
G0 F4800 X203.633 Y149.500
G1 F1560 X201.914 Y149.500 E931.18035
G1 F2100 E930.78035
G0 F4800 X204.829 Y140.500
G1 F2100 E931.18035
G1 F1560 X169.547 Y140.500 E932.64720
G0 F4800 X170.167 Y140.000
G1 F1560 X204.860 Y140.000 E934.08957
;LAYER:2
M106 S20
G1 F2100 E933.68957
G0 F4800 X204.591 Y147.375 Z0.600
;TYPE:WALL-INNER
G1 F2100 E934.08957
G1 F1920 X204.538 Y148.221 E934.12481
G1 X204.513 Y148.575 E934.13957
G1 X204.450 Y148.900 E934.15333
G1 X204.307 Y149.194 E934.16692
G1 X204.095 Y149.439 E934.18039
G1 X203.825 Y149.620 E934.19391
G1 X203.519 Y149.726 E934.20737
G1 X203.149 Y149.752 E934.22279
G1 X172.202 Y147.877 E935.51178
G1 X171.534 Y147.925 E935.53962
G1 X170.853 Y148.159 E935.56956
G1 X170.258 Y148.562 E935.59943
G1 X169.785 Y149.105 E935.62937
G1 X169.471 Y149.752 E935.65927
G1 X169.342 Y150.409 E935.68711
G1 X168.472 Y164.767 E936.28514
G1 X168.451 Y164.735 E936.28673
G1 X168.148 Y164.425 E936.30475
G1 X167.795 Y164.176 E936.32271
G1 X167.362 Y163.985 E936.34239
G1 X166.963 Y163.889 E936.35945
G1 X166.616 Y163.869 E936.37390
G1 X166.487 Y163.871 E936.37927
G1 X166.074 Y163.932 E936.39662
G1 X165.662 Y164.075 E936.41475
G1 X165.321 Y164.265 E936.43098
G1 X164.977 Y164.547 E936.44948
G1 X164.689 Y164.897 E936.46832
G1 X164.471 Y165.303 E936.48748
G1 X164.329 Y165.794 E936.50873
G1 X164.294 Y166.169 E936.52439
G1 X164.297 Y166.293 E936.52955
G1 X164.336 Y166.665 E936.54510
G1 X164.493 Y167.150 E936.56629
G1 X164.692 Y167.512 E936.58346
G1 X164.989 Y167.867 E936.60271
G1 X165.333 Y168.145 E936.62110
G1 X165.841 Y168.404 E936.64480
G1 X166.302 Y168.517 E936.66454
G1 X166.675 Y168.534 E936.68006
G1 X166.806 Y168.532 E936.68551
G1 X167.260 Y168.455 E936.70465
G1 X167.711 Y168.277 E936.72481
G1 X168.115 Y168.009 E936.74497
G1 X168.286 Y167.835 E936.75511
G1 X167.407 Y182.353 E937.35980
G1 X167.336 Y182.717 E937.37522
G1 X167.194 Y183.010 E937.38876
G1 X166.980 Y183.255 E937.40228
G1 X166.713 Y183.436 E937.41569
G1 X166.405 Y183.542 E937.42924
G1 X166.035 Y183.568 E937.44466
G1 X115.809 Y180.524 E939.53664
G1 X116.083 Y180.416 E939.54889
G1 X116.487 Y180.148 E939.56904
G1 X116.829 Y179.801 E939.58930
G1 X117.094 Y179.388 E939.60970
G1 X117.264 Y178.935 E939.62982
G1 X117.336 Y178.485 E939.64876
G1 X117.323 Y178.053 E939.66673
G1 X117.231 Y177.633 E939.68461
G1 X117.062 Y177.235 E939.70258
G1 X116.823 Y176.874 E939.72058
G1 X116.520 Y176.564 E939.73861
G1 X116.167 Y176.315 E939.75657
G1 X115.734 Y176.124 E939.77624
G1 X115.335 Y176.028 E939.79330
G1 X114.988 Y176.008 E939.80775
G1 X114.861 Y176.010 E939.81303
G1 X114.446 Y176.070 E939.83047
G1 X114.033 Y176.214 E939.84865
G1 X113.693 Y176.404 E939.86484
G1 X113.349 Y176.686 E939.88334
G1 X113.061 Y177.036 E939.90218
G1 X112.843 Y177.442 E939.92134
G1 X112.701 Y177.933 E939.94259
G1 X112.666 Y178.308 E939.95825
G1 X112.669 Y178.432 E939.96341
G1 X112.708 Y178.804 E939.97896
G1 X112.865 Y179.289 E940.00015
G1 X113.064 Y179.651 E940.01733
G1 X113.439 Y180.076 E940.04089
G1 X113.785 Y180.337 E940.05891
G1 X113.938 Y180.411 E940.06597
G1 X100.245 Y179.581 E940.63631
G1 X99.886 Y179.511 E940.65151
G1 X99.592 Y179.368 E940.66511
G1 X99.347 Y179.156 E940.67858
G1 X99.166 Y178.886 E940.69209
G1 X99.060 Y178.580 E940.70555
G1 X99.034 Y178.210 E940.72098
G1 X102.053 Y128.390 E942.79605
G1 X102.123 Y128.031 E942.81126
G1 X102.266 Y127.738 E942.82481
G1 X102.479 Y127.492 E942.83834
G1 X102.748 Y127.311 E942.85182
G1 X103.054 Y127.205 E942.86528
G1 X103.424 Y127.179 E942.88070
G1 X115.796 Y127.929 E943.39602
G1 X115.686 Y127.967 E943.40085
G1 X115.339 Y128.159 E943.41734
G1 X114.962 Y128.482 E943.43798
G1 X114.712 Y128.792 E943.45454
G1 X114.495 Y129.195 E943.47357
G1 X114.353 Y129.686 E943.49482
G1 X114.318 Y130.060 E943.51044
G1 X114.321 Y130.184 E943.51559
G1 X114.360 Y130.555 E943.53110
G1 X114.517 Y131.043 E943.55241
G1 X114.716 Y131.403 E943.56952
G1 X114.993 Y131.737 E943.58756
G1 X115.091 Y131.829 E943.59314
G1 X115.438 Y132.091 E943.61122
G1 X115.865 Y132.295 E943.63090
G1 X116.324 Y132.407 E943.65054
G1 X116.697 Y132.426 E943.66607
G1 X116.830 Y132.424 E943.67160
G1 X117.284 Y132.347 E943.69074
G1 X117.736 Y132.168 E943.71095
G1 X118.140 Y131.900 E943.73111
G1 X118.481 Y131.553 E943.75134
G1 X118.746 Y131.141 E943.77170
G1 X118.916 Y130.688 E943.79182
G1 X118.988 Y130.238 E943.81077
G1 X118.975 Y129.804 E943.82882
G1 X118.883 Y129.386 E943.84661
G1 X118.715 Y128.989 E943.86453
G1 X118.466 Y128.618 E943.88311
G1 X118.173 Y128.317 E943.90057
G1 X117.781 Y128.049 E943.92032
G1 X169.306 Y131.172 E946.06641
G1 X169.974 Y131.124 E946.09425
G1 X170.654 Y130.890 E946.12415
G1 X171.251 Y130.487 E946.15410
G1 X171.722 Y129.943 E946.18401
G1 X172.038 Y129.297 E946.21391
G1 X172.165 Y128.638 E946.24181
G1 X172.528 Y122.647 E946.49135
G1 X172.599 Y122.283 E946.50677
G1 X172.741 Y121.990 E946.52030
G1 X172.955 Y121.745 E946.53383
G1 X173.222 Y121.564 E946.54724
G1 X173.530 Y121.458 E946.56078
G1 X173.900 Y121.432 E946.57620
G1 X203.261 Y123.210 E947.79913
G1 X204.751 Y123.301 E947.86119
G1 X205.115 Y123.372 E947.87661
G1 X205.408 Y123.514 E947.89014
G1 X205.653 Y123.728 E947.90367
G1 X205.834 Y123.995 E947.91708
G1 X205.940 Y124.303 E947.93062
G1 X205.966 Y124.673 E947.94604
G1 X204.591 Y147.375 E948.89161
G1 F2100 E948.49161
G0 F4800 X170.582 Y138.909
G1 F2100 E948.89161
G1 F1920 X170.654 Y138.458 E948.91060
G1 X170.641 Y138.025 E948.92861
G1 X170.549 Y137.607 E948.94640
G1 X170.381 Y137.209 E948.96436
G1 X170.141 Y136.847 E948.98242
G1 X169.838 Y136.537 E949.00044
G1 X169.481 Y136.285 E949.01861
G1 X169.079 Y136.103 E949.03696
G1 X168.654 Y136.001 E949.05513
G1 X168.306 Y135.981 E949.06962
G1 X168.177 Y135.983 E949.07498
G1 X167.763 Y136.044 E949.09238
G1 X167.352 Y136.188 E949.11049
G1 X167.005 Y136.380 E949.12698
G1 X166.622 Y136.708 E949.14794
G1 X166.347 Y137.062 E949.16658
G1 X166.159 Y137.419 E949.18335
G1 X166.020 Y137.907 E949.20445
G1 X165.985 Y138.281 E949.22006
G1 X165.988 Y138.412 E949.22551
G1 X166.041 Y138.835 E949.24324
G1 X166.185 Y139.267 E949.26217
G1 X166.383 Y139.624 E949.27914
G1 X166.678 Y139.979 E949.29833
G1 X167.023 Y140.257 E949.31675
G1 X167.531 Y140.516 E949.34046
G1 X167.991 Y140.628 E949.36014
G1 X168.371 Y140.648 E949.37596
G1 X168.503 Y140.643 E949.38145
G1 X168.950 Y140.567 E949.40030
G1 X169.398 Y140.390 E949.42033
G1 X169.817 Y140.111 E949.44126
G1 X170.149 Y139.773 E949.46096
G1 X170.413 Y139.360 E949.48134
G1 X170.582 Y138.909 E949.50136
G0 F4800 X170.096 Y138.780
;TYPE:WALL-OUTER
G1 F1920 X170.153 Y138.426 E949.51627
G1 X170.142 Y138.087 E949.53037
G1 X170.070 Y137.759 E949.54433
G1 X169.938 Y137.446 E949.55845
G1 X169.750 Y137.163 E949.57258
G1 X169.512 Y136.919 E949.58675
G1 X169.232 Y136.721 E949.60101
G1 X168.916 Y136.578 E949.61543
G1 X168.580 Y136.498 E949.62979
G1 X168.296 Y136.481 E949.64161
G1 X168.219 Y136.482 E949.64482
G1 X167.883 Y136.532 E949.65894
G1 X167.557 Y136.646 E949.67330
G1 X167.292 Y136.793 E949.68590
G1 X166.986 Y137.055 E949.70264
G1 X166.769 Y137.334 E949.71734
G1 X166.626 Y137.606 E949.73012
G1 X166.513 Y138.000 E949.74716
G1 X166.486 Y138.299 E949.75964
G1 X166.487 Y138.376 E949.76284
G1 X166.531 Y138.724 E949.77742
G1 X166.645 Y139.065 E949.79237
G1 X166.798 Y139.341 E949.80549
G1 X167.031 Y139.621 E949.82064
G1 X167.311 Y139.847 E949.83560
G1 X167.700 Y140.043 E949.85370
G1 X168.064 Y140.131 E949.86927
G1 X168.374 Y140.147 E949.88218
G1 X168.452 Y140.144 E949.88542
G1 X168.815 Y140.083 E949.90073
G1 X169.167 Y139.943 E949.91648
G1 X169.490 Y139.730 E949.93256
G1 X169.756 Y139.460 E949.94832
G1 X169.963 Y139.135 E949.96434
G1 X170.096 Y138.780 E949.98010
G1 F2100 E949.58010
G0 F4800 X169.873 Y130.630
G1 F2100 E949.98010
G1 F1920 X170.429 Y130.439 E950.00454
G1 X170.916 Y130.110 E950.02898
G1 X171.301 Y129.665 E950.05344
G1 X171.559 Y129.137 E950.07787
G1 X171.668 Y128.575 E950.10168
G1 X172.031 Y122.581 E950.35133
G1 X172.121 Y122.124 E950.37070
G1 X172.320 Y121.713 E950.38968
G1 X172.621 Y121.367 E950.40875
G1 X172.999 Y121.112 E950.42771
G1 X173.429 Y120.964 E950.44661
G1 X173.895 Y120.931 E950.46604
G1 X204.817 Y122.804 E951.75398
G1 X205.274 Y122.894 E951.77334
G1 X205.685 Y123.093 E951.79233
G1 X206.031 Y123.394 E951.81140
G1 X206.286 Y123.772 E951.83035
G1 X206.434 Y124.202 E951.84926
G1 X206.467 Y124.668 E951.86868
G1 X205.037 Y148.253 E952.85103
G1 X205.010 Y148.639 E952.86712
G1 X204.929 Y149.058 E952.88486
G1 X204.727 Y149.472 E952.90401
G1 X204.428 Y149.817 E952.92300
G1 X204.049 Y150.072 E952.94199
G1 X203.620 Y150.220 E952.96085
G1 X203.154 Y150.253 E952.98028
G1 X172.205 Y148.378 E954.26935
G1 X171.635 Y148.419 E954.29310
G1 X171.078 Y148.610 E954.31759
G1 X170.592 Y148.939 E954.34199
G1 X170.206 Y149.383 E954.36645
G1 X169.949 Y149.912 E954.39090
G1 X169.839 Y150.472 E954.41462
G1 X167.904 Y182.419 E955.74526
G1 X167.814 Y182.876 E955.76462
G1 X167.615 Y183.287 E955.78361
G1 X167.314 Y183.633 E955.80268
G1 X166.936 Y183.888 E955.82163
G1 X166.506 Y184.036 E955.84054
G1 X166.040 Y184.069 E955.85996
G1 X100.181 Y180.078 E958.60308
G1 X99.728 Y179.990 E958.62227
G1 X99.314 Y179.788 E958.64142
G1 X98.969 Y179.489 E958.66040
G1 X98.714 Y179.110 E958.67939
G1 X98.566 Y178.681 E958.69826
G1 X98.533 Y178.215 E958.71768
G1 X101.556 Y128.326 E960.79563
G1 X101.644 Y127.873 E960.81482
G1 X101.846 Y127.459 E960.83397
G1 X102.145 Y127.114 E960.85295
G1 X102.524 Y126.859 E960.87194
G1 X102.953 Y126.711 E960.89081
G1 X103.419 Y126.678 E960.91023
G1 X169.303 Y130.671 E963.65440
G1 X169.873 Y130.630 E963.67815
G1 F2100 E963.27815
G0 F4800 X166.889 Y164.386
G1 F2100 E963.67815
G1 F1920 X166.606 Y164.369 E963.68994
G1 X166.529 Y164.370 E963.69314
G1 X166.193 Y164.420 E963.70727
G1 X165.867 Y164.533 E963.72161
G1 X165.604 Y164.680 E963.73414
G1 X165.332 Y164.902 E963.74873
G1 X165.106 Y165.177 E963.76353
G1 X164.936 Y165.493 E963.77845
G1 X164.822 Y165.887 E963.79550
G1 X164.795 Y166.187 E963.80803
G1 X164.796 Y166.262 E963.81114
G1 X164.828 Y166.560 E963.82361
G1 X164.954 Y166.951 E963.84068
G1 X165.107 Y167.229 E963.85388
G1 X165.341 Y167.509 E963.86905
G1 X165.621 Y167.735 E963.88401
G1 X166.010 Y167.931 E963.90212
G1 X166.374 Y168.020 E963.91770
G1 X166.682 Y168.034 E963.93051
G1 X166.759 Y168.033 E963.93372
G1 X167.125 Y167.971 E963.94915
G1 X167.478 Y167.831 E963.96494
G1 X167.796 Y167.621 E963.98078
G1 X168.064 Y167.348 E963.99669
G1 X168.273 Y167.024 E964.01272
G1 X168.406 Y166.667 E964.02856
G1 X168.463 Y166.314 E964.04342
G1 X168.452 Y165.975 E964.05752
G1 X168.380 Y165.646 E964.07152
G1 X168.248 Y165.334 E964.08561
G1 X168.060 Y165.051 E964.09973
G1 X167.822 Y164.807 E964.11391
G1 X167.543 Y164.610 E964.12811
G1 X167.217 Y164.464 E964.14296
G1 X166.889 Y164.386 E964.15697
G1 F2100 E963.75697
G0 F4800 X116.752 Y177.785
G1 F2100 E964.15697
G1 F1920 X116.620 Y177.473 E964.17106
G1 X116.432 Y177.190 E964.18518
G1 X116.194 Y176.946 E964.19935
G1 X115.915 Y176.749 E964.21355
G1 X115.589 Y176.603 E964.22840
G1 X115.261 Y176.525 E964.24242
G1 X114.978 Y176.508 E964.25421
G1 X114.902 Y176.509 E964.25737
G1 X114.565 Y176.558 E964.27153
G1 X114.238 Y176.672 E964.28592
G1 X113.976 Y176.819 E964.29841
G1 X113.704 Y177.041 E964.31301
G1 X113.478 Y177.316 E964.32781
G1 X113.308 Y177.632 E964.34273
G1 X113.194 Y178.026 E964.35978
G1 X113.167 Y178.326 E964.37230
G1 X113.168 Y178.401 E964.37542
G1 X113.200 Y178.699 E964.38788
G1 X113.326 Y179.090 E964.40496
G1 X113.479 Y179.368 E964.41815
G1 X113.762 Y179.693 E964.43607
G1 X114.047 Y179.908 E964.45091
G1 X114.382 Y180.070 E964.46638
G1 X114.746 Y180.159 E964.48196
G1 X115.054 Y180.173 E964.49478
G1 X115.131 Y180.172 E964.49798
G1 X115.497 Y180.110 E964.51342
G1 X115.850 Y179.970 E964.52920
G1 X116.168 Y179.760 E964.54505
G1 X116.436 Y179.487 E964.56095
G1 X116.645 Y179.163 E964.57698
G1 X116.778 Y178.806 E964.59282
G1 X116.835 Y178.453 E964.60769
G1 X116.824 Y178.114 E964.62179
G1 X116.752 Y177.785 E964.63579
G1 F2100 E964.23579
G0 F4800 X116.705 Y131.926
G1 F2100 E964.63579
G1 F1920 X116.783 Y131.925 E964.63903
G1 X117.149 Y131.863 E964.65447
G1 X117.503 Y131.723 E964.67029
G1 X117.820 Y131.512 E964.68613
G1 X118.088 Y131.239 E964.70203
G1 X118.297 Y130.916 E964.71803
G1 X118.430 Y130.559 E964.73386
G1 X118.487 Y130.206 E964.74873
G1 X118.476 Y129.866 E964.76287
G1 X118.404 Y129.538 E964.77684
G1 X118.272 Y129.226 E964.79092
G1 X118.081 Y128.940 E964.80522
G1 X117.846 Y128.698 E964.81924
G1 X117.567 Y128.501 E964.83344
G1 X117.241 Y128.356 E964.84828
G1 X116.913 Y128.278 E964.86229
G1 X116.631 Y128.260 E964.87404
G1 X116.553 Y128.261 E964.87728
G1 X116.217 Y128.311 E964.89141
G1 X115.891 Y128.425 E964.90577
G1 X115.626 Y128.572 E964.91836
G1 X115.322 Y128.832 E964.93500
G1 X115.130 Y129.070 E964.94771
G1 X114.960 Y129.385 E964.96259
G1 X114.846 Y129.779 E964.97964
G1 X114.819 Y130.078 E964.99212
G1 X114.820 Y130.153 E964.99524
G1 X114.852 Y130.451 E965.00770
G1 X114.978 Y130.844 E965.02486
G1 X115.131 Y131.120 E965.03798
G1 X115.358 Y131.394 E965.05277
G1 X115.699 Y131.662 E965.07081
G1 X116.034 Y131.822 E965.08624
G1 X116.397 Y131.910 E965.10177
G1 X116.705 Y131.926 E965.11459
G0 F4800 X116.500 Y132.591
;TYPE:SKIN
G1 F1920 X116.500 Y176.334 E966.93321
G0 F4800 X116.000 Y176.050
G1 F1920 X116.000 Y132.508 E968.74348
G0 F4800 X115.500 Y132.315
G1 F1920 X115.500 Y175.888 E970.55504
G0 F4800 X115.000 Y175.833
G1 F1920 X115.000 Y131.980 E972.37823
G0 F4800 X114.500 Y131.375
G1 F1920 X114.500 Y175.886 E974.22878
G0 F4800 X114.000 Y176.041
G1 F1920 X114.000 Y127.996 E976.22626
G0 F4800 X113.500 Y127.966
G1 F1920 X113.500 Y176.338 E978.23734
G0 F4800 X113.000 Y176.835
G1 F1920 X113.000 Y127.936 E980.27032
G0 F4800 X112.500 Y127.905
G1 F1920 X112.500 Y178.210 E982.36176
G0 F4800 X112.500 Y178.497
G1 F1920 X112.500 Y180.148 E982.43040
G0 F4800 X112.000 Y180.118
G1 F1920 X112.000 Y127.875 E984.60241
G0 F4800 X111.500 Y127.845
G1 F1920 X111.500 Y180.088 E986.77442
G0 F4800 X111.000 Y180.057
G1 F1920 X111.000 Y127.815 E988.94639
G0 F4800 X110.500 Y127.784
G1 F1920 X110.500 Y180.027 E991.11840
G1 F2100 E990.71840
G0 F4800 X113.000 Y180.178
G1 F2100 E991.11840
G1 F1920 X113.000 Y179.844 E991.13229
G0 F4800 X110.000 Y179.997
G1 F1920 X110.000 Y127.754 E993.30430
G0 F4800 X109.500 Y127.724
G1 F1920 X109.500 Y179.966 E995.47627
G0 F4800 X109.000 Y179.936
G1 F1920 X109.000 Y127.694 E997.64824
G0 F4800 X108.500 Y127.663
G1 F1920 X108.500 Y179.906 E999.82025
G0 F4800 X108.000 Y179.875
G1 F1920 X108.000 Y127.633 E1001.99222
G0 F4800 X107.500 Y127.603
G1 F1920 X107.500 Y179.845 E1004.16419
G0 F4800 X107.000 Y179.815
G1 F1920 X107.000 Y127.572 E1006.33621
G0 F4800 X106.500 Y127.542
G1 F1920 X106.500 Y179.785 E1008.50822
G0 F4800 X106.000 Y179.754
G1 F1920 X106.000 Y127.512 E1010.68019
G0 F4800 X105.500 Y127.482
G1 F1920 X105.500 Y179.724 E1012.85216
G0 F4800 X105.000 Y179.694
G1 F1920 X105.000 Y127.451 E1015.02417
G0 F4800 X104.500 Y127.421
G1 F1920 X104.500 Y179.663 E1017.19614
G0 F4800 X104.000 Y179.633
G1 F1920 X104.000 Y127.391 E1019.36811
G0 F4800 X103.500 Y127.360
G1 F1920 X103.500 Y179.603 E1021.54012
G0 F4800 X103.000 Y179.572
G1 F1920 X103.000 Y127.408 E1023.70885
G0 F4800 X102.500 Y127.734
G1 F1920 X102.500 Y179.542 E1025.86277
G0 F4800 X102.000 Y179.512
G1 F1920 X102.000 Y132.154 E1027.83169
G1 F2100 E1027.43169
G0 F4800 X114.500 Y128.817
G1 F2100 E1027.83169
G1 F1920 X114.750 Y128.042 E1027.86453
G1 X115.000 Y128.220 E1027.87729
G1 F2100 E1027.47729
G0 F4800 X118.500 Y128.277
G1 F2100 E1027.87729
G1 F1920 X118.750 Y128.351 E1027.88249
G1 X119.000 Y129.212 E1027.91977
G0 F4800 X119.500 Y128.330
G1 F1920 X119.500 Y180.572 E1030.09174
G0 F4800 X119.000 Y180.541
G1 F1920 X119.000 Y130.963 E1032.15295
G0 F4800 X118.500 Y131.782
G1 F1920 X118.500 Y180.511 E1034.17887
G0 F4800 X118.000 Y180.481
G1 F1920 X118.000 Y132.202 E1036.18607
G0 F4800 X117.500 Y132.448
G1 F1920 X117.500 Y178.123 E1038.08502
G0 F4800 X117.500 Y178.570
G1 F1920 X117.500 Y180.450 E1038.16318
G0 F4800 X117.000 Y180.420
G1 F1920 X117.000 Y179.857 E1038.18659
G1 F2100 E1037.78659
G0 F4800 X117.000 Y176.824
G1 F2100 E1038.18659
G1 F1920 X117.000 Y132.572 E1040.02637
G1 F2100 E1039.62637
G0 F4800 X120.000 Y128.360
G1 F2100 E1040.02637
G1 F1920 X120.000 Y180.602 E1042.19834
G0 F4800 X120.500 Y180.632
G1 F1920 X120.500 Y128.390 E1044.37031
G0 F4800 X121.000 Y128.421
G1 F1920 X121.000 Y180.662 E1046.54224
G0 F4800 X121.500 Y180.693
G1 F1920 X121.500 Y128.451 E1048.71421
G0 F4800 X122.000 Y128.481
G1 F1920 X122.000 Y180.723 E1050.88618
G0 F4800 X122.500 Y180.753
G1 F1920 X122.500 Y128.512 E1053.05811
G0 F4800 X123.000 Y128.542
G1 F1920 X123.000 Y180.784 E1055.23008
G0 F4800 X123.500 Y180.814
G1 F1920 X123.500 Y128.572 E1057.40205
G0 F4800 X124.000 Y128.603
G1 F1920 X124.000 Y180.844 E1059.57398
G0 F4800 X124.500 Y180.875
G1 F1920 X124.500 Y128.633 E1061.74595
G0 F4800 X125.000 Y128.663
G1 F1920 X125.000 Y180.905 E1063.91792
G0 F4800 X125.500 Y180.935
G1 F1920 X125.500 Y128.694 E1066.08985
G0 F4800 X126.000 Y128.724
G1 F1920 X126.000 Y180.965 E1068.26177
G0 F4800 X126.500 Y180.996
G1 F1920 X126.500 Y128.754 E1070.43374
G0 F4800 X127.000 Y128.784
G1 F1920 X127.000 Y181.026 E1072.60571
G0 F4800 X127.500 Y181.056
G1 F1920 X127.500 Y128.815 E1074.77764
G0 F4800 X128.000 Y128.845
G1 F1920 X128.000 Y181.087 E1076.94961
G0 F4800 X128.500 Y181.117
G1 F1920 X128.500 Y128.875 E1079.12158
G0 F4800 X129.000 Y128.906
G1 F1920 X129.000 Y181.147 E1081.29351
G0 F4800 X129.500 Y181.177
G1 F1920 X129.500 Y128.936 E1083.46544
G0 F4800 X130.000 Y128.966
G1 F1920 X130.000 Y181.208 E1085.63741
G0 F4800 X130.500 Y181.238
G1 F1920 X130.500 Y128.997 E1087.80934
G0 F4800 X131.000 Y129.027
G1 F1920 X131.000 Y181.268 E1089.98127
G0 F4800 X131.500 Y181.299
G1 F1920 X131.500 Y129.057 E1092.15324
G0 F4800 X132.000 Y129.087
G1 F1920 X132.000 Y181.329 E1094.32521
G0 F4800 X132.500 Y181.359
G1 F1920 X132.500 Y129.118 E1096.49714
G0 F4800 X133.000 Y129.148
G1 F1920 X133.000 Y181.390 E1098.66911
G0 F4800 X133.500 Y181.420
G1 F1920 X133.500 Y129.178 E1100.84108
G0 F4800 X134.000 Y129.209
G1 F1920 X134.000 Y181.450 E1103.01300
G0 F4800 X134.500 Y181.480
G1 F1920 X134.500 Y129.239 E1105.18493
G0 F4800 X135.000 Y129.269
G1 F1920 X135.000 Y181.511 E1107.35690
G0 F4800 X135.500 Y181.541
G1 F1920 X135.500 Y129.300 E1109.52883
G0 F4800 X136.000 Y129.330
G1 F1920 X136.000 Y181.571 E1111.70076
G0 F4800 X136.500 Y181.602
G1 F1920 X136.500 Y129.360 E1113.87273
G0 F4800 X137.000 Y129.390
G1 F1920 X137.000 Y181.632 E1116.04470
G0 F4800 X137.500 Y181.662
G1 F1920 X137.500 Y129.421 E1118.21663
G0 F4800 X138.000 Y129.451
G1 F1920 X138.000 Y181.693 E1120.38860
G0 F4800 X138.500 Y181.723
G1 F1920 X138.500 Y129.481 E1122.56057
G0 F4800 X139.000 Y129.512
G1 F1920 X139.000 Y181.753 E1124.73250
G0 F4800 X139.500 Y181.783
G1 F1920 X139.500 Y129.542 E1126.90442
G0 F4800 X140.000 Y129.572
G1 F1920 X140.000 Y181.814 E1129.07639
G0 F4800 X140.500 Y181.844
G1 F1920 X140.500 Y129.603 E1131.24832
G0 F4800 X141.000 Y129.633
G1 F1920 X141.000 Y181.874 E1133.42025
G0 F4800 X141.500 Y181.905
G1 F1920 X141.500 Y129.663 E1135.59222
G0 F4800 X142.000 Y129.694
G1 F1920 X142.000 Y181.935 E1137.76415
G0 F4800 X142.500 Y181.965
G1 F1920 X142.500 Y129.724 E1139.93608
G0 F4800 X143.000 Y129.754
G1 F1920 X143.000 Y181.995 E1142.10801
G0 F4800 X143.500 Y182.026
G1 F1920 X143.500 Y129.784 E1144.27998
G0 F4800 X144.000 Y129.815
G1 F1920 X144.000 Y182.056 E1146.45190
G0 F4800 X144.500 Y182.086
G1 F1920 X144.500 Y129.845 E1148.62383
G0 F4800 X145.000 Y129.875
G1 F1920 X145.000 Y182.117 E1150.79580
G0 F4800 X145.500 Y182.147
G1 F1920 X145.500 Y129.906 E1152.96773
G0 F4800 X146.000 Y129.936
G1 F1920 X146.000 Y182.177 E1155.13966
G0 F4800 X146.500 Y182.208
G1 F1920 X146.500 Y129.966 E1157.31163
G0 F4800 X147.000 Y129.997
G1 F1920 X147.000 Y182.238 E1159.48356
G0 F4800 X147.500 Y182.268
G1 F1920 X147.500 Y130.027 E1161.65549
G0 F4800 X148.000 Y130.057
G1 F1920 X148.000 Y182.298 E1163.82741
G0 F4800 X148.500 Y182.329
G1 F1920 X148.500 Y130.087 E1165.99938
G0 F4800 X149.000 Y130.118
G1 F1920 X149.000 Y182.359 E1168.17131
G0 F4800 X149.500 Y182.389
G1 F1920 X149.500 Y130.148 E1170.34324
G0 F4800 X150.000 Y130.178
G1 F1920 X150.000 Y182.420 E1172.51521
G0 F4800 X150.500 Y182.450
G1 F1920 X150.500 Y130.209 E1174.68714
G0 F4800 X151.000 Y130.239
G1 F1920 X151.000 Y182.480 E1176.85907
G0 F4800 X151.500 Y182.510
G1 F1920 X151.500 Y130.269 E1179.03100
G0 F4800 X152.000 Y130.300
G1 F1920 X152.000 Y182.541 E1181.20292
G0 F4800 X152.500 Y182.571
G1 F1920 X152.500 Y130.330 E1183.37485
G0 F4800 X153.000 Y130.360
G1 F1920 X153.000 Y182.601 E1185.54678
G0 F4800 X153.500 Y182.632
G1 F1920 X153.500 Y130.390 E1187.71875
G0 F4800 X154.000 Y130.421
G1 F1920 X154.000 Y182.662 E1189.89068
G0 F4800 X154.500 Y182.692
G1 F1920 X154.500 Y130.451 E1192.06261
G0 F4800 X155.000 Y130.481
G1 F1920 X155.000 Y182.723 E1194.23458
G0 F4800 X155.500 Y182.753
G1 F1920 X155.500 Y130.512 E1196.40651
G0 F4800 X156.000 Y130.542
G1 F1920 X156.000 Y182.783 E1198.57843
G0 F4800 X156.500 Y182.813
G1 F1920 X156.500 Y130.572 E1200.75036
G0 F4800 X157.000 Y130.603
G1 F1920 X157.000 Y182.844 E1202.92229
G0 F4800 X157.500 Y182.874
G1 F1920 X157.500 Y130.633 E1205.09422
G0 F4800 X158.000 Y130.663
G1 F1920 X158.000 Y182.904 E1207.26615
G0 F4800 X158.500 Y182.935
G1 F1920 X158.500 Y130.694 E1209.43808
G0 F4800 X159.000 Y130.724
G1 F1920 X159.000 Y182.965 E1211.61001
G0 F4800 X159.500 Y182.995
G1 F1920 X159.500 Y130.754 E1213.78193
G0 F4800 X160.000 Y130.784
G1 F1920 X160.000 Y183.026 E1215.95390
G0 F4800 X160.500 Y183.056
G1 F1920 X160.500 Y130.815 E1218.12583
G0 F4800 X161.000 Y130.845
G1 F1920 X161.000 Y183.086 E1220.29776
G0 F4800 X161.500 Y183.116
G1 F1920 X161.500 Y130.875 E1222.46969
G0 F4800 X162.000 Y130.906
G1 F1920 X162.000 Y183.147 E1224.64162
G0 F4800 X162.500 Y183.177
G1 F1920 X162.500 Y130.936 E1226.81355
G0 F4800 X163.000 Y130.966
G1 F1920 X163.000 Y183.207 E1228.98547
G0 F4800 X163.500 Y183.238
G1 F1920 X163.500 Y130.997 E1231.15740
G0 F4800 X164.000 Y131.027
G1 F1920 X164.000 Y183.268 E1233.32933
G0 F4800 X164.500 Y183.298
G1 F1920 X164.500 Y167.526 E1233.98505
G0 F4800 X165.000 Y168.102
G1 F1920 X165.000 Y183.328 E1234.61808
G0 F4800 X165.500 Y183.359
G1 F1920 X165.500 Y168.427 E1235.23888
G0 F4800 X166.000 Y168.624
G1 F1920 X166.000 Y183.389 E1235.85274
G0 F4800 X166.500 Y183.325
G1 F1920 X166.500 Y168.702 E1236.46069
G0 F4800 X167.000 Y168.676
G1 F1920 X167.000 Y182.968 E1237.05488
G1 F2100 E1236.65488
G0 F4800 X167.500 Y177.926
G1 F2100 E1237.05488
G1 F1920 X167.500 Y168.547 E1237.44482
G0 F4800 X168.000 Y168.297
G1 F1920 X168.000 Y169.664 E1237.50165
G1 F2100 E1237.10165
G0 F4800 X168.000 Y164.105
G1 F2100 E1237.50165
G1 F1920 X168.000 Y140.803 E1238.47043
G0 F4800 X168.500 Y140.817
G1 F1920 X168.500 Y161.405 E1239.32638
G1 F2100 E1238.92638
G0 F4800 X167.500 Y163.854
G1 F2100 E1239.32638
G1 F1920 X167.500 Y140.689 E1240.28947
G0 F4800 X167.000 Y140.443
G1 F1920 X167.000 Y163.718 E1241.25713
G0 F4800 X166.500 Y163.696
G1 F1920 X166.500 Y140.039 E1242.24068
G1 F2100 E1241.84068
G0 F4800 X169.000 Y140.734
G1 F2100 E1242.24068
G1 F1920 X169.000 Y153.150 E1242.75687
G1 F2100 E1242.35687
G0 F4800 X169.500 Y149.292
G1 F2100 E1242.75687
G1 F1920 X169.500 Y140.533 E1243.12103
G0 F4800 X170.000 Y140.174
G1 F1920 X170.000 Y148.593 E1243.47105
G0 F4800 X170.500 Y148.187
G1 F1920 X170.500 Y139.550 E1243.83014
G1 F2100 E1243.43014
G0 F4800 X170.500 Y137.070
G1 F2100 E1243.83014
G1 F1920 X170.500 Y131.128 E1244.07718
G0 F4800 X170.000 Y131.297
G1 F1920 X170.000 Y136.452 E1244.29150
G0 F4800 X169.500 Y136.100
G1 F1920 X169.500 Y131.333 E1244.48969
G0 F4800 X169.000 Y131.330
G1 F1920 X169.000 Y135.904 E1244.67985
G0 F4800 X168.500 Y135.817
G1 F1920 X168.500 Y131.300 E1244.86765
G0 F4800 X168.000 Y131.269
G1 F1920 X168.000 Y135.832 E1245.05735
G0 F4800 X167.500 Y135.951
G1 F1920 X167.500 Y131.239 E1245.25326
G0 F4800 X167.000 Y131.209
G1 F1920 X167.000 Y136.184 E1245.46009
G0 F4800 X166.500 Y136.583
G1 F1920 X166.500 Y131.178 E1245.68481
G0 F4800 X166.000 Y131.148
G1 F1920 X166.000 Y137.346 E1245.94249
G1 F2100 E1245.54249
G0 F4800 X166.000 Y139.265
G1 F2100 E1245.94249
G1 F1920 X166.000 Y163.773 E1246.96141
G0 F4800 X165.500 Y163.965
G1 F1920 X165.500 Y131.118 E1248.32703
G0 F4800 X165.000 Y131.087
G1 F1920 X165.000 Y164.303 E1249.70799
G0 F4800 X164.500 Y164.878
G1 F1920 X164.500 Y131.057 E1251.11411
G1 F2100 E1250.71411
G0 F4800 X171.000 Y130.867
G1 F2100 E1251.11411
G1 F1920 X171.000 Y147.924 E1251.82325
G0 F4800 X171.500 Y147.752
G1 F1920 X171.500 Y130.466 E1252.54192
G0 F4800 X172.000 Y129.773
G1 F1920 X172.000 Y147.716 E1253.28791
G0 F4800 X172.500 Y147.719
G1 F1920 X172.500 Y126.006 E1254.19063
G1 F2100 E1253.79063
G0 F4800 X173.000 Y121.958
G1 F2100 E1254.19063
G1 F1920 X173.000 Y147.749 E1255.26289
G0 F4800 X173.500 Y147.779
G1 F1920 X173.500 Y121.653 E1256.34909
G0 F4800 X174.000 Y121.615
G1 F1920 X174.000 Y147.809 E1257.43811
G0 F4800 X174.500 Y147.840
G1 F1920 X174.500 Y121.645 E1258.52717
G0 F4800 X175.000 Y121.675
G1 F1920 X175.000 Y147.870 E1259.61623
G0 F4800 X175.500 Y147.900
G1 F1920 X175.500 Y121.706 E1260.70525
G0 F4800 X176.000 Y121.736
G1 F1920 X176.000 Y147.931 E1261.79431
G0 F4800 X176.500 Y147.961
G1 F1920 X176.500 Y121.766 E1262.88337
G0 F4800 X177.000 Y121.796
G1 F1920 X177.000 Y147.991 E1263.97243
G0 F4800 X177.500 Y148.021
G1 F1920 X177.500 Y121.827 E1265.06145
G0 F4800 X178.000 Y121.857
G1 F1920 X178.000 Y148.052 E1266.15052
G0 F4800 X178.500 Y148.082
G1 F1920 X178.500 Y121.887 E1267.23958
G0 F4800 X179.000 Y121.918
G1 F1920 X179.000 Y148.112 E1268.32860
G0 F4800 X179.500 Y148.143
G1 F1920 X179.500 Y121.948 E1269.41766
G0 F4800 X180.000 Y121.978
G1 F1920 X180.000 Y148.173 E1270.50672
G0 F4800 X180.500 Y148.203
G1 F1920 X180.500 Y122.008 E1271.59578
G0 F4800 X181.000 Y122.039
G1 F1920 X181.000 Y148.234 E1272.68484
G0 F4800 X181.500 Y148.264
G1 F1920 X181.500 Y122.069 E1273.77390
G0 F4800 X182.000 Y122.099
G1 F1920 X182.000 Y148.294 E1274.86297
G0 F4800 X182.500 Y148.324
G1 F1920 X182.500 Y122.129 E1275.95203
G0 F4800 X183.000 Y122.160
G1 F1920 X183.000 Y148.355 E1277.04109
G0 F4800 X183.500 Y148.385
G1 F1920 X183.500 Y122.190 E1278.13015
G0 F4800 X184.000 Y122.220
G1 F1920 X184.000 Y148.415 E1279.21921
G0 F4800 X184.500 Y148.446
G1 F1920 X184.500 Y122.251 E1280.30827
G0 F4800 X185.000 Y122.281
G1 F1920 X185.000 Y148.476 E1281.39734
G0 F4800 X185.500 Y148.506
G1 F1920 X185.500 Y122.311 E1282.48640
G0 F4800 X186.000 Y122.341
G1 F1920 X186.000 Y148.536 E1283.57546
G0 F4800 X186.500 Y148.567
G1 F1920 X186.500 Y122.372 E1284.66452
G0 F4800 X187.000 Y122.402
G1 F1920 X187.000 Y148.597 E1285.75358
G0 F4800 X187.500 Y148.627
G1 F1920 X187.500 Y122.432 E1286.84264
G0 F4800 X188.000 Y122.462
G1 F1920 X188.000 Y148.658 E1287.93175
G0 F4800 X188.500 Y148.688
G1 F1920 X188.500 Y122.493 E1289.02081
G0 F4800 X189.000 Y122.523
G1 F1920 X189.000 Y148.718 E1290.10987
G0 F4800 X189.500 Y148.748
G1 F1920 X189.500 Y122.553 E1291.19893
G0 F4800 X190.000 Y122.583
G1 F1920 X190.000 Y148.779 E1292.28803
G0 F4800 X190.500 Y148.809
G1 F1920 X190.500 Y122.614 E1293.37710
G0 F4800 X191.000 Y122.644
G1 F1920 X191.000 Y148.839 E1294.46616
G0 F4800 X191.500 Y148.870
G1 F1920 X191.500 Y122.674 E1295.55526
G0 F4800 X192.000 Y122.705
G1 F1920 X192.000 Y148.900 E1296.64432
G0 F4800 X192.500 Y148.930
G1 F1920 X192.500 Y122.735 E1297.73338
G0 F4800 X193.000 Y122.765
G1 F1920 X193.000 Y148.960 E1298.82244
G0 F4800 X193.500 Y148.991
G1 F1920 X193.500 Y122.795 E1299.91155
G0 F4800 X194.000 Y122.826
G1 F1920 X194.000 Y149.021 E1301.00061
G0 F4800 X194.500 Y149.051
G1 F1920 X194.500 Y122.856 E1302.08967
G0 F4800 X195.000 Y122.886
G1 F1920 X195.000 Y149.082 E1303.17877
