;-- START GCODE --
;Sliced for Type A Machines Series 1
;Sliced at: Fri 24-02-2017 18:28:35
;Basic settings:
; Layer height: 0.2
; Walls: 1
; Fill: 8
; Print Speed: 50
; Support: 0
; Retraction Speed: 35
; Retraction Distance: 0.4
;Print time: 1 hour 9 minutes
;Filament used: 5.132m 15.0g
;Settings based on: Type A Machines Everyday PLA
G21        ;metric values
G90        ;absolute positioning
G28     ;move to endstops
G29		;allows for auto-levelling
G1 Z15.0 F12000 ;move the platform down 15mm
G1 X150 Y5 F7200 ;center
M140 S50 ;Prep Heat Bed
M109 S220 ;Heat To temp
M190 S50 ;Heat Bed to temp
G1 X150 Y5 Z0.3 ;move the platform to purge extrusion
G92 E0 ;zero the extruded length
G1 F200 X250 E30 ;extrude 30mm of feed stock
G92 E0 ;zero the extruded length again
G1 X150 Y150  Z25 F12000 ;recenter and begin
G1 F7200

;Layer count: 236
;LAYER:0
M107
G0 F7200 X122.650 Y112.901 Z0.200
;TYPE:SKIRT
G1 F1800 X182.350 Y112.901 E2.48204
G1 X182.350 Y192.099 E5.77471
G1 X122.650 Y192.099 E8.25675
G1 X122.650 Y112.901 E11.54942
G0 F7200 X123.150 Y113.401
G1 F1800 X181.850 Y113.401 E13.98988
G1 X181.850 Y191.599 E17.24097
G1 X123.150 Y191.599 E19.68144
G1 X123.150 Y113.401 E22.93253
G0 F7200 X123.650 Y113.901
G1 F1800 X181.350 Y113.901 E25.33142
G1 X181.350 Y191.099 E28.54094
G1 X123.650 Y191.099 E30.93982
G1 X123.650 Y113.901 E34.14934
G0 F7200 X124.150 Y114.401
G1 F1800 X180.850 Y114.401 E36.50666
G1 X180.850 Y190.599 E39.67460
G1 X124.150 Y190.599 E42.03191
G1 X124.150 Y114.401 E45.19986
G0 F7200 X124.650 Y114.901
G1 F1800 X180.350 Y114.901 E47.51560
G1 X180.350 Y190.099 E50.64196
G1 X124.650 Y190.099 E52.95770
G1 X124.650 Y114.901 E56.08407
G0 F7200 X125.150 Y115.401
G1 F1800 X179.850 Y115.401 E58.35823
G1 X179.850 Y189.599 E61.44303
G1 X125.150 Y189.599 E63.71719
G1 X125.150 Y115.401 E66.80198
G0 F7200 X125.650 Y115.901
G1 F1800 X179.350 Y115.901 E69.03457
G1 X179.350 Y189.099 E72.07779
G1 X125.650 Y189.099 E74.31038
G1 X125.650 Y115.901 E77.35359
G0 F7200 X126.150 Y116.401
G1 F1800 X178.850 Y116.401 E79.54461
G1 X178.850 Y188.599 E82.54625
G1 X126.150 Y188.599 E84.73726
G1 X126.150 Y116.401 E87.73891
G0 F7200 X126.650 Y116.901
G1 F1800 X178.350 Y116.901 E89.88834
G1 X178.350 Y188.099 E92.84841
G1 X126.650 Y188.099 E94.99785
G1 X126.650 Y116.901 E97.95792
G0 F7200 X127.150 Y117.401
G1 F1800 X177.850 Y117.401 E100.06578
G1 X177.850 Y187.599 E102.98427
G1 X127.150 Y187.599 E105.09213
G1 X127.150 Y117.401 E108.01063
G0 F7200 X128.150 Y118.401
;TYPE:WALL-INNER
G1 F1800 X176.850 Y118.401 E110.03534
G1 X176.850 Y186.599 E112.87068
G1 X128.150 Y186.599 E114.89539
G1 X128.150 Y118.401 E117.73073
G0 F7200 X127.650 Y117.901
;TYPE:WALL-OUTER
G1 F1800 X177.350 Y117.901 E119.79702
G1 X177.350 Y187.099 E122.67394
G1 X127.650 Y187.099 E124.74022
G1 X127.650 Y117.901 E127.61714
G0 F7200 X128.500 Y118.576
;TYPE:SKIN
G1 F1800 X128.500 Y186.424 E130.43793
G0 F7200 X129.000 Y186.424
G1 F1800 X129.000 Y118.576 E133.25873
G0 F7200 X129.500 Y118.576
G1 F1800 X129.500 Y186.424 E136.07952
G0 F7200 X130.000 Y186.424
G1 F1800 X130.000 Y118.576 E138.90031
G0 F7200 X130.500 Y118.576
G1 F1800 X130.500 Y186.424 E141.72110
G0 F7200 X131.000 Y186.424
G1 F1800 X131.000 Y118.576 E144.54189
G0 F7200 X131.500 Y118.576
G1 F1800 X131.500 Y186.424 E147.36269
G0 F7200 X132.000 Y186.424
G1 F1800 X132.000 Y118.576 E150.18348
G0 F7200 X132.500 Y118.576
G1 F1800 X132.500 Y186.424 E153.00427
G0 F7200 X133.000 Y186.424
G1 F1800 X133.000 Y118.576 E155.82506
G0 F7200 X133.500 Y118.576
G1 F1800 X133.500 Y186.424 E158.64586
G0 F7200 X134.000 Y186.424
G1 F1800 X134.000 Y118.576 E161.46665
G0 F7200 X134.500 Y118.576
G1 F1800 X134.500 Y186.424 E164.28744
G0 F7200 X135.000 Y186.424
G1 F1800 X135.000 Y118.576 E167.10823
G0 F7200 X135.500 Y118.576
G1 F1800 X135.500 Y186.424 E169.92902
G0 F7200 X136.000 Y186.424
G1 F1800 X136.000 Y118.576 E172.74982
G0 F7200 X136.500 Y118.576
G1 F1800 X136.500 Y186.424 E175.57061
G0 F7200 X137.000 Y186.424
G1 F1800 X137.000 Y118.576 E178.39140
G0 F7200 X137.500 Y118.576
G1 F1800 X137.500 Y186.424 E181.21219
G0 F7200 X138.000 Y186.424
G1 F1800 X138.000 Y118.576 E184.03298
G0 F7200 X138.500 Y118.576
G1 F1800 X138.500 Y186.424 E186.85378
G0 F7200 X139.000 Y186.424
G1 F1800 X139.000 Y118.576 E189.67457
G0 F7200 X139.500 Y118.576
G1 F1800 X139.500 Y186.424 E192.49536
G0 F7200 X140.000 Y186.424
G1 F1800 X140.000 Y118.576 E195.31615
G0 F7200 X140.500 Y118.576
G1 F1800 X140.500 Y186.424 E198.13694
G0 F7200 X141.000 Y186.424
G1 F1800 X141.000 Y118.576 E200.95774
G0 F7200 X141.500 Y118.576
G1 F1800 X141.500 Y186.424 E203.77853
G0 F7200 X142.000 Y186.424
G1 F1800 X142.000 Y118.576 E206.59932
G0 F7200 X142.500 Y118.576
G1 F1800 X142.500 Y186.424 E209.42011
G0 F7200 X143.000 Y186.424
G1 F1800 X143.000 Y118.576 E212.24090
G0 F7200 X143.500 Y118.576
G1 F1800 X143.500 Y186.424 E215.06170
G0 F7200 X144.000 Y186.424
G1 F1800 X144.000 Y118.576 E217.88249
G0 F7200 X144.500 Y118.576
G1 F1800 X144.500 Y186.424 E220.70328
G0 F7200 X145.000 Y186.424
G1 F1800 X145.000 Y118.576 E223.52407
G0 F7200 X145.500 Y118.576
G1 F1800 X145.500 Y186.424 E226.34486
G0 F7200 X146.000 Y186.424
G1 F1800 X146.000 Y118.576 E229.16566
G0 F7200 X146.500 Y118.576
G1 F1800 X146.500 Y186.424 E231.98645
G0 F7200 X147.000 Y186.424
G1 F1800 X147.000 Y118.576 E234.80724
G0 F7200 X147.500 Y118.576
G1 F1800 X147.500 Y186.424 E237.62803
G0 F7200 X148.000 Y186.424
G1 F1800 X148.000 Y118.576 E240.44882
G0 F7200 X148.500 Y118.576
G1 F1800 X148.500 Y186.424 E243.26962
G0 F7200 X149.000 Y186.424
G1 F1800 X149.000 Y118.576 E246.09041
G0 F7200 X149.500 Y118.576
G1 F1800 X149.500 Y186.424 E248.91120
G0 F7200 X150.000 Y186.424
G1 F1800 X150.000 Y118.576 E251.73199
G0 F7200 X150.500 Y118.576
G1 F1800 X150.500 Y186.424 E254.55278
G0 F7200 X151.000 Y186.424
G1 F1800 X151.000 Y118.576 E257.37358
G0 F7200 X151.500 Y118.576
G1 F1800 X151.500 Y186.424 E260.19437
G0 F7200 X152.000 Y186.424
G1 F1800 X152.000 Y118.576 E263.01516
G0 F7200 X152.500 Y118.576
G1 F1800 X152.500 Y186.424 E265.83595
G0 F7200 X153.000 Y186.424
G1 F1800 X153.000 Y118.576 E268.65675
G0 F7200 X153.500 Y118.576
G1 F1800 X153.500 Y186.424 E271.47754
G0 F7200 X154.000 Y186.424
G1 F1800 X154.000 Y118.576 E274.29833
G0 F7200 X154.500 Y118.576
G1 F1800 X154.500 Y186.424 E277.11912
G0 F7200 X155.000 Y186.424
G1 F1800 X155.000 Y118.576 E279.93991
G0 F7200 X155.500 Y118.576
G1 F1800 X155.500 Y186.424 E282.76071
G0 F7200 X156.000 Y186.424
G1 F1800 X156.000 Y118.576 E285.58150
G0 F7200 X156.500 Y118.576
G1 F1800 X156.500 Y186.424 E288.40229
G0 F7200 X157.000 Y186.424
G1 F1800 X157.000 Y118.576 E291.22308
G0 F7200 X157.500 Y118.576
G1 F1800 X157.500 Y186.424 E294.04387
G0 F7200 X158.000 Y186.424
G1 F1800 X158.000 Y118.576 E296.86467
G0 F7200 X158.500 Y118.576
G1 F1800 X158.500 Y186.424 E299.68546
G0 F7200 X159.000 Y186.424
G1 F1800 X159.000 Y118.576 E302.50625
G0 F7200 X159.500 Y118.576
G1 F1800 X159.500 Y186.424 E305.32704
G0 F7200 X160.000 Y186.424
G1 F1800 X160.000 Y118.576 E308.14783
G0 F7200 X160.500 Y118.576
G1 F1800 X160.500 Y186.424 E310.96863
G0 F7200 X161.000 Y186.424
G1 F1800 X161.000 Y118.576 E313.78942
G0 F7200 X161.500 Y118.576
G1 F1800 X161.500 Y186.424 E316.61021
G0 F7200 X162.000 Y186.424
G1 F1800 X162.000 Y118.576 E319.43100
G0 F7200 X162.500 Y118.576
G1 F1800 X162.500 Y186.424 E322.25179
G0 F7200 X163.000 Y186.424
G1 F1800 X163.000 Y118.576 E325.07259
G0 F7200 X163.500 Y118.576
G1 F1800 X163.500 Y186.424 E327.89338
G0 F7200 X164.000 Y186.424
G1 F1800 X164.000 Y118.576 E330.71417
G0 F7200 X164.500 Y118.576
G1 F1800 X164.500 Y186.424 E333.53496
G0 F7200 X165.000 Y186.424
G1 F1800 X165.000 Y118.576 E336.35575
G0 F7200 X165.500 Y118.576
G1 F1800 X165.500 Y186.424 E339.17655
G0 F7200 X166.000 Y186.424
G1 F1800 X166.000 Y118.576 E341.99734
G0 F7200 X166.500 Y118.576
G1 F1800 X166.500 Y186.424 E344.81813
G0 F7200 X167.000 Y186.424
G1 F1800 X167.000 Y118.576 E347.63892
G0 F7200 X167.500 Y118.576
G1 F1800 X167.500 Y186.424 E350.45971
G0 F7200 X168.000 Y186.424
G1 F1800 X168.000 Y118.576 E353.28051
G0 F7200 X168.500 Y118.576
G1 F1800 X168.500 Y186.424 E356.10130
G0 F7200 X169.000 Y186.424
G1 F1800 X169.000 Y118.576 E358.92209
G0 F7200 X169.500 Y118.576
G1 F1800 X169.500 Y186.424 E361.74288
G0 F7200 X170.000 Y186.424
G1 F1800 X170.000 Y118.576 E364.56368
G0 F7200 X170.500 Y118.576
G1 F1800 X170.500 Y186.424 E367.38447
G0 F7200 X171.000 Y186.424
G1 F1800 X171.000 Y118.576 E370.20526
G0 F7200 X171.500 Y118.576
G1 F1800 X171.500 Y186.424 E373.02605
G0 F7200 X172.000 Y186.424
G1 F1800 X172.000 Y118.576 E375.84684
G0 F7200 X172.500 Y118.576
G1 F1800 X172.500 Y186.424 E378.66764
G0 F7200 X173.000 Y186.424
G1 F1800 X173.000 Y118.576 E381.48843
G0 F7200 X173.500 Y118.576
G1 F1800 X173.500 Y186.424 E384.30922
G0 F7200 X174.000 Y186.424
G1 F1800 X174.000 Y118.576 E387.13001
G0 F7200 X174.500 Y118.576
G1 F1800 X174.500 Y186.424 E389.95080
G0 F7200 X175.000 Y186.424
G1 F1800 X175.000 Y118.576 E392.77160
G0 F7200 X175.500 Y118.576
G1 F1800 X175.500 Y186.424 E395.59239
G0 F7200 X176.000 Y186.424
G1 F1800 X176.000 Y118.576 E398.41318
G0 F7200 X176.500 Y118.576
G1 F1800 X176.500 Y186.424 E401.23397
;LAYER:1
M106 S10
G0 F7200 X176.850 Y186.599 Z0.400
;TYPE:WALL-INNER
G1 F2040 X128.150 Y186.599 E403.25868
G1 X128.150 Y118.401 E406.09403
G1 X176.850 Y118.401 E408.11874
G1 X176.850 Y186.599 E410.95408
G0 F7200 X177.350 Y187.099
;TYPE:WALL-OUTER
G1 F2040 X127.650 Y187.099 E413.02037
G1 X127.650 Y117.901 E415.89728
G1 X177.350 Y117.901 E417.96357
G1 X177.350 Y187.099 E420.84049
G0 F7200 X176.674 Y186.000
;TYPE:SKIN
G1 F2040 X128.324 Y186.000 E422.85065
G0 F7200 X128.324 Y185.500
G1 F2040 X176.674 Y185.500 E424.86081
G0 F7200 X176.674 Y185.000
G1 F2040 X128.324 Y185.000 E426.87097
G0 F7200 X128.324 Y184.500
G1 F2040 X176.674 Y184.500 E428.88113
G0 F7200 X176.674 Y184.000
G1 F2040 X128.324 Y184.000 E430.89129
G0 F7200 X128.324 Y183.500
G1 F2040 X176.674 Y183.500 E432.90145
G0 F7200 X176.674 Y183.000
G1 F2040 X128.324 Y183.000 E434.91160
G0 F7200 X128.324 Y182.500
G1 F2040 X176.674 Y182.500 E436.92176
G0 F7200 X176.674 Y182.000
G1 F2040 X128.324 Y182.000 E438.93192
G0 F7200 X128.324 Y181.500
G1 F2040 X176.674 Y181.500 E440.94208
G0 F7200 X176.674 Y181.000
G1 F2040 X128.324 Y181.000 E442.95224
G0 F7200 X128.324 Y180.500
G1 F2040 X176.674 Y180.500 E444.96240
G0 F7200 X176.674 Y180.000
G1 F2040 X128.324 Y180.000 E446.97256
G0 F7200 X128.324 Y179.500
G1 F2040 X176.674 Y179.500 E448.98272
G0 F7200 X176.674 Y179.000
G1 F2040 X128.324 Y179.000 E450.99288
G0 F7200 X128.324 Y178.500
G1 F2040 X176.674 Y178.500 E453.00304
G0 F7200 X176.674 Y178.000
G1 F2040 X128.324 Y178.000 E455.01320
G0 F7200 X128.324 Y177.500
G1 F2040 X176.674 Y177.500 E457.02336
G0 F7200 X176.674 Y177.000
G1 F2040 X128.324 Y177.000 E459.03352
G0 F7200 X128.324 Y176.500
G1 F2040 X176.674 Y176.500 E461.04368
G0 F7200 X176.674 Y176.000
G1 F2040 X128.324 Y176.000 E463.05384
G0 F7200 X128.324 Y175.500
G1 F2040 X176.674 Y175.500 E465.06400
G0 F7200 X176.674 Y175.000
G1 F2040 X128.324 Y175.000 E467.07416
G0 F7200 X128.324 Y174.500
G1 F2040 X176.674 Y174.500 E469.08431
G0 F7200 X176.674 Y174.000
G1 F2040 X128.324 Y174.000 E471.09447
G0 F7200 X128.324 Y173.500
G1 F2040 X176.674 Y173.500 E473.10463
G0 F7200 X176.674 Y173.000
G1 F2040 X128.324 Y173.000 E475.11479
G0 F7200 X128.324 Y172.500
G1 F2040 X176.674 Y172.500 E477.12495
G0 F7200 X176.674 Y172.000
G1 F2040 X128.324 Y172.000 E479.13511
G0 F7200 X128.324 Y171.500
G1 F2040 X176.674 Y171.500 E481.14527
G0 F7200 X176.674 Y171.000
G1 F2040 X128.324 Y171.000 E483.15543
G0 F7200 X128.324 Y170.500
G1 F2040 X176.674 Y170.500 E485.16559
G0 F7200 X176.674 Y170.000
G1 F2040 X128.324 Y170.000 E487.17575
G0 F7200 X128.324 Y169.500
G1 F2040 X176.674 Y169.500 E489.18591
G0 F7200 X176.674 Y169.000
G1 F2040 X128.324 Y169.000 E491.19607
G0 F7200 X128.324 Y168.500
G1 F2040 X176.674 Y168.500 E493.20623
G0 F7200 X176.674 Y168.000
G1 F2040 X128.324 Y168.000 E495.21639
G0 F7200 X128.324 Y167.500
G1 F2040 X176.674 Y167.500 E497.22655
G0 F7200 X176.674 Y167.000
G1 F2040 X128.324 Y167.000 E499.23671
G0 F7200 X128.324 Y166.500
G1 F2040 X176.674 Y166.500 E501.24687
G0 F7200 X176.674 Y166.000
G1 F2040 X128.324 Y166.000 E503.25702
G0 F7200 X128.324 Y165.500
G1 F2040 X176.674 Y165.500 E505.26718
G0 F7200 X176.674 Y165.000
G1 F2040 X128.324 Y165.000 E507.27734
G0 F7200 X128.324 Y164.500
G1 F2040 X176.674 Y164.500 E509.28750
G0 F7200 X176.674 Y164.000
G1 F2040 X128.324 Y164.000 E511.29766
G0 F7200 X128.324 Y163.500
G1 F2040 X176.674 Y163.500 E513.30782
G0 F7200 X176.674 Y163.000
G1 F2040 X128.324 Y163.000 E515.31798
G0 F7200 X128.324 Y162.500
G1 F2040 X176.674 Y162.500 E517.32814
G0 F7200 X176.674 Y162.000
G1 F2040 X128.324 Y162.000 E519.33830
G0 F7200 X128.324 Y161.500
G1 F2040 X176.674 Y161.500 E521.34846
G0 F7200 X176.674 Y161.000
G1 F2040 X128.324 Y161.000 E523.35862
G0 F7200 X128.324 Y160.500
G1 F2040 X176.674 Y160.500 E525.36878
G0 F7200 X176.674 Y160.000
G1 F2040 X128.324 Y160.000 E527.37894
G0 F7200 X128.324 Y159.500
G1 F2040 X176.674 Y159.500 E529.38910
G0 F7200 X176.674 Y159.000
G1 F2040 X128.324 Y159.000 E531.39926
G0 F7200 X128.324 Y158.500
G1 F2040 X176.674 Y158.500 E533.40942
G0 F7200 X176.674 Y158.000
G1 F2040 X128.324 Y158.000 E535.41958
G0 F7200 X128.324 Y157.500
G1 F2040 X176.674 Y157.500 E537.42973
G0 F7200 X176.674 Y157.000
G1 F2040 X128.324 Y157.000 E539.43989
G0 F7200 X128.324 Y156.500
G1 F2040 X176.674 Y156.500 E541.45005
G0 F7200 X176.674 Y156.000
G1 F2040 X128.324 Y156.000 E543.46021
G0 F7200 X128.324 Y155.500
G1 F2040 X176.674 Y155.500 E545.47037
G0 F7200 X176.674 Y155.000
G1 F2040 X128.324 Y155.000 E547.48053
G0 F7200 X128.324 Y154.500
G1 F2040 X176.674 Y154.500 E549.49069
G0 F7200 X176.674 Y154.000
G1 F2040 X128.324 Y154.000 E551.50085
G0 F7200 X128.324 Y153.500
G1 F2040 X176.674 Y153.500 E553.51101
G0 F7200 X176.674 Y153.000
G1 F2040 X128.324 Y153.000 E555.52117
G0 F7200 X128.324 Y152.500
G1 F2040 X176.674 Y152.500 E557.53133
G0 F7200 X176.674 Y152.000
G1 F2040 X128.324 Y152.000 E559.54149
G0 F7200 X128.324 Y151.500
G1 F2040 X176.674 Y151.500 E561.55165
G0 F7200 X176.674 Y151.000
G1 F2040 X128.324 Y151.000 E563.56181
G0 F7200 X128.324 Y150.500
G1 F2040 X176.674 Y150.500 E565.57197
G0 F7200 X176.674 Y150.000
G1 F2040 X128.324 Y150.000 E567.58213
G0 F7200 X128.324 Y149.500
G1 F2040 X176.674 Y149.500 E569.59229
G0 F7200 X176.674 Y149.000
G1 F2040 X128.324 Y149.000 E571.60244
G0 F7200 X128.324 Y148.500
G1 F2040 X176.674 Y148.500 E573.61260
G0 F7200 X176.674 Y148.000
G1 F2040 X128.324 Y148.000 E575.62276
G0 F7200 X128.324 Y147.500
G1 F2040 X176.674 Y147.500 E577.63292
G0 F7200 X176.674 Y147.000
G1 F2040 X128.324 Y147.000 E579.64308
G0 F7200 X128.324 Y146.500
G1 F2040 X176.674 Y146.500 E581.65324
G0 F7200 X176.674 Y146.000
G1 F2040 X128.324 Y146.000 E583.66340
G0 F7200 X128.324 Y145.500
G1 F2040 X176.674 Y145.500 E585.67356
G0 F7200 X176.674 Y145.000
G1 F2040 X128.324 Y145.000 E587.68372
G0 F7200 X128.324 Y144.500
G1 F2040 X176.674 Y144.500 E589.69388
G0 F7200 X176.674 Y144.000
G1 F2040 X128.324 Y144.000 E591.70404
G0 F7200 X128.324 Y143.500
G1 F2040 X176.674 Y143.500 E593.71420
G0 F7200 X176.674 Y143.000
G1 F2040 X128.324 Y143.000 E595.72436
G0 F7200 X128.324 Y142.500
G1 F2040 X176.674 Y142.500 E597.73452
G0 F7200 X176.674 Y142.000
G1 F2040 X128.324 Y142.000 E599.74468
G0 F7200 X128.324 Y141.500
G1 F2040 X176.674 Y141.500 E601.75484
G0 F7200 X176.674 Y141.000
G1 F2040 X128.324 Y141.000 E603.76500
G0 F7200 X128.324 Y140.500
G1 F2040 X176.674 Y140.500 E605.77515
G0 F7200 X176.674 Y140.000
G1 F2040 X128.324 Y140.000 E607.78531
G0 F7200 X128.324 Y139.500
G1 F2040 X176.674 Y139.500 E609.79547
G0 F7200 X176.674 Y139.000
G1 F2040 X128.324 Y139.000 E611.80563
G0 F7200 X128.324 Y138.500
G1 F2040 X176.674 Y138.500 E613.81579
G0 F7200 X176.674 Y138.000
G1 F2040 X128.324 Y138.000 E615.82595
G0 F7200 X128.324 Y137.500
G1 F2040 X176.674 Y137.500 E617.83611
G0 F7200 X176.674 Y137.000
G1 F2040 X128.324 Y137.000 E619.84627
G0 F7200 X128.324 Y136.500
G1 F2040 X176.674 Y136.500 E621.85643
G0 F7200 X176.674 Y136.000
G1 F2040 X128.324 Y136.000 E623.86659
G0 F7200 X128.324 Y135.500
G1 F2040 X176.674 Y135.500 E625.87675
G0 F7200 X176.674 Y135.000
G1 F2040 X128.324 Y135.000 E627.88691
G0 F7200 X128.324 Y134.500
G1 F2040 X176.674 Y134.500 E629.89707
G0 F7200 X176.674 Y134.000
G1 F2040 X128.324 Y134.000 E631.90723
G0 F7200 X128.324 Y133.500
G1 F2040 X176.674 Y133.500 E633.91739
G0 F7200 X176.674 Y133.000
G1 F2040 X128.324 Y133.000 E635.92755
G0 F7200 X128.324 Y132.500
G1 F2040 X176.674 Y132.500 E637.93771
G0 F7200 X176.674 Y132.000
G1 F2040 X128.324 Y132.000 E639.94786
G0 F7200 X128.324 Y131.500
G1 F2040 X176.674 Y131.500 E641.95802
G0 F7200 X176.674 Y131.000
G1 F2040 X128.324 Y131.000 E643.96818
G0 F7200 X128.324 Y130.500
G1 F2040 X176.674 Y130.500 E645.97834
G0 F7200 X176.674 Y130.000
G1 F2040 X128.324 Y130.000 E647.98850
G0 F7200 X128.324 Y129.500
G1 F2040 X176.674 Y129.500 E649.99866
G0 F7200 X176.674 Y129.000
G1 F2040 X128.324 Y129.000 E652.00882
G0 F7200 X128.324 Y128.500
G1 F2040 X176.674 Y128.500 E654.01898
G0 F7200 X176.674 Y128.000
G1 F2040 X128.324 Y128.000 E656.02914
G0 F7200 X128.324 Y127.500
G1 F2040 X176.674 Y127.500 E658.03930
G0 F7200 X176.674 Y127.000
G1 F2040 X128.324 Y127.000 E660.04946
G0 F7200 X128.324 Y126.500
G1 F2040 X176.674 Y126.500 E662.05962
G0 F7200 X176.674 Y126.000
G1 F2040 X128.324 Y126.000 E664.06978
G0 F7200 X128.324 Y125.500
G1 F2040 X176.674 Y125.500 E666.07994
G0 F7200 X176.674 Y125.000
G1 F2040 X128.324 Y125.000 E668.09010
G0 F7200 X128.324 Y124.500
G1 F2040 X176.674 Y124.500 E670.10026
G0 F7200 X176.674 Y124.000
G1 F2040 X128.324 Y124.000 E672.11042
G0 F7200 X128.324 Y123.500
G1 F2040 X176.674 Y123.500 E674.12057
G0 F7200 X176.674 Y123.000
G1 F2040 X128.324 Y123.000 E676.13073
G0 F7200 X128.324 Y122.500
G1 F2040 X176.674 Y122.500 E678.14089
G0 F7200 X176.674 Y122.000
G1 F2040 X128.324 Y122.000 E680.15105
G0 F7200 X128.324 Y121.500
G1 F2040 X176.674 Y121.500 E682.16121
G0 F7200 X176.674 Y121.000
G1 F2040 X128.324 Y121.000 E684.17137
G0 F7200 X128.324 Y120.500
G1 F2040 X176.674 Y120.500 E686.18153
G0 F7200 X176.674 Y120.000
G1 F2040 X128.324 Y120.000 E688.19169
G0 F7200 X128.324 Y119.500
G1 F2040 X176.674 Y119.500 E690.20185
G0 F7200 X176.674 Y119.000
G1 F2040 X128.324 Y119.000 E692.21201
;LAYER:2
M106 S20
G0 F7200 X128.150 Y118.401 Z0.600
;TYPE:WALL-INNER
G1 F2400 X176.850 Y118.401 E694.23672
G1 X176.850 Y186.599 E697.07206
G1 X128.150 Y186.599 E699.09677
G1 X128.150 Y118.401 E701.93212
G0 F7200 X127.650 Y117.901
;TYPE:WALL-OUTER
G1 F2400 X177.350 Y117.901 E703.99840
G1 X177.350 Y187.099 E706.87532
G1 X127.650 Y187.099 E708.94161
G1 X127.650 Y117.901 E711.81853
G0 F7200 X128.500 Y118.576
;TYPE:SKIN
G1 F2400 X128.500 Y186.424 E714.63932
G0 F7200 X129.000 Y186.424
G1 F2400 X129.000 Y118.576 E717.46011
G0 F7200 X129.500 Y118.576
G1 F2400 X129.500 Y186.424 E720.28090
G0 F7200 X130.000 Y186.424
G1 F2400 X130.000 Y118.576 E723.10169
G0 F7200 X130.500 Y118.576
G1 F2400 X130.500 Y186.424 E725.92249
G0 F7200 X131.000 Y186.424
G1 F2400 X131.000 Y118.576 E728.74328
G0 F7200 X131.500 Y118.576
G1 F2400 X131.500 Y186.424 E731.56407
G0 F7200 X132.000 Y186.424
G1 F2400 X132.000 Y118.576 E734.38486
G0 F7200 X132.500 Y118.576
G1 F2400 X132.500 Y186.424 E737.20565
G0 F7200 X133.000 Y186.424
G1 F2400 X133.000 Y118.576 E740.02645
G0 F7200 X133.500 Y118.576
G1 F2400 X133.500 Y186.424 E742.84724
G0 F7200 X134.000 Y186.424
G1 F2400 X134.000 Y118.576 E745.66803
G0 F7200 X134.500 Y118.576
G1 F2400 X134.500 Y186.424 E748.48882
G0 F7200 X135.000 Y186.424
G1 F2400 X135.000 Y118.576 E751.30962
G0 F7200 X135.500 Y118.576
G1 F2400 X135.500 Y186.424 E754.13041
G0 F7200 X136.000 Y186.424
G1 F2400 X136.000 Y118.576 E756.95120
G0 F7200 X136.500 Y118.576
G1 F2400 X136.500 Y186.424 E759.77199
G0 F7200 X137.000 Y186.424
G1 F2400 X137.000 Y118.576 E762.59278
G0 F7200 X137.500 Y118.576
G1 F2400 X137.500 Y186.424 E765.41358
G0 F7200 X138.000 Y186.424
G1 F2400 X138.000 Y118.576 E768.23437
G0 F7200 X138.500 Y118.576
G1 F2400 X138.500 Y186.424 E771.05516
G0 F7200 X139.000 Y186.424
G1 F2400 X139.000 Y118.576 E773.87595
G0 F7200 X139.500 Y118.576
G1 F2400 X139.500 Y186.424 E776.69674
G0 F7200 X140.000 Y186.424
G1 F2400 X140.000 Y118.576 E779.51754
G0 F7200 X140.500 Y118.576
G1 F2400 X140.500 Y186.424 E782.33833
G0 F7200 X141.000 Y186.424
G1 F2400 X141.000 Y118.576 E785.15912
G0 F7200 X141.500 Y118.576
G1 F2400 X141.500 Y186.424 E787.97991
G0 F7200 X142.000 Y186.424
G1 F2400 X142.000 Y118.576 E790.80070
G0 F7200 X142.500 Y118.576
G1 F2400 X142.500 Y186.424 E793.62150
G0 F7200 X143.000 Y186.424
G1 F2400 X143.000 Y118.576 E796.44229
G0 F7200 X143.500 Y118.576
G1 F2400 X143.500 Y186.424 E799.26308
G0 F7200 X144.000 Y186.424
G1 F2400 X144.000 Y118.576 E802.08387
G0 F7200 X144.500 Y118.576
G1 F2400 X144.500 Y186.424 E804.90466
G0 F7200 X145.000 Y186.424
G1 F2400 X145.000 Y118.576 E807.72546
G0 F7200 X145.500 Y118.576
G1 F2400 X145.500 Y186.424 E810.54625
G0 F7200 X146.000 Y186.424
G1 F2400 X146.000 Y118.576 E813.36704
G0 F7200 X146.500 Y118.576
G1 F2400 X146.500 Y186.424 E816.18783
G0 F7200 X147.000 Y186.424
G1 F2400 X147.000 Y118.576 E819.00862
G0 F7200 X147.500 Y118.576
G1 F2400 X147.500 Y186.424 E821.82942
G0 F7200 X148.000 Y186.424
G1 F2400 X148.000 Y118.576 E824.65021
G0 F7200 X148.500 Y118.576
G1 F2400 X148.500 Y186.424 E827.47100
G0 F7200 X149.000 Y186.424
G1 F2400 X149.000 Y118.576 E830.29179
G0 F7200 X149.500 Y118.576
G1 F2400 X149.500 Y186.424 E833.11258
G0 F7200 X150.000 Y186.424
G1 F2400 X150.000 Y118.576 E835.93338
G0 F7200 X150.500 Y118.576
G1 F2400 X150.500 Y186.424 E838.75417
G0 F7200 X151.000 Y186.424
G1 F2400 X151.000 Y118.576 E841.57496
G0 F7200 X151.500 Y118.576
G1 F2400 X151.500 Y186.424 E844.39575
G0 F7200 X152.000 Y186.424
G1 F2400 X152.000 Y118.576 E847.21654
G0 F7200 X152.500 Y118.576
G1 F2400 X152.500 Y186.424 E850.03734
G0 F7200 X153.000 Y186.424
G1 F2400 X153.000 Y118.576 E852.85813
G0 F7200 X153.500 Y118.576
G1 F2400 X153.500 Y186.424 E855.67892
G0 F7200 X154.000 Y186.424
G1 F2400 X154.000 Y118.576 E858.49971
G0 F7200 X154.500 Y118.576
G1 F2400 X154.500 Y186.424 E861.32051
G0 F7200 X155.000 Y186.424
G1 F2400 X155.000 Y118.576 E864.14130
G0 F7200 X155.500 Y118.576
G1 F2400 X155.500 Y186.424 E866.96209
G0 F7200 X156.000 Y186.424
G1 F2400 X156.000 Y118.576 E869.78288
G0 F7200 X156.500 Y118.576
G1 F2400 X156.500 Y186.424 E872.60367
G0 F7200 X157.000 Y186.424
G1 F2400 X157.000 Y118.576 E875.42447
G0 F7200 X157.500 Y118.576
G1 F2400 X157.500 Y186.424 E878.24526
G0 F7200 X158.000 Y186.424
G1 F2400 X158.000 Y118.576 E881.06605
G0 F7200 X158.500 Y118.576
G1 F2400 X158.500 Y186.424 E883.88684
G0 F7200 X159.000 Y186.424
G1 F2400 X159.000 Y118.576 E886.70763
G0 F7200 X159.500 Y118.576
G1 F2400 X159.500 Y186.424 E889.52843
G0 F7200 X160.000 Y186.424
G1 F2400 X160.000 Y118.576 E892.34922
G0 F7200 X160.500 Y118.576
G1 F2400 X160.500 Y186.424 E895.17001
G0 F7200 X161.000 Y186.424
G1 F2400 X161.000 Y118.576 E897.99080
G0 F7200 X161.500 Y118.576
G1 F2400 X161.500 Y186.424 E900.81159
G0 F7200 X162.000 Y186.424
G1 F2400 X162.000 Y118.576 E903.63239
G0 F7200 X162.500 Y118.576
G1 F2400 X162.500 Y186.424 E906.45318
G0 F7200 X163.000 Y186.424
G1 F2400 X163.000 Y118.576 E909.27397
G0 F7200 X163.500 Y118.576
G1 F2400 X163.500 Y186.424 E912.09476
G0 F7200 X164.000 Y186.424
G1 F2400 X164.000 Y118.576 E914.91555
G0 F7200 X164.500 Y118.576
G1 F2400 X164.500 Y186.424 E917.73635
G0 F7200 X165.000 Y186.424
G1 F2400 X165.000 Y118.576 E920.55714
G0 F7200 X165.500 Y118.576
G1 F2400 X165.500 Y186.424 E923.37793
G0 F7200 X166.000 Y186.424
G1 F2400 X166.000 Y118.576 E926.19872
G0 F7200 X166.500 Y118.576
G1 F2400 X166.500 Y186.424 E929.01951
G0 F7200 X167.000 Y186.424
G1 F2400 X167.000 Y118.576 E931.84031
G0 F7200 X167.500 Y118.576
G1 F2400 X167.500 Y186.424 E934.66110
G0 F7200 X168.000 Y186.424
G1 F2400 X168.000 Y118.576 E937.48189
G0 F7200 X168.500 Y118.576
G1 F2400 X168.500 Y186.424 E940.30268
G0 F7200 X169.000 Y186.424
G1 F2400 X169.000 Y118.576 E943.12347
G0 F7200 X169.500 Y118.576
G1 F2400 X169.500 Y186.424 E945.94427
G0 F7200 X170.000 Y186.424
G1 F2400 X170.000 Y118.576 E948.76506
G0 F7200 X170.500 Y118.576
G1 F2400 X170.500 Y186.424 E951.58585
G0 F7200 X171.000 Y186.424
G1 F2400 X171.000 Y118.576 E954.40664
G0 F7200 X171.500 Y118.576
G1 F2400 X171.500 Y186.424 E957.22743
G0 F7200 X172.000 Y186.424
G1 F2400 X172.000 Y118.576 E960.04823
G0 F7200 X172.500 Y118.576
G1 F2400 X172.500 Y186.424 E962.86902
G0 F7200 X173.000 Y186.424
G1 F2400 X173.000 Y118.576 E965.68981
G0 F7200 X173.500 Y118.576
G1 F2400 X173.500 Y186.424 E968.51060
G0 F7200 X174.000 Y186.424
G1 F2400 X174.000 Y118.576 E971.33140
G0 F7200 X174.500 Y118.576
G1 F2400 X174.500 Y186.424 E974.15219
G0 F7200 X175.000 Y186.424
G1 F2400 X175.000 Y118.576 E976.97298
G0 F7200 X175.500 Y118.576
G1 F2400 X175.500 Y186.424 E979.79377
G0 F7200 X176.000 Y186.424
G1 F2400 X176.000 Y118.576 E982.61456
G0 F7200 X176.500 Y118.576
G1 F2400 X176.500 Y186.424 E985.43536
;LAYER:3
M106 S30
G0 F7200 X176.850 Y186.599 Z0.800
;TYPE:WALL-INNER
G1 F2640 X128.150 Y186.599 E987.46007
G1 X128.150 Y118.401 E990.29541
G1 X176.850 Y118.401 E992.32012
G1 X176.850 Y186.599 E995.15546
G0 F7200 X177.350 Y187.099
;TYPE:WALL-OUTER
G1 F2640 X127.650 Y187.099 E997.22175
G1 X127.650 Y117.901 E1000.09867
G1 X177.350 Y117.901 E1002.16495
G1 X177.350 Y187.099 E1005.04187
G0 F7200 X176.674 Y186.000
;TYPE:SKIN
G1 F2640 X128.324 Y186.000 E1007.05203
G0 F7200 X128.324 Y185.500
G1 F2640 X176.674 Y185.500 E1009.06219
G0 F7200 X176.674 Y185.000
G1 F2640 X128.324 Y185.000 E1011.07235
G0 F7200 X128.324 Y184.500
G1 F2640 X176.674 Y184.500 E1013.08251
G0 F7200 X176.674 Y184.000
G1 F2640 X128.324 Y184.000 E1015.09267
G0 F7200 X128.324 Y183.500
G1 F2640 X176.674 Y183.500 E1017.10283
G0 F7200 X176.674 Y183.000
G1 F2640 X128.324 Y183.000 E1019.11299
G0 F7200 X128.324 Y182.500
G1 F2640 X176.674 Y182.500 E1021.12315
G0 F7200 X176.674 Y182.000
G1 F2640 X128.324 Y182.000 E1023.13331
G0 F7200 X128.324 Y181.500
G1 F2640 X176.674 Y181.500 E1025.14347
G0 F7200 X176.674 Y181.000
G1 F2640 X128.324 Y181.000 E1027.15363
G0 F7200 X128.324 Y180.500
G1 F2640 X176.674 Y180.500 E1029.16379
G0 F7200 X176.674 Y180.000
G1 F2640 X128.324 Y180.000 E1031.17394
G0 F7200 X128.324 Y179.500
G1 F2640 X176.674 Y179.500 E1033.18410
G0 F7200 X176.674 Y179.000
G1 F2640 X128.324 Y179.000 E1035.19426
G0 F7200 X128.324 Y178.500
G1 F2640 X176.674 Y178.500 E1037.20442
G0 F7200 X176.674 Y178.000
G1 F2640 X128.324 Y178.000 E1039.21458
G0 F7200 X128.324 Y177.500
G1 F2640 X176.674 Y177.500 E1041.22474
G0 F7200 X176.674 Y177.000
G1 F2640 X128.324 Y177.000 E1043.23490
G0 F7200 X128.324 Y176.500
G1 F2640 X176.674 Y176.500 E1045.24506
G0 F7200 X176.674 Y176.000
G1 F2640 X128.324 Y176.000 E1047.25522
G0 F7200 X128.324 Y175.500
G1 F2640 X176.674 Y175.500 E1049.26538
G0 F7200 X176.674 Y175.000
G1 F2640 X128.324 Y175.000 E1051.27554
G0 F7200 X128.324 Y174.500
G1 F2640 X176.674 Y174.500 E1053.28570
G0 F7200 X176.674 Y174.000
G1 F2640 X128.324 Y174.000 E1055.29586
G0 F7200 X128.324 Y173.500
G1 F2640 X176.674 Y173.500 E1057.30602
G0 F7200 X176.674 Y173.000
G1 F2640 X128.324 Y173.000 E1059.31618
G0 F7200 X128.324 Y172.500
G1 F2640 X176.674 Y172.500 E1061.32634
G0 F7200 X176.674 Y172.000
G1 F2640 X128.324 Y172.000 E1063.33650
G0 F7200 X128.324 Y171.500
G1 F2640 X176.674 Y171.500 E1065.34665
G0 F7200 X176.674 Y171.000
G1 F2640 X128.324 Y171.000 E1067.35681
G0 F7200 X128.324 Y170.500
G1 F2640 X176.674 Y170.500 E1069.36697
G0 F7200 X176.674 Y170.000
G1 F2640 X128.324 Y170.000 E1071.37713
G0 F7200 X128.324 Y169.500
G1 F2640 X176.674 Y169.500 E1073.38729
G0 F7200 X176.674 Y169.000
G1 F2640 X128.324 Y169.000 E1075.39745
G0 F7200 X128.324 Y168.500
G1 F2640 X176.674 Y168.500 E1077.40761
G0 F7200 X176.674 Y168.000
G1 F2640 X128.324 Y168.000 E1079.41777
G0 F7200 X128.324 Y167.500
G1 F2640 X176.674 Y167.500 E1081.42793
G0 F7200 X176.674 Y167.000
G1 F2640 X128.324 Y167.000 E1083.43809
G0 F7200 X128.324 Y166.500
G1 F2640 X176.674 Y166.500 E1085.44825
G0 F7200 X176.674 Y166.000
G1 F2640 X128.324 Y166.000 E1087.45841
G0 F7200 X128.324 Y165.500
G1 F2640 X176.674 Y165.500 E1089.46857
G0 F7200 X176.674 Y165.000
G1 F2640 X128.324 Y165.000 E1091.47873
G0 F7200 X128.324 Y164.500
G1 F2640 X176.674 Y164.500 E1093.48889
G0 F7200 X176.674 Y164.000
G1 F2640 X128.324 Y164.000 E1095.49905
G0 F7200 X128.324 Y163.500
G1 F2640 X176.674 Y163.500 E1097.50921
G0 F7200 X176.674 Y163.000
G1 F2640 X128.324 Y163.000 E1099.51936
G0 F7200 X128.324 Y162.500
G1 F2640 X176.674 Y162.500 E1101.52952
G0 F7200 X176.674 Y162.000
G1 F2640 X128.324 Y162.000 E1103.53968
G0 F7200 X128.324 Y161.500
G1 F2640 X176.674 Y161.500 E1105.54984
G0 F7200 X176.674 Y161.000
G1 F2640 X128.324 Y161.000 E1107.56000
G0 F7200 X128.324 Y160.500
G1 F2640 X176.674 Y160.500 E1109.57016
G0 F7200 X176.674 Y160.000
G1 F2640 X128.324 Y160.000 E1111.58032
G0 F7200 X128.324 Y159.500
G1 F2640 X176.674 Y159.500 E1113.59048
G0 F7200 X176.674 Y159.000
G1 F2640 X128.324 Y159.000 E1115.60064
G0 F7200 X128.324 Y158.500
G1 F2640 X176.674 Y158.500 E1117.61080
G0 F7200 X176.674 Y158.000
G1 F2640 X128.324 Y158.000 E1119.62096
G0 F7200 X128.324 Y157.500
G1 F2640 X176.674 Y157.500 E1121.63112
G0 F7200 X176.674 Y157.000
G1 F2640 X128.324 Y157.000 E1123.64128
G0 F7200 X128.324 Y156.500
G1 F2640 X176.674 Y156.500 E1125.65144
G0 F7200 X176.674 Y156.000
G1 F2640 X128.324 Y156.000 E1127.66160
G0 F7200 X128.324 Y155.500
G1 F2640 X176.674 Y155.500 E1129.67176
G0 F7200 X176.674 Y155.000
G1 F2640 X128.324 Y155.000 E1131.68192
G0 F7200 X128.324 Y154.500
G1 F2640 X176.674 Y154.500 E1133.69207
G0 F7200 X176.674 Y154.000
G1 F2640 X128.324 Y154.000 E1135.70223
G0 F7200 X128.324 Y153.500
G1 F2640 X176.674 Y153.500 E1137.71239
G0 F7200 X176.674 Y153.000
G1 F2640 X128.324 Y153.000 E1139.72255
G0 F7200 X128.324 Y152.500
G1 F2640 X176.674 Y152.500 E1141.73271
G0 F7200 X176.674 Y152.000
G1 F2640 X128.324 Y152.000 E1143.74287
G0 F7200 X128.324 Y151.500
G1 F2640 X176.674 Y151.500 E1145.75303
G0 F7200 X176.674 Y151.000
G1 F2640 X128.324 Y151.000 E1147.76319
G0 F7200 X128.324 Y150.500
G1 F2640 X176.674 Y150.500 E1149.77335
G0 F7200 X176.674 Y150.000
G1 F2640 X128.324 Y150.000 E1151.78351
G0 F7200 X128.324 Y149.500
G1 F2640 X176.674 Y149.500 E1153.79367
G0 F7200 X176.674 Y149.000
G1 F2640 X128.324 Y149.000 E1155.80383
G0 F7200 X128.324 Y148.500
G1 F2640 X176.674 Y148.500 E1157.81399
G0 F7200 X176.674 Y148.000
G1 F2640 X128.324 Y148.000 E1159.82415
G0 F7200 X128.324 Y147.500
G1 F2640 X176.674 Y147.500 E1161.83431
G0 F7200 X176.674 Y147.000
G1 F2640 X128.324 Y147.000 E1163.84447
G0 F7200 X128.324 Y146.500
G1 F2640 X176.674 Y146.500 E1165.85463
G0 F7200 X176.674 Y146.000
G1 F2640 X128.324 Y146.000 E1167.86478
G0 F7200 X128.324 Y145.500
G1 F2640 X176.674 Y145.500 E1169.87494
G0 F7200 X176.674 Y145.000
G1 F2640 X128.324 Y145.000 E1171.88510
G0 F7200 X128.324 Y144.500
G1 F2640 X176.674 Y144.500 E1173.89526
G0 F7200 X176.674 Y144.000
G1 F2640 X128.324 Y144.000 E1175.90542
G0 F7200 X128.324 Y143.500
G1 F2640 X176.674 Y143.500 E1177.91558
G0 F7200 X176.674 Y143.000
G1 F2640 X128.324 Y143.000 E1179.92574
G0 F7200 X128.324 Y142.500
G1 F2640 X176.674 Y142.500 E1181.93590
G0 F7200 X176.674 Y142.000
G1 F2640 X128.324 Y142.000 E1183.94606
G0 F7200 X128.324 Y141.500
G1 F2640 X176.674 Y141.500 E1185.95622
G0 F7200 X176.674 Y141.000
G1 F2640 X128.324 Y141.000 E1187.96638
G0 F7200 X128.324 Y140.500
G1 F2640 X176.674 Y140.500 E1189.97654
G0 F7200 X176.674 Y140.000
G1 F2640 X128.324 Y140.000 E1191.98670
G0 F7200 X128.324 Y139.500
G1 F2640 X176.674 Y139.500 E1193.99686
G0 F7200 X176.674 Y139.000
G1 F2640 X128.324 Y139.000 E1196.00702
G0 F7200 X128.324 Y138.500
G1 F2640 X176.674 Y138.500 E1198.01718
G0 F7200 X176.674 Y138.000
G1 F2640 X128.324 Y138.000 E1200.02734
G0 F7200 X128.324 Y137.500
G1 F2640 X176.674 Y137.500 E1202.03749
G0 F7200 X176.674 Y137.000
G1 F2640 X128.324 Y137.000 E1204.04765
G0 F7200 X128.324 Y136.500
G1 F2640 X176.674 Y136.500 E1206.05781
G0 F7200 X176.674 Y136.000
G1 F2640 X128.324 Y136.000 E1208.06797
G0 F7200 X128.324 Y135.500
G1 F2640 X176.674 Y135.500 E1210.07813
G0 F7200 X176.674 Y135.000
G1 F2640 X128.324 Y135.000 E1212.08829
G0 F7200 X128.324 Y134.500
G1 F2640 X176.674 Y134.500 E1214.09845
G0 F7200 X176.674 Y134.000
G1 F2640 X128.324 Y134.000 E1216.10861
G0 F7200 X128.324 Y133.500
G1 F2640 X176.674 Y133.500 E1218.11877
G0 F7200 X176.674 Y133.000
G1 F2640 X128.324 Y133.000 E1220.12893
G0 F7200 X128.324 Y132.500
G1 F2640 X176.674 Y132.500 E1222.13909
G0 F7200 X176.674 Y132.000
G1 F2640 X128.324 Y132.000 E1224.14925
G0 F7200 X128.324 Y131.500
G1 F2640 X176.674 Y131.500 E1226.15941
G0 F7200 X176.674 Y131.000
G1 F2640 X128.324 Y131.000 E1228.16957
G0 F7200 X128.324 Y130.500
G1 F2640 X176.674 Y130.500 E1230.17973
G0 F7200 X176.674 Y130.000
G1 F2640 X128.324 Y130.000 E1232.18989
G0 F7200 X128.324 Y129.500
G1 F2640 X176.674 Y129.500 E1234.20005
G0 F7200 X176.674 Y129.000
G1 F2640 X128.324 Y129.000 E1236.21020
G0 F7200 X128.324 Y128.500
G1 F2640 X176.674 Y128.500 E1238.22036
G0 F7200 X176.674 Y128.000
G1 F2640 X128.324 Y128.000 E1240.23052
G0 F7200 X128.324 Y127.500
G1 F2640 X176.674 Y127.500 E1242.24068
G0 F7200 X176.674 Y127.000
G1 F2640 X128.324 Y127.000 E1244.25084
G0 F7200 X128.324 Y126.500
G1 F2640 X176.674 Y126.500 E1246.26100
G0 F7200 X176.674 Y126.000
G1 F2640 X128.324 Y126.000 E1248.27116
G0 F7200 X128.324 Y125.500
G1 F2640 X176.674 Y125.500 E1250.28132
G0 F7200 X176.674 Y125.000
G1 F2640 X128.324 Y125.000 E1252.29148
G0 F7200 X128.324 Y124.500
G1 F2640 X176.674 Y124.500 E1254.30164
G0 F7200 X176.674 Y124.000
G1 F2640 X128.324 Y124.000 E1256.31180
G0 F7200 X128.324 Y123.500
G1 F2640 X176.674 Y123.500 E1258.32196
G0 F7200 X176.674 Y123.000
G1 F2640 X128.324 Y123.000 E1260.33212
G0 F7200 X128.324 Y122.500
G1 F2640 X176.674 Y122.500 E1262.34228
G0 F7200 X176.674 Y122.000
G1 F2640 X128.324 Y122.000 E1264.35244
G0 F7200 X128.324 Y121.500
G1 F2640 X176.674 Y121.500 E1266.36260
G0 F7200 X176.674 Y121.000
G1 F2640 X128.324 Y121.000 E1268.37276
G0 F7200 X128.324 Y120.500
G1 F2640 X176.674 Y120.500 E1270.38291
G0 F7200 X176.674 Y120.000
G1 F2640 X128.324 Y120.000 E1272.39307
G0 F7200 X128.324 Y119.500
G1 F2640 X176.674 Y119.500 E1274.40323
G0 F7200 X176.674 Y119.000
G1 F2640 X128.324 Y119.000 E1276.41339
;LAYER:4
M106 S40
G0 F7200 X128.150 Y118.401 Z1.000
;TYPE:WALL-INNER
G1 F3000 X176.850 Y118.401 E1278.43810
G1 X176.850 Y186.599 E1281.27345
G1 X128.150 Y186.599 E1283.29816
G1 X128.150 Y118.401 E1286.13350
G0 F7200 X127.650 Y117.901
;TYPE:WALL-OUTER
G1 F3000 X177.350 Y117.901 E1288.19979
G1 X177.350 Y187.099 E1291.07671
G1 X127.650 Y187.099 E1293.14299
G1 X127.650 Y117.901 E1296.01991
G1 F2100 E1295.61991
G0 F7200 X128.324 Y124.609
;TYPE:FILL
G1 F2100 E1296.01991
G1 F3000 X138.775 Y118.575 E1296.52163
G0 F7200 X138.882 Y118.575
G1 F3000 X176.675 Y140.395 E1298.33596
G1 F2100 E1297.93596
G0 F7200 X176.674 Y141.967
G1 F2100 E1298.33596
G1 F3000 X128.324 Y169.882 E1300.65709
G0 F7200 X128.324 Y169.071
G1 F3000 X158.378 Y186.423 E1302.09990
G0 F7200 X158.486 Y186.424
G1 F3000 X176.674 Y175.923 E1302.97305
G1 F2100 E1302.57305
G0 F7200 X176.675 Y174.350
G1 F2100 E1302.97305
G1 F3000 X128.323 Y146.434 E1305.29428
G0 F7200 X128.324 Y147.246
G1 F3000 X176.674 Y119.331 E1307.61541
G0 F7200 X176.626 Y118.576
G1 F3000 X176.626 Y186.424 E1310.43621
G0 F7200 X176.675 Y185.668
G1 F3000 X128.323 Y157.752 E1312.75743
G0 F7200 X128.324 Y158.564
G1 F3000 X176.674 Y130.649 E1315.07857
G1 F2100 E1314.67857
G0 F7200 X176.675 Y129.076
G1 F2100 E1315.07857
G1 F3000 X158.487 Y118.575 E1315.95172
G0 F7200 X158.378 Y118.575
G1 F3000 X128.324 Y135.927 E1317.39452
G0 F7200 X128.324 Y135.116
G1 F3000 X176.676 Y163.032 E1319.71575
G1 F2100 E1319.31575
G0 F7200 X176.674 Y164.604
G1 F2100 E1319.71575
G1 F3000 X138.881 Y186.424 E1321.53008
G0 F7200 X138.774 Y186.423
G1 F3000 X128.324 Y180.389 E1322.03177
G0 F7200 X128.324 Y181.200
G1 F3000 X176.674 Y153.286 E1324.35288
G1 F2100 E1323.95288
G0 F7200 X176.675 Y151.713
G1 F2100 E1324.35288
G1 F3000 X128.324 Y123.797 E1326.67407
G1 F2100 E1326.27407
G0 F7200 X137.418 Y118.576
G1 F2100 E1326.67407
G1 F3000 X137.418 Y186.424 E1329.49486
G1 F2100 E1329.09486
G0 F7200 X147.220 Y186.424
G1 F2100 E1329.49486
G1 F3000 X147.220 Y118.576 E1332.31566
G1 F2100 E1331.91566
G0 F7200 X157.022 Y118.576
G1 F2100 E1332.31566
G1 F3000 X157.022 Y186.424 E1335.13645
G1 F2100 E1334.73645
G0 F7200 X166.824 Y186.424
G1 F2100 E1335.13645
G1 F3000 X166.824 Y118.576 E1337.95724
;LAYER:5
M106 S51
G1 F2100 E1337.55724
G0 F7200 X176.850 Y118.401 Z1.200
;TYPE:WALL-INNER
G1 F2100 E1337.95724
G1 F3000 X176.850 Y186.599 E1340.79258
G1 X128.150 Y186.599 E1342.81729
G1 X128.150 Y118.401 E1345.65264
G1 X176.850 Y118.401 E1347.67735
G0 F7200 X177.350 Y117.901
;TYPE:WALL-OUTER
G1 F3000 X177.350 Y187.099 E1350.55427
G1 X127.650 Y187.099 E1352.62055
G1 X127.650 Y117.901 E1355.49747
G1 X177.350 Y117.901 E1357.56376
G0 F7200 X176.485 Y118.576
;TYPE:FILL
G1 F3000 X176.485 Y186.424 E1360.38455
G0 F7200 X176.676 Y185.506
G1 F3000 X128.324 Y157.590 E1362.70578
G0 F7200 X128.324 Y158.727
G1 F3000 X176.674 Y130.812 E1365.02691
G1 F2100 E1364.62691
G0 F7200 X176.675 Y128.914
G1 F2100 E1365.02691
G1 F3000 X158.769 Y118.575 E1365.88654
G0 F7200 X158.661 Y118.575
G1 F3000 X128.324 Y136.090 E1367.34292
G0 F7200 X128.324 Y134.953
G1 F3000 X176.675 Y162.869 E1369.66412
G1 F2100 E1369.26412
G0 F7200 X176.674 Y164.767
G1 F2100 E1369.66412
G1 F3000 X139.163 Y186.424 E1371.46490
G0 F7200 X139.056 Y186.423
G1 F3000 X128.323 Y180.226 E1371.98017
G0 F7200 X128.324 Y181.364
G1 F3000 X176.674 Y153.449 E1374.30130
G1 F2100 E1373.90130
G0 F7200 X176.675 Y151.550
G1 F2100 E1374.30130
G1 F3000 X128.323 Y123.634 E1376.62253
G0 F7200 X128.324 Y124.772
G1 F3000 X139.056 Y118.575 E1377.13776
G0 F7200 X139.164 Y118.575
G1 F3000 X176.675 Y140.232 E1378.93854
G1 F2100 E1378.53854
G0 F7200 X176.674 Y142.130
G1 F2100 E1378.93854
G1 F3000 X128.324 Y170.045 E1381.25968
G0 F7200 X128.323 Y168.908
G1 F3000 X158.660 Y186.423 E1382.71606
G0 F7200 X158.767 Y186.424
G1 F3000 X176.674 Y176.085 E1383.57573
G1 F2100 E1383.17573
G0 F7200 X176.675 Y174.187
G1 F2100 E1383.57573
G1 F3000 X128.324 Y146.271 E1385.89692
G0 F7200 X128.324 Y147.408
G1 F3000 X176.674 Y119.493 E1388.21805
G1 F2100 E1387.81805
G0 F7200 X166.683 Y118.576
G1 F2100 E1388.21805
G1 F3000 X166.683 Y186.424 E1391.03884
G1 F2100 E1390.63884
G0 F7200 X156.881 Y186.424
G1 F2100 E1391.03884
G1 F3000 X156.881 Y118.576 E1393.85964
G1 F2100 E1393.45964
G0 F7200 X147.079 Y118.576
G1 F2100 E1393.85964
G1 F3000 X147.079 Y186.424 E1396.68043
G1 F2100 E1396.28043
G0 F7200 X137.277 Y186.424
G1 F2100 E1396.68043
G1 F3000 X137.277 Y118.576 E1399.50122
;LAYER:6
M106 S63
G1 F2100 E1399.10122
G0 F7200 X128.150 Y118.401 Z1.400
;TYPE:WALL-INNER
G1 F2100 E1399.50122
G1 F3000 X176.850 Y118.401 E1401.52593
G1 X176.850 Y186.599 E1404.36127
G1 X128.150 Y186.599 E1406.38598
G1 X128.150 Y118.401 E1409.22133
G0 F7200 X127.650 Y117.901
;TYPE:WALL-OUTER
G1 F3000 X177.350 Y117.901 E1411.28761
G1 X177.350 Y187.099 E1414.16453
G1 X127.650 Y187.099 E1416.23082
G1 X127.650 Y117.901 E1419.10774
G1 F2100 E1418.70774
G0 F7200 X128.324 Y124.936
;TYPE:FILL
G1 F2100 E1419.10774
G1 F3000 X139.340 Y118.575 E1419.63660
G0 F7200 X139.448 Y118.575
G1 F3000 X176.675 Y140.068 E1421.42375
G1 F2100 E1421.02375
G0 F7200 X176.674 Y142.294
G1 F2100 E1421.42375
G1 F3000 X128.324 Y170.209 E1423.74489
G0 F7200 X128.323 Y168.744
G1 F3000 X158.944 Y186.423 E1425.21490
G0 F7200 X159.051 Y186.424
G1 F3000 X176.674 Y176.249 E1426.06094
G1 F2100 E1425.66094
G0 F7200 X176.675 Y174.023
G1 F2100 E1426.06094
G1 F3000 X128.324 Y146.107 E1428.38213
G0 F7200 X128.324 Y147.572
G1 F3000 X176.674 Y119.657 E1430.70326
G0 F7200 X176.343 Y118.576
G1 F3000 X176.343 Y186.424 E1433.52405
G0 F7200 X176.676 Y185.342
G1 F3000 X128.324 Y157.426 E1435.84528
G0 F7200 X128.324 Y158.890
G1 F3000 X176.674 Y130.976 E1438.16639
G1 F2100 E1437.76639
G0 F7200 X176.675 Y128.750
G1 F2100 E1438.16639
G1 F3000 X159.053 Y118.575 E1439.01239
G0 F7200 X158.945 Y118.575
G1 F3000 X128.324 Y136.254 E1440.48241
G0 F7200 X128.324 Y134.789
G1 F3000 X176.675 Y162.705 E1442.80360
G1 F2100 E1442.40360
G0 F7200 X176.674 Y164.931
G1 F2100 E1442.80360
G1 F3000 X139.447 Y186.424 E1444.59075
G0 F7200 X139.340 Y186.423
G1 F3000 X128.323 Y180.062 E1445.11965
G0 F7200 X128.324 Y181.528
G1 F3000 X176.674 Y153.613 E1447.44078
G1 F2100 E1447.04078
G0 F7200 X176.675 Y151.386
G1 F2100 E1447.44078
G1 F3000 X128.323 Y123.470 E1449.76201
G1 F2100 E1449.36201
G0 F7200 X137.135 Y118.576
G1 F2100 E1449.76201
G1 F3000 X137.135 Y186.424 E1452.58280
G1 F2100 E1452.18280
G0 F7200 X146.937 Y186.424
G1 F2100 E1452.58280
G1 F3000 X146.937 Y118.576 E1455.40360
G1 F2100 E1455.00360
G0 F7200 X156.739 Y118.576
G1 F2100 E1455.40360
G1 F3000 X156.739 Y186.424 E1458.22439
G1 F2100 E1457.82439
G0 F7200 X166.541 Y186.424
G1 F2100 E1458.22439
G1 F3000 X166.541 Y118.576 E1461.04518
;LAYER:7
M106 S73
G1 F2100 E1460.64518
G0 F7200 X176.850 Y118.401 Z1.600
;TYPE:WALL-INNER
G1 F2100 E1461.04518
G1 F3000 X176.850 Y186.599 E1463.88052
G1 X128.150 Y186.599 E1465.90523
G1 X128.150 Y118.401 E1468.74058
G1 X176.850 Y118.401 E1470.76529
G0 F7200 X177.350 Y117.901
;TYPE:WALL-OUTER
G1 F3000 X177.350 Y187.099 E1473.64221
G1 X127.650 Y187.099 E1475.70849
G1 X127.650 Y117.901 E1478.58541
G1 X177.350 Y117.901 E1480.65170
G0 F7200 X176.202 Y118.576
;TYPE:FILL
G1 F3000 X176.202 Y186.424 E1483.47249
G0 F7200 X176.675 Y185.179
G1 F3000 X128.324 Y157.263 E1485.79368
G1 F2100 E1485.39368
G0 F7200 X128.324 Y159.054
G1 F2100 E1485.79368
G1 F3000 X176.674 Y131.139 E1488.11481
G1 F2100 E1487.71481
G0 F7200 X176.675 Y128.587
G1 F2100 E1488.11481
G1 F3000 X159.335 Y118.575 E1488.94727
G0 F7200 X159.227 Y118.575
G1 F3000 X128.324 Y136.417 E1490.43083
G1 F2100 E1490.03083
G0 F7200 X128.323 Y134.626
G1 F2100 E1490.43083
G1 F3000 X176.675 Y162.542 E1492.75206
G1 F2100 E1492.35206
G0 F7200 X176.674 Y165.094
G1 F2100 E1492.75206
G1 F3000 X139.730 Y186.423 E1494.52561
G0 F7200 X139.622 Y186.423
G1 F3000 X128.324 Y179.900 E1495.06799
G1 F2100 E1494.66799
G0 F7200 X128.324 Y170.372
G1 F2100 E1495.06799
G1 F3000 X176.674 Y142.457 E1497.38913
G1 F2100 E1496.98913
G0 F7200 X176.675 Y151.224
G1 F2100 E1497.38913
G1 F3000 X128.324 Y123.308 E1499.71032
G1 F2100 E1499.31032
G0 F7200 X128.324 Y125.098
G1 F2100 E1499.71032
G1 F3000 X139.622 Y118.575 E1500.25270
G0 F7200 X139.731 Y118.575
G1 F3000 X176.675 Y139.905 E1502.02628
G1 F2100 E1501.62628
G0 F7200 X176.674 Y153.775
G1 F2100 E1502.02628
G1 F3000 X128.324 Y181.690 E1504.34741
G1 F2100 E1503.94741
G0 F7200 X136.994 Y186.424
G1 F2100 E1504.34741
G1 F3000 X136.994 Y118.576 E1507.16820
G1 F2100 E1506.76820
G0 F7200 X146.796 Y118.576
G1 F2100 E1507.16820
G1 F3000 X146.796 Y186.424 E1509.98899
G1 F2100 E1509.58899
G0 F7200 X156.598 Y186.424
G1 F2100 E1509.98899
G1 F3000 X156.598 Y118.576 E1512.80979
G1 F2100 E1512.40979
G0 F7200 X166.400 Y118.576
G1 F2100 E1512.80979
G1 F3000 X166.400 Y186.424 E1515.63058
G1 F2100 E1515.23058
G0 F7200 X159.333 Y186.424
G1 F2100 E1515.63058
G1 F3000 X176.674 Y176.412 E1516.46307
G1 F2100 E1516.06307
G0 F7200 X176.675 Y173.860
G1 F2100 E1516.46307
G1 F3000 X128.323 Y145.944 E1518.78430
G1 F2100 E1518.38430
G0 F7200 X128.324 Y147.735
G1 F2100 E1518.78430
G1 F3000 X176.674 Y119.820 E1521.10543
G1 F2100 E1520.70543
G0 F7200 X128.324 Y168.581
G1 F2100 E1521.10543
G1 F3000 X159.226 Y186.423 E1522.58895
;LAYER:8
M106 S84
G1 F2100 E1522.18895
G0 F7200 X176.850 Y186.599 Z1.800
;TYPE:WALL-INNER
G1 F2100 E1522.58895
G1 F3000 X128.150 Y186.599 E1524.61366
G1 X128.150 Y118.401 E1527.44901
G1 X176.850 Y118.401 E1529.47372
G1 X176.850 Y186.599 E1532.30906
G0 F7200 X177.350 Y187.099
;TYPE:WALL-OUTER
G1 F3000 X127.650 Y187.099 E1534.37535
G1 X127.650 Y117.901 E1537.25227
G1 X177.350 Y117.901 E1539.31855
G1 X177.350 Y187.099 E1542.19547
G0 F7200 X176.060 Y186.424
;TYPE:FILL
G1 F3000 X176.060 Y118.576 E1545.01626
G1 F2100 E1544.61626
G0 F7200 X176.674 Y119.984
G1 F2100 E1545.01626
G1 F3000 X128.324 Y147.899 E1547.33740
G1 F2100 E1546.93740
G0 F7200 X128.323 Y145.780
G1 F2100 E1547.33740
G1 F3000 X176.675 Y173.696 E1549.65862
G1 F2100 E1549.25862
G0 F7200 X176.674 Y176.576
G1 F2100 E1549.65862
G1 F3000 X159.617 Y186.424 E1550.47748
G0 F7200 X159.510 Y186.423
G1 F3000 X128.324 Y168.417 E1551.97464
G1 F2100 E1551.57464
G0 F7200 X128.324 Y170.536
G1 F2100 E1551.97464
G1 F3000 X176.674 Y142.621 E1554.29577
G1 F2100 E1553.89577
G0 F7200 X176.675 Y151.060
G1 F2100 E1554.29577
G1 F3000 X128.324 Y123.144 E1556.61696
G1 F2100 E1556.21696
G0 F7200 X128.324 Y125.262
G1 F2100 E1556.61696
G1 F3000 X139.906 Y118.575 E1557.17298
G1 F2100 E1556.77298
G0 F7200 X136.852 Y118.576
G1 F2100 E1557.17298
G1 F3000 X136.852 Y186.424 E1559.99377
G1 F2100 E1559.59377
G0 F7200 X139.906 Y186.423
G1 F2100 E1559.99377
G1 F3000 X128.324 Y179.736 E1560.54979
G1 F2100 E1560.14979
G0 F7200 X128.324 Y181.854
G1 F2100 E1560.54979
G1 F3000 X176.674 Y153.939 E1562.87093
G1 F2100 E1562.47093
G0 F7200 X176.675 Y162.378
G1 F2100 E1562.87093
G1 F3000 X128.323 Y134.462 E1565.19215
G1 F2100 E1564.79215
G0 F7200 X128.324 Y136.581
G1 F2100 E1565.19215
G1 F3000 X159.511 Y118.575 E1566.68935
G0 F7200 X159.619 Y118.575
G1 F3000 X176.675 Y128.423 E1567.50817
G1 F2100 E1567.10817
G0 F7200 X176.674 Y131.303
G1 F2100 E1567.50817
G1 F3000 X128.324 Y159.218 E1569.82930
G1 F2100 E1569.42930
G0 F7200 X128.324 Y157.099
G1 F2100 E1569.82930
G1 F3000 X176.675 Y185.015 E1572.15049
G1 F2100 E1571.75049
G0 F7200 X166.258 Y186.424
G1 F2100 E1572.15049
G1 F3000 X166.258 Y118.576 E1574.97129
G1 F2100 E1574.57129
G0 F7200 X156.456 Y118.576
G1 F2100 E1574.97129
G1 F3000 X156.456 Y186.424 E1577.79208
G1 F2100 E1577.39208
G0 F7200 X146.654 Y186.424
G1 F2100 E1577.79208
G1 F3000 X146.654 Y118.576 E1580.61287
G1 F2100 E1580.21287
G0 F7200 X140.014 Y118.575
G1 F2100 E1580.61287
G1 F3000 X176.675 Y139.741 E1582.37285
G1 F2100 E1581.97285
G0 F7200 X176.674 Y165.258
G1 F2100 E1582.37285
G1 F3000 X140.013 Y186.424 E1584.13282
;LAYER:9
M106 S94
G1 F2100 E1583.73282
G0 F7200 X128.150 Y186.599 Z2.000
;TYPE:WALL-INNER
G1 F2100 E1584.13282
G1 F3000 X128.150 Y118.401 E1586.96816
G1 X176.850 Y118.401 E1588.99287
G1 X176.850 Y186.599 E1591.82822
G1 X128.150 Y186.599 E1593.85293
G0 F7200 X127.650 Y187.099
;TYPE:WALL-OUTER
G1 F3000 X127.650 Y117.901 E1596.72985
G1 X177.350 Y117.901 E1598.79613
G1 X177.350 Y187.099 E1601.67305
G1 X127.650 Y187.099 E1603.73934
G1 F2100 E1603.33934
G0 F7200 X128.324 Y182.018
;TYPE:FILL
G1 F2100 E1603.73934
G1 F3000 X176.674 Y154.103 E1606.06047
G1 F2100 E1605.66047
G0 F7200 X176.675 Y150.896
G1 F2100 E1606.06047
G1 F3000 X128.324 Y122.980 E1608.38166
G1 F2100 E1607.98166
G0 F7200 X128.324 Y125.426
G1 F2100 E1608.38166
G1 F3000 X140.190 Y118.575 E1608.95132
G0 F7200 X140.298 Y118.575
G1 F3000 X176.675 Y139.577 E1610.69766
G1 F2100 E1610.29766
G0 F7200 X176.674 Y131.467
G1 F2100 E1610.69766
G1 F3000 X128.324 Y159.382 E1613.01879
G1 F2100 E1612.61879
G0 F7200 X128.324 Y156.935
G1 F2100 E1613.01879
G1 F3000 X176.675 Y184.851 E1615.33998
G1 F2100 E1614.93998
G0 F7200 X175.918 Y186.424
G1 F2100 E1615.33998
G1 F3000 X175.918 Y118.576 E1618.16077
G1 F2100 E1617.76077
G0 F7200 X166.116 Y118.576
G1 F2100 E1618.16077
G1 F3000 X166.116 Y186.424 E1620.98157
G1 F2100 E1620.58157
G0 F7200 X159.901 Y186.424
G1 F2100 E1620.98157
G1 F3000 X176.674 Y176.740 E1621.78679
G1 F2100 E1621.38679
G0 F7200 X176.675 Y173.532
G1 F2100 E1621.78679
G1 F3000 X128.323 Y145.616 E1624.10802
G1 F2100 E1623.70802
G0 F7200 X128.324 Y148.063
G1 F2100 E1624.10802
G1 F3000 X176.674 Y120.148 E1626.42915
G1 F2100 E1626.02915
G0 F7200 X176.675 Y128.259
G1 F2100 E1626.42915
G1 F3000 X159.903 Y118.575 E1627.23434
G0 F7200 X159.795 Y118.575
G1 F3000 X128.324 Y136.744 E1628.74514
G1 F2100 E1628.34514
G0 F7200 X128.323 Y134.298
G1 F2100 E1628.74514
G1 F3000 X176.675 Y162.214 E1631.06637
G1 F2100 E1630.66637
G0 F7200 X176.674 Y165.422
G1 F2100 E1631.06637
G1 F3000 X140.297 Y186.424 E1632.81271
G0 F7200 X140.190 Y186.423
G1 F3000 X128.324 Y179.572 E1633.38236
G1 F2100 E1632.98236
G0 F7200 X128.324 Y170.700
G1 F2100 E1633.38236
G1 F3000 X176.674 Y142.785 E1635.70350
G1 F2100 E1635.30350
G0 F7200 X156.314 Y118.576
G1 F2100 E1635.70350
G1 F3000 X156.314 Y186.424 E1638.52429
G1 F2100 E1638.12429
G0 F7200 X159.794 Y186.423
G1 F2100 E1638.52429
G1 F3000 X128.324 Y168.253 E1640.03508
G1 F2100 E1639.63508
G0 F7200 X136.710 Y186.424
G1 F2100 E1640.03508
G1 F3000 X136.710 Y118.576 E1642.85587
G1 F2100 E1642.45587
G0 F7200 X146.512 Y118.576
G1 F2100 E1642.85587
G1 F3000 X146.512 Y186.424 E1645.67667
;LAYER:10
M106 S104
G1 F2100 E1645.27667
G0 F7200 X128.150 Y186.599 Z2.200
;TYPE:WALL-INNER
G1 F2100 E1645.67667
G1 F3000 X128.150 Y118.401 E1648.51201
G1 X176.850 Y118.401 E1650.53672
G1 X176.850 Y186.599 E1653.37206
G1 X128.150 Y186.599 E1655.39677
G0 F7200 X127.650 Y187.099
;TYPE:WALL-OUTER
G1 F3000 X127.650 Y117.901 E1658.27369
G1 X177.350 Y117.901 E1660.33998
G1 X177.350 Y187.099 E1663.21690
G1 X127.650 Y187.099 E1665.28318
G1 F2100 E1664.88318
G0 F7200 X128.324 Y182.181
;TYPE:FILL
G1 F2100 E1665.28318
G1 F3000 X176.674 Y154.266 E1667.60432
G1 F2100 E1667.20432
G0 F7200 X176.675 Y150.733
G1 F2100 E1667.60432
G1 F3000 X128.324 Y122.817 E1669.92551
G1 F2100 E1669.52551
G0 F7200 X128.324 Y125.589
G1 F2100 E1669.92551
G1 F3000 X140.472 Y118.575 E1670.50870
G0 F7200 X140.581 Y118.575
G1 F3000 X176.675 Y139.414 E1672.24147
G1 F2100 E1671.84147
G0 F7200 X176.674 Y131.629
G1 F2100 E1672.24147
G1 F3000 X128.324 Y159.544 E1674.56260
G1 F2100 E1674.16260
G0 F7200 X128.323 Y156.772
G1 F2100 E1674.56260
G1 F3000 X176.675 Y184.688 E1676.88383
G1 F2100 E1676.48383
G0 F7200 X175.777 Y186.424
G1 F2100 E1676.88383
G1 F3000 X175.777 Y118.576 E1679.70462
G1 F2100 E1679.30462
G0 F7200 X176.675 Y128.096
G1 F2100 E1679.70462
G1 F3000 X160.185 Y118.576 E1680.49624
G0 F7200 X160.077 Y118.575
G1 F3000 X128.324 Y136.908 E1682.02061
G1 F2100 E1681.62061
G0 F7200 X128.324 Y134.135
G1 F2100 E1682.02061
G1 F3000 X176.675 Y162.051 E1684.34181
G1 F2100 E1683.94181
G0 F7200 X176.674 Y165.584
G1 F2100 E1684.34181
G1 F3000 X140.580 Y186.423 E1686.07457
G0 F7200 X140.472 Y186.423
G1 F3000 X128.324 Y179.409 E1686.65776
G1 F2100 E1686.25776
G0 F7200 X128.324 Y170.862
G1 F2100 E1686.65776
G1 F3000 X176.674 Y142.948 E1688.97888
G1 F2100 E1688.57888
G0 F7200 X176.674 Y120.311
G1 F2100 E1688.97888
G1 F3000 X128.324 Y148.226 E1691.30001
G1 F2100 E1690.90001
G0 F7200 X128.324 Y145.454
G1 F2100 E1691.30001
G1 F3000 X176.675 Y173.370 E1693.62120
G1 F2100 E1693.22120
G0 F7200 X176.674 Y176.903
G1 F2100 E1693.62120
G1 F3000 X160.184 Y186.423 E1694.41282
G0 F7200 X160.076 Y186.423
G1 F3000 X128.323 Y168.090 E1695.93720
G1 F2100 E1695.53720
G0 F7200 X136.569 Y186.424
G1 F2100 E1695.93720
G1 F3000 X136.569 Y118.576 E1698.75799
G1 F2100 E1698.35799
G0 F7200 X146.371 Y118.576
G1 F2100 E1698.75799
G1 F3000 X146.371 Y186.424 E1701.57878
G1 F2100 E1701.17878
G0 F7200 X156.173 Y186.424
G1 F2100 E1701.57878
G1 F3000 X156.173 Y118.576 E1704.39957
G1 F2100 E1703.99957
G0 F7200 X165.975 Y118.576
G1 F2100 E1704.39957
G1 F3000 X165.975 Y186.424 E1707.22036
;LAYER:11
M106 S114
G1 F2100 E1706.82036
G0 F7200 X176.850 Y186.599 Z2.400
;TYPE:WALL-INNER
G1 F2100 E1707.22036
G1 F3000 X128.150 Y186.599 E1709.24507
G1 X128.150 Y118.401 E1712.08042
G1 X176.850 Y118.401 E1714.10513
G1 X176.850 Y186.599 E1716.94047
G0 F7200 X177.350 Y187.099
;TYPE:WALL-OUTER
G1 F3000 X127.650 Y187.099 E1719.00676
G1 X127.650 Y117.901 E1721.88368
G1 X177.350 Y117.901 E1723.94996
G1 X177.350 Y187.099 E1726.82688
G1 F2100 E1726.42688
G0 F7200 X175.635 Y186.424
;TYPE:FILL
G1 F2100 E1726.82688
G1 F3000 X175.635 Y118.576 E1729.64767
G1 F2100 E1729.24767
G0 F7200 X176.675 Y127.932
G1 F2100 E1729.64767
G1 F3000 X160.468 Y118.575 E1730.42572
G0 F7200 X160.361 Y118.575
G1 F3000 X128.324 Y137.072 E1731.96372
G1 F2100 E1731.56372
G0 F7200 X128.324 Y133.971
G1 F2100 E1731.96372
G1 F3000 X176.675 Y161.887 E1734.28491
G1 F2100 E1733.88491
G0 F7200 X176.674 Y165.748
G1 F2100 E1734.28491
G1 F3000 X140.864 Y186.423 E1736.00404
G0 F7200 X140.756 Y186.423
G1 F3000 X128.324 Y179.245 E1736.60087
G1 F2100 E1736.20087
G0 F7200 X128.324 Y171.026
G1 F2100 E1736.60087
G1 F3000 X176.674 Y143.112 E1738.92198
G1 F2100 E1738.52198
G0 F7200 X176.675 Y150.569
G1 F2100 E1738.92198
G1 F3000 X128.324 Y122.653 E1741.24318
G1 F2100 E1740.84318
G0 F7200 X128.324 Y125.753
G1 F2100 E1741.24318
G1 F3000 X140.756 Y118.575 E1741.84001
G0 F7200 X140.865 Y118.575
G1 F3000 X176.675 Y139.250 E1743.55913
G1 F2100 E1743.15913
G0 F7200 X176.674 Y131.793
G1 F2100 E1743.55913
G1 F3000 X128.324 Y159.708 E1745.88027
G1 F2100 E1745.48027
G0 F7200 X128.323 Y156.608
G1 F2100 E1745.88027
G1 F3000 X176.675 Y184.524 E1748.20149
G1 F2100 E1747.80149
G0 F7200 X176.674 Y177.067
G1 F2100 E1748.20149
G1 F3000 X160.467 Y186.424 E1748.97954
G0 F7200 X160.360 Y186.423
G1 F3000 X128.323 Y167.926 E1750.51754
G1 F2100 E1750.11754
G0 F7200 X128.324 Y182.345
G1 F2100 E1750.51754
G1 F3000 X176.674 Y154.430 E1752.83868
G1 F2100 E1752.43868
G0 F7200 X176.675 Y173.206
G1 F2100 E1752.83868
G1 F3000 X128.324 Y145.290 E1755.15987
G1 F2100 E1754.75987
G0 F7200 X128.324 Y148.390
G1 F2100 E1755.15987
G1 F3000 X176.674 Y120.475 E1757.48101
G1 F2100 E1757.08101
G0 F7200 X165.833 Y118.576
G1 F2100 E1757.48101
G1 F3000 X165.833 Y186.424 E1760.30180
G1 F2100 E1759.90180
G0 F7200 X156.031 Y186.424
G1 F2100 E1760.30180
G1 F3000 X156.031 Y118.576 E1763.12259
G1 F2100 E1762.72259
G0 F7200 X146.229 Y118.576
G1 F2100 E1763.12259
G1 F3000 X146.229 Y186.424 E1765.94338
G1 F2100 E1765.54338
G0 F7200 X136.427 Y186.424
G1 F2100 E1765.94338
G1 F3000 X136.427 Y118.576 E1768.76417
;LAYER:12
M106 S127
G1 F2100 E1768.36417
G0 F7200 X128.150 Y118.401 Z2.600
;TYPE:WALL-INNER
G1 F2100 E1768.76417
G1 F3000 X176.850 Y118.401 E1770.78888
G1 X176.850 Y186.599 E1773.62423
G1 X128.150 Y186.599 E1775.64894
G1 X128.150 Y118.401 E1778.48428
G0 F7200 X127.650 Y117.901
;TYPE:WALL-OUTER
G1 F3000 X177.350 Y117.901 E1780.55057
G1 X177.350 Y187.099 E1783.42749
G1 X127.650 Y187.099 E1785.49377
G1 X127.650 Y117.901 E1788.37069
G1 F2100 E1787.97069
G0 F7200 X137.799 Y122.424
;TYPE:FILL
G1 F2100 E1788.37069
G1 F3000 X140.656 Y124.073 E1788.50784
G0 F7200 X141.101 Y124.075
G1 F3000 X143.961 Y122.424 E1788.64513
G1 F2100 E1788.24513
G0 F7200 X149.438 Y122.425
G1 F2100 E1788.64513
G1 F3000 X149.438 Y124.075 E1788.71373
G1 F2100 E1788.31373
G0 F7200 X157.403 Y122.424
G1 F2100 E1788.71373
G1 F3000 X160.260 Y124.074 E1788.85090
G0 F7200 X160.705 Y124.074
G1 F3000 X163.564 Y122.424 E1788.98813
G1 F2100 E1788.58813
G0 F7200 X169.042 Y122.425
G1 F2100 E1788.98813
G1 F3000 X169.042 Y124.075 E1789.05673
G1 F2100 E1788.65673
G0 F7200 X171.675 Y129.060
G1 F2100 E1789.05673
G1 F3000 X173.324 Y128.108 E1789.13590
G1 F2100 E1788.73590
G0 F7200 X171.674 Y130.663
G1 F2100 E1789.13590
G1 F3000 X173.325 Y131.617 E1789.21517
G1 F2100 E1788.81517
G0 F7200 X173.324 Y139.426
G1 F2100 E1789.21517
G1 F3000 X171.674 Y140.378 E1789.29437
G1 F2100 E1788.89437
G0 F7200 X171.674 Y141.982
G1 F2100 E1789.29437
G1 F3000 X173.325 Y142.935 E1789.37362
G1 F2100 E1788.97362
G0 F7200 X173.324 Y150.744
G1 F2100 E1789.37362
G1 F3000 X171.674 Y151.697 E1789.45284
G1 F2100 E1789.05284
G0 F7200 X171.674 Y153.300
G1 F2100 E1789.45284
G1 F3000 X173.325 Y154.253 E1789.53210
G1 F2100 E1789.13210
G0 F7200 X173.323 Y162.063
G1 F2100 E1789.53210
G1 F3000 X171.674 Y163.015 E1789.61126
G1 F2100 E1789.21126
G0 F7200 X171.674 Y164.619
G1 F2100 E1789.61126
G1 F3000 X173.325 Y165.572 E1789.69052
G1 F2100 E1789.29052
G0 F7200 X173.323 Y173.381
G1 F2100 E1789.69052
G1 F3000 X171.674 Y174.333 E1789.76968
G1 F2100 E1789.36968
G0 F7200 X171.674 Y175.937
G1 F2100 E1789.76968
G1 F3000 X173.324 Y176.890 E1789.84890
G1 F2100 E1789.44890
G0 F7200 X169.042 Y180.925
G1 F2100 E1789.84890
G1 F3000 X169.042 Y182.575 E1789.91750
G1 F2100 E1789.51750
G0 F7200 X163.566 Y182.574
G1 F2100 E1789.91750
G1 F3000 X160.709 Y180.925 E1790.05464
G0 F7200 X160.259 Y180.924
G1 F3000 X157.400 Y182.575 E1790.19190
G1 F2100 E1789.79190
G0 F7200 X159.240 Y182.575
G1 F2100 E1790.19190
G1 F3000 X159.240 Y180.925 E1790.26050
G1 F2100 E1789.86050
G0 F7200 X149.438 Y180.925
G1 F2100 E1790.26050
G1 F3000 X149.438 Y182.575 E1790.32910
G1 F2100 E1789.92910
G0 F7200 X143.962 Y182.574
G1 F2100 E1790.32910
G1 F3000 X141.105 Y180.924 E1790.46627
G0 F7200 X140.654 Y180.925
G1 F3000 X137.795 Y182.575 E1790.60350
G1 F2100 E1790.20350
G0 F7200 X139.636 Y182.575
G1 F2100 E1790.60350
G1 F3000 X139.636 Y180.925 E1790.67210
G1 F2100 E1790.27210
G0 F7200 X133.325 Y176.433
G1 F2100 E1790.67210
G1 F3000 X131.674 Y175.479 E1790.75138
G0 F7200 X131.674 Y174.791
G1 F3000 X133.324 Y173.838 E1790.83060
G1 F2100 E1790.43060
G0 F7200 X133.324 Y165.114
G1 F2100 E1790.83060
G1 F3000 X131.674 Y164.161 E1790.90982
G0 F7200 X131.675 Y163.472
G1 F3000 X133.324 Y162.520 E1790.98898
G1 F2100 E1790.58898
G0 F7200 X133.325 Y153.796
G1 F2100 E1790.98898
G1 F3000 X131.674 Y152.843 E1791.06823
G0 F7200 X131.675 Y152.154
G1 F3000 X133.324 Y151.202 E1791.14740
G1 F2100 E1790.74740
G0 F7200 X133.325 Y142.478
G1 F2100 E1791.14740
G1 F3000 X131.674 Y141.525 E1791.22665
G0 F7200 X131.675 Y140.835
G1 F3000 X133.323 Y139.883 E1791.30578
G1 F2100 E1790.90578
G0 F7200 X133.325 Y131.159
G1 F2100 E1791.30578
G1 F3000 X131.674 Y130.206 E1791.38503
G0 F7200 X131.674 Y129.517
G1 F3000 X133.323 Y128.565 E1791.46420
G1 F2100 E1791.06420
G0 F7200 X139.636 Y124.075
G1 F2100 E1791.46420
G1 F3000 X139.636 Y122.425 E1791.53279
G1 F2100 E1791.13279
G0 F7200 X159.240 Y122.425
G1 F2100 E1791.53279
G1 F3000 X159.240 Y124.075 E1791.60139
G0 F7200 X159.000 Y123.425
;TYPE:SKIN
G1 F3000 X159.000 Y181.575 E1794.01899
G0 F7200 X159.000 Y181.925
G1 F3000 X159.000 Y186.424 E1794.20604
G0 F7200 X158.500 Y186.424
G1 F3000 X158.500 Y181.925 E1794.39308
G0 F7200 X158.500 Y181.575
G1 F3000 X158.500 Y123.425 E1796.81068
G0 F7200 X158.500 Y123.075
G1 F3000 X158.500 Y118.576 E1796.99773
G0 F7200 X158.000 Y118.576
G1 F3000 X158.000 Y123.075 E1797.18477
G0 F7200 X158.000 Y123.425
G1 F3000 X158.000 Y181.575 E1799.60237
G0 F7200 X158.000 Y181.925
G1 F3000 X158.000 Y186.424 E1799.78941
G0 F7200 X157.500 Y186.424
G1 F3000 X157.500 Y181.925 E1799.97646
G0 F7200 X157.500 Y181.575
G1 F3000 X157.500 Y123.425 E1802.39406
G0 F7200 X157.500 Y123.075
G1 F3000 X157.500 Y118.576 E1802.58110
G0 F7200 X157.000 Y118.576
G1 F3000 X157.000 Y123.075 E1802.76815
G0 F7200 X157.000 Y123.425
G1 F3000 X157.000 Y181.575 E1805.18575
G0 F7200 X157.000 Y181.925
G1 F3000 X157.000 Y186.424 E1805.37279
G0 F7200 X156.500 Y186.424
G1 F3000 X156.500 Y181.925 E1805.55984
G0 F7200 X156.500 Y181.575
G1 F3000 X156.500 Y123.425 E1807.97744
G0 F7200 X156.500 Y123.075
G1 F3000 X156.500 Y118.576 E1808.16448
G0 F7200 X156.000 Y118.576
G1 F3000 X156.000 Y123.075 E1808.35153
G0 F7200 X156.000 Y123.425
G1 F3000 X156.000 Y181.575 E1810.76913
G0 F7200 X156.000 Y181.925
G1 F3000 X156.000 Y186.424 E1810.95617
G0 F7200 X155.500 Y186.424
G1 F3000 X155.500 Y181.925 E1811.14322
G0 F7200 X155.500 Y181.575
G1 F3000 X155.500 Y123.425 E1813.56082
G0 F7200 X155.500 Y123.075
G1 F3000 X155.500 Y118.576 E1813.74786
G0 F7200 X155.000 Y118.576
G1 F3000 X155.000 Y123.075 E1813.93491
G0 F7200 X155.000 Y123.425
G1 F3000 X155.000 Y181.575 E1816.35250
G0 F7200 X155.000 Y181.925
G1 F3000 X155.000 Y186.424 E1816.53955
G0 F7200 X154.500 Y186.424
G1 F3000 X154.500 Y181.925 E1816.72660
G0 F7200 X154.500 Y181.575
G1 F3000 X154.500 Y123.425 E1819.14419
G0 F7200 X154.500 Y123.075
G1 F3000 X154.500 Y118.576 E1819.33124
G0 F7200 X154.000 Y118.576
G1 F3000 X154.000 Y123.075 E1819.51829
G0 F7200 X154.000 Y123.425
G1 F3000 X154.000 Y181.575 E1821.93588
G0 F7200 X154.000 Y181.925
G1 F3000 X154.000 Y186.424 E1822.12293
G0 F7200 X153.500 Y186.424
G1 F3000 X153.500 Y181.925 E1822.30998
G0 F7200 X153.500 Y181.575
G1 F3000 X153.500 Y123.425 E1824.72757
G0 F7200 X153.500 Y123.075
G1 F3000 X153.500 Y118.576 E1824.91462
G0 F7200 X153.000 Y118.576
G1 F3000 X153.000 Y123.075 E1825.10167
G0 F7200 X153.000 Y123.425
G1 F3000 X153.000 Y181.575 E1827.51926
G0 F7200 X153.000 Y181.925
G1 F3000 X153.000 Y186.424 E1827.70631
G0 F7200 X152.500 Y186.424
G1 F3000 X152.500 Y181.925 E1827.89336
G0 F7200 X152.500 Y181.575
G1 F3000 X152.500 Y123.425 E1830.31095
G0 F7200 X152.500 Y123.075
G1 F3000 X152.500 Y118.576 E1830.49800
G0 F7200 X152.000 Y118.576
G1 F3000 X152.000 Y123.075 E1830.68505
G0 F7200 X152.000 Y123.425
G1 F3000 X152.000 Y181.575 E1833.10264
G0 F7200 X152.000 Y181.925
G1 F3000 X152.000 Y186.424 E1833.28969
G0 F7200 X151.500 Y186.424
G1 F3000 X151.500 Y181.925 E1833.47673
G0 F7200 X151.500 Y181.575
G1 F3000 X151.500 Y123.425 E1835.89433
G0 F7200 X151.500 Y123.075
G1 F3000 X151.500 Y118.576 E1836.08138
G0 F7200 X151.000 Y118.576
G1 F3000 X151.000 Y123.075 E1836.26842
G0 F7200 X151.000 Y123.425
G1 F3000 X151.000 Y181.575 E1838.68602
G0 F7200 X151.000 Y181.925
G1 F3000 X151.000 Y186.424 E1838.87307
G0 F7200 X150.500 Y186.424
G1 F3000 X150.500 Y181.925 E1839.06011
G0 F7200 X150.500 Y181.575
G1 F3000 X150.500 Y123.425 E1841.47771
G0 F7200 X150.500 Y123.075
G1 F3000 X150.500 Y118.576 E1841.66476
G0 F7200 X150.000 Y118.576
G1 F3000 X150.000 Y123.075 E1841.85180
G0 F7200 X150.000 Y123.425
G1 F3000 X150.000 Y181.575 E1844.26940
G0 F7200 X150.000 Y181.925
G1 F3000 X150.000 Y186.424 E1844.45645
G0 F7200 X149.500 Y186.424
G1 F3000 X149.500 Y181.925 E1844.64349
G0 F7200 X149.500 Y181.575
G1 F3000 X149.500 Y123.425 E1847.06109
G0 F7200 X149.500 Y123.075
G1 F3000 X149.500 Y118.576 E1847.24814
G0 F7200 X149.000 Y118.576
G1 F3000 X149.000 Y123.075 E1847.43518
G0 F7200 X149.000 Y123.425
G1 F3000 X149.000 Y181.575 E1849.85278
G0 F7200 X149.000 Y181.925
G1 F3000 X149.000 Y186.424 E1850.03982
G0 F7200 X148.500 Y186.424
G1 F3000 X148.500 Y181.925 E1850.22687
G0 F7200 X148.500 Y181.575
G1 F3000 X148.500 Y123.425 E1852.64447
G0 F7200 X148.500 Y123.075
G1 F3000 X148.500 Y118.576 E1852.83151
G0 F7200 X148.000 Y118.576
G1 F3000 X148.000 Y123.075 E1853.01856
G0 F7200 X148.000 Y123.425
G1 F3000 X148.000 Y181.575 E1855.43616
G0 F7200 X148.000 Y181.925
G1 F3000 X148.000 Y186.424 E1855.62320
G0 F7200 X147.500 Y186.424
G1 F3000 X147.500 Y181.925 E1855.81025
G0 F7200 X147.500 Y181.575
G1 F3000 X147.500 Y123.425 E1858.22785
G0 F7200 X147.500 Y123.075
G1 F3000 X147.500 Y118.576 E1858.41489
G0 F7200 X147.000 Y118.576
G1 F3000 X147.000 Y123.075 E1858.60194
G0 F7200 X147.000 Y123.425
G1 F3000 X147.000 Y181.575 E1861.01954
G0 F7200 X147.000 Y181.925
G1 F3000 X147.000 Y186.424 E1861.20658
G0 F7200 X146.500 Y186.424
G1 F3000 X146.500 Y181.925 E1861.39363
G0 F7200 X146.500 Y181.575
G1 F3000 X146.500 Y123.425 E1863.81123
G0 F7200 X146.500 Y123.075
G1 F3000 X146.500 Y118.576 E1863.99827
G0 F7200 X146.000 Y118.576
G1 F3000 X146.000 Y123.075 E1864.18532
G0 F7200 X146.000 Y123.425
G1 F3000 X146.000 Y181.575 E1866.60291
G0 F7200 X146.000 Y181.925
G1 F3000 X146.000 Y186.424 E1866.78996
G0 F7200 X145.500 Y186.424
G1 F3000 X145.500 Y181.925 E1866.97701
G0 F7200 X145.500 Y181.575
G1 F3000 X145.500 Y123.425 E1869.39460
G0 F7200 X145.500 Y123.075
G1 F3000 X145.500 Y118.576 E1869.58165
G0 F7200 X145.000 Y118.576
G1 F3000 X145.000 Y123.075 E1869.76870
G0 F7200 X145.000 Y123.425
G1 F3000 X145.000 Y181.575 E1872.18629
G0 F7200 X145.000 Y181.925
G1 F3000 X145.000 Y186.424 E1872.37334
G0 F7200 X144.500 Y186.424
G1 F3000 X144.500 Y181.925 E1872.56039
G0 F7200 X144.500 Y181.575
G1 F3000 X144.500 Y123.425 E1874.97798
G0 F7200 X144.500 Y123.075
G1 F3000 X144.500 Y118.576 E1875.16503
G0 F7200 X144.000 Y118.576
G1 F3000 X144.000 Y123.075 E1875.35208
G0 F7200 X144.000 Y123.425
G1 F3000 X144.000 Y181.575 E1877.76967
G0 F7200 X144.000 Y181.925
G1 F3000 X144.000 Y186.424 E1877.95672
G0 F7200 X143.500 Y186.424
G1 F3000 X143.500 Y181.925 E1878.14377
G0 F7200 X143.500 Y181.575
G1 F3000 X143.500 Y123.425 E1880.56136
G0 F7200 X143.500 Y123.075
G1 F3000 X143.500 Y118.576 E1880.74841
G0 F7200 X143.000 Y118.576
G1 F3000 X143.000 Y123.075 E1880.93546
G0 F7200 X143.000 Y123.425
G1 F3000 X143.000 Y181.575 E1883.35305
G0 F7200 X143.000 Y181.925
G1 F3000 X143.000 Y186.424 E1883.54010
G0 F7200 X142.500 Y186.424
G1 F3000 X142.500 Y181.925 E1883.72714
G0 F7200 X142.500 Y181.575
G1 F3000 X142.500 Y123.425 E1886.14474
G0 F7200 X142.500 Y123.075
G1 F3000 X142.500 Y118.576 E1886.33179
G0 F7200 X142.000 Y118.576
G1 F3000 X142.000 Y123.075 E1886.51883
G0 F7200 X142.000 Y123.425
G1 F3000 X142.000 Y181.575 E1888.93643
G0 F7200 X142.000 Y181.925
G1 F3000 X142.000 Y186.424 E1889.12348
G0 F7200 X141.500 Y186.424
G1 F3000 X141.500 Y181.925 E1889.31052
G0 F7200 X141.500 Y181.575
G1 F3000 X141.500 Y123.425 E1891.72812
G0 F7200 X141.500 Y123.075
G1 F3000 X141.500 Y118.576 E1891.91517
G0 F7200 X141.000 Y118.576
G1 F3000 X141.000 Y123.075 E1892.10221
G0 F7200 X141.000 Y123.425
G1 F3000 X141.000 Y181.575 E1894.51981
G0 F7200 X141.000 Y181.925
G1 F3000 X141.000 Y186.424 E1894.70686
G0 F7200 X140.500 Y186.424
G1 F3000 X140.500 Y181.925 E1894.89390
G0 F7200 X140.500 Y181.575
G1 F3000 X140.500 Y123.425 E1897.31150
G0 F7200 X140.500 Y123.075
G1 F3000 X140.500 Y118.576 E1897.49855
G0 F7200 X140.000 Y118.576
G1 F3000 X140.000 Y123.075 E1897.68559
G0 F7200 X140.000 Y123.425
G1 F3000 X140.000 Y181.575 E1900.10319
G0 F7200 X140.000 Y181.925
G1 F3000 X140.000 Y186.424 E1900.29023
G1 F2100 E1899.89023
G0 F7200 X159.500 Y186.424
G1 F2100 E1900.29023
G1 F3000 X159.500 Y181.925 E1900.47728
G0 F7200 X159.500 Y181.575
G1 F3000 X159.500 Y123.425 E1902.89488
G0 F7200 X159.500 Y123.075
G1 F3000 X159.500 Y118.576 E1903.08192
G0 F7200 X159.000 Y118.576
G1 F3000 X159.000 Y123.075 E1903.26897
G0 F7200 X160.000 Y123.075
G1 F3000 X160.000 Y118.576 E1903.45602
G0 F7200 X160.500 Y118.576
G1 F3000 X160.500 Y123.075 E1903.64306
G0 F7200 X160.500 Y123.425
G1 F3000 X160.500 Y181.575 E1906.06066
G0 F7200 X160.500 Y181.925
G1 F3000 X160.500 Y186.424 E1906.24771
G0 F7200 X160.000 Y186.424
G1 F3000 X160.000 Y181.925 E1906.43475
G0 F7200 X160.000 Y181.575
G1 F3000 X160.000 Y123.425 E1908.85235
G0 F7200 X161.000 Y123.425
G1 F3000 X161.000 Y181.575 E1911.26995
G0 F7200 X161.000 Y181.925
G1 F3000 X161.000 Y186.424 E1911.45699
G0 F7200 X161.500 Y186.424
G1 F3000 X161.500 Y181.925 E1911.64404
G0 F7200 X161.500 Y181.575
G1 F3000 X161.500 Y123.425 E1914.06163
G0 F7200 X161.500 Y123.075
G1 F3000 X161.500 Y118.576 E1914.24868
G0 F7200 X161.000 Y118.576
G1 F3000 X161.000 Y123.075 E1914.43573
G0 F7200 X162.000 Y123.075
G1 F3000 X162.000 Y118.576 E1914.62278
G0 F7200 X162.500 Y118.576
G1 F3000 X162.500 Y123.075 E1914.80982
G0 F7200 X162.500 Y123.425
G1 F3000 X162.500 Y181.575 E1917.22742
G0 F7200 X162.500 Y181.925
G1 F3000 X162.500 Y186.424 E1917.41446
G0 F7200 X162.000 Y186.424
G1 F3000 X162.000 Y181.925 E1917.60151
G0 F7200 X162.000 Y181.575
G1 F3000 X162.000 Y123.425 E1920.01911
G0 F7200 X163.000 Y123.425
G1 F3000 X163.000 Y181.575 E1922.43670
G0 F7200 X163.000 Y181.925
G1 F3000 X163.000 Y186.424 E1922.62375
G0 F7200 X163.500 Y186.424
G1 F3000 X163.500 Y181.925 E1922.81080
G0 F7200 X163.500 Y181.575
G1 F3000 X163.500 Y123.425 E1925.22839
G0 F7200 X163.500 Y123.075
G1 F3000 X163.500 Y118.576 E1925.41544
G0 F7200 X163.000 Y118.576
G1 F3000 X163.000 Y123.075 E1925.60249
G0 F7200 X164.000 Y123.075
G1 F3000 X164.000 Y118.576 E1925.78953
G0 F7200 X164.500 Y118.576
G1 F3000 X164.500 Y123.075 E1925.97658
G0 F7200 X164.500 Y123.425
G1 F3000 X164.500 Y181.575 E1928.39418
G0 F7200 X164.500 Y181.925
G1 F3000 X164.500 Y186.424 E1928.58122
G0 F7200 X164.000 Y186.424
G1 F3000 X164.000 Y181.925 E1928.76827
G0 F7200 X164.000 Y181.575
G1 F3000 X164.000 Y123.425 E1931.18586
G0 F7200 X165.000 Y123.425
G1 F3000 X165.000 Y181.575 E1933.60346
G0 F7200 X165.000 Y181.925
G1 F3000 X165.000 Y186.424 E1933.79051
G0 F7200 X165.500 Y186.424
G1 F3000 X165.500 Y181.925 E1933.97755
G0 F7200 X165.500 Y181.575
G1 F3000 X165.500 Y123.425 E1936.39515
G0 F7200 X165.500 Y123.075
G1 F3000 X165.500 Y118.576 E1936.58220
G0 F7200 X165.000 Y118.576
G1 F3000 X165.000 Y123.075 E1936.76924
G0 F7200 X166.000 Y123.075
G1 F3000 X166.000 Y118.576 E1936.95629
G0 F7200 X166.500 Y118.576
G1 F3000 X166.500 Y123.075 E1937.14334
G0 F7200 X166.500 Y123.425
G1 F3000 X166.500 Y181.575 E1939.56093
G0 F7200 X166.500 Y181.925
G1 F3000 X166.500 Y186.424 E1939.74798
G0 F7200 X166.000 Y186.424
G1 F3000 X166.000 Y181.925 E1939.93503
G0 F7200 X166.000 Y181.575
G1 F3000 X166.000 Y123.425 E1942.35262
G0 F7200 X167.000 Y123.425
G1 F3000 X167.000 Y181.575 E1944.77022
G0 F7200 X167.000 Y181.925
G1 F3000 X167.000 Y186.424 E1944.95727
G0 F7200 X167.500 Y186.424
G1 F3000 X167.500 Y181.925 E1945.14431
G0 F7200 X167.500 Y181.575
G1 F3000 X167.500 Y123.425 E1947.56191
G0 F7200 X167.500 Y123.075
G1 F3000 X167.500 Y118.576 E1947.74895
G0 F7200 X167.000 Y118.576
G1 F3000 X167.000 Y123.075 E1947.93600
G0 F7200 X168.000 Y123.075
G1 F3000 X168.000 Y118.576 E1948.12305
G0 F7200 X168.500 Y118.576
G1 F3000 X168.500 Y123.075 E1948.31009
G0 F7200 X168.500 Y123.425
G1 F3000 X168.500 Y181.575 E1950.72769
G0 F7200 X168.500 Y181.925
G1 F3000 X168.500 Y186.424 E1950.91474
G0 F7200 X168.000 Y186.424
G1 F3000 X168.000 Y181.925 E1951.10178
G0 F7200 X168.000 Y181.575
G1 F3000 X168.000 Y123.425 E1953.51938
G0 F7200 X169.000 Y123.425
G1 F3000 X169.000 Y181.575 E1955.93698
G0 F7200 X169.000 Y181.925
G1 F3000 X169.000 Y186.424 E1956.12402
G0 F7200 X169.500 Y186.424
G1 F3000 X169.500 Y181.925 E1956.31107
G0 F7200 X169.500 Y181.575
G1 F3000 X169.500 Y123.425 E1958.72867
G0 F7200 X169.500 Y123.075
G1 F3000 X169.500 Y118.576 E1958.91571
G0 F7200 X169.000 Y118.576
G1 F3000 X169.000 Y123.075 E1959.10276
G0 F7200 X170.000 Y123.075
G1 F3000 X170.000 Y118.576 E1959.28981
G0 F7200 X170.500 Y118.576
G1 F3000 X170.500 Y123.075 E1959.47685
G0 F7200 X170.500 Y123.425
G1 F3000 X170.500 Y181.575 E1961.89445
G0 F7200 X170.500 Y181.925
G1 F3000 X170.500 Y186.424 E1962.08150
G0 F7200 X170.000 Y186.424
G1 F3000 X170.000 Y181.925 E1962.26854
G0 F7200 X170.000 Y181.575
G1 F3000 X170.000 Y123.425 E1964.68614
G0 F7200 X171.000 Y123.425
G1 F3000 X171.000 Y181.575 E1967.10373
G0 F7200 X171.000 Y181.925
G1 F3000 X171.000 Y186.424 E1967.29078
G0 F7200 X171.500 Y186.424
G1 F3000 X171.500 Y181.925 E1967.47783
G0 F7200 X171.500 Y181.575
G1 F3000 X171.500 Y123.425 E1969.89542
G0 F7200 X171.500 Y123.075
G1 F3000 X171.500 Y118.576 E1970.08247
G0 F7200 X171.000 Y118.576
G1 F3000 X171.000 Y123.075 E1970.26952
G0 F7200 X172.000 Y123.075
G1 F3000 X172.000 Y118.576 E1970.45656
G0 F7200 X172.500 Y118.576
G1 F3000 X172.500 Y123.075 E1970.64361
G0 F7200 X172.000 Y123.425
G1 F3000 X172.000 Y181.575 E1973.06121
G0 F7200 X172.000 Y181.925
G1 F3000 X172.000 Y186.424 E1973.24825
G0 F7200 X172.500 Y186.424
G1 F3000 X172.500 Y181.925 E1973.43530
G1 F2100 E1973.03530
G0 F7200 X173.000 Y186.424
G1 F2100 E1973.43530
G1 F3000 X173.000 Y118.576 E1976.25609
G0 F7200 X173.500 Y118.576
G1 F3000 X173.500 Y186.424 E1979.07688
G0 F7200 X174.000 Y186.424
G1 F3000 X174.000 Y118.576 E1981.89768
G0 F7200 X174.500 Y118.576
G1 F3000 X174.500 Y186.424 E1984.71847
G0 F7200 X175.000 Y186.424
G1 F3000 X175.000 Y118.576 E1987.53926
G0 F7200 X175.500 Y118.576
G1 F3000 X175.500 Y186.424 E1990.36005
G0 F7200 X176.000 Y186.424
G1 F3000 X176.000 Y118.576 E1993.18084
G0 F7200 X176.500 Y118.576
G1 F3000 X176.500 Y186.424 E1996.00164
G1 F2100 E1995.60164
G0 F7200 X139.500 Y186.424
G1 F2100 E1996.00164
G1 F3000 X139.500 Y181.925 E1996.18868
G0 F7200 X139.500 Y181.575
G1 F3000 X139.500 Y123.425 E1998.60628
G0 F7200 X139.500 Y123.075
G1 F3000 X139.500 Y118.576 E1998.79333
G0 F7200 X139.000 Y118.576
G1 F3000 X139.000 Y123.075 E1998.98037
G0 F7200 X139.000 Y123.425
G1 F3000 X139.000 Y181.575 E2001.39797
G0 F7200 X139.000 Y181.925
G1 F3000 X139.000 Y186.424 E2001.58502
G0 F7200 X138.500 Y186.424
G1 F3000 X138.500 Y181.925 E2001.77206
G0 F7200 X138.500 Y181.575
G1 F3000 X138.500 Y123.425 E2004.18966
G0 F7200 X138.500 Y123.075
G1 F3000 X138.500 Y118.576 E2004.37670
G0 F7200 X138.000 Y118.576
G1 F3000 X138.000 Y123.075 E2004.56375
G0 F7200 X138.000 Y123.425
G1 F3000 X138.000 Y181.575 E2006.98135
G0 F7200 X138.000 Y181.925
G1 F3000 X138.000 Y186.424 E2007.16839
G0 F7200 X137.500 Y186.424
G1 F3000 X137.500 Y181.925 E2007.35544
G0 F7200 X137.500 Y181.575
G1 F3000 X137.500 Y123.425 E2009.77304
G0 F7200 X137.500 Y123.075
G1 F3000 X137.500 Y118.576 E2009.96008
G0 F7200 X137.000 Y118.576
G1 F3000 X137.000 Y123.075 E2010.14713
G0 F7200 X137.000 Y123.425
G1 F3000 X137.000 Y181.575 E2012.56473
G0 F7200 X137.000 Y181.925
G1 F3000 X137.000 Y186.424 E2012.75177
G0 F7200 X136.500 Y186.424
G1 F3000 X136.500 Y181.925 E2012.93882
G0 F7200 X136.500 Y181.575
G1 F3000 X136.500 Y123.425 E2015.35642
G0 F7200 X136.500 Y123.075
G1 F3000 X136.500 Y118.576 E2015.54346
G0 F7200 X136.000 Y118.576
G1 F3000 X136.000 Y123.075 E2015.73051
G0 F7200 X136.000 Y123.425
G1 F3000 X136.000 Y181.575 E2018.14811
G0 F7200 X136.000 Y181.925
G1 F3000 X136.000 Y186.424 E2018.33515
G0 F7200 X135.500 Y186.424
G1 F3000 X135.500 Y181.925 E2018.52220
G0 F7200 X135.500 Y181.575
G1 F3000 X135.500 Y123.425 E2020.93979
G0 F7200 X135.500 Y123.075
G1 F3000 X135.500 Y118.576 E2021.12684
G0 F7200 X135.000 Y118.576
G1 F3000 X135.000 Y123.075 E2021.31389
G0 F7200 X135.000 Y123.425
G1 F3000 X135.000 Y181.575 E2023.73148
G0 F7200 X135.000 Y181.925
G1 F3000 X135.000 Y186.424 E2023.91853
G0 F7200 X134.500 Y186.424
G1 F3000 X134.500 Y181.925 E2024.10558
G0 F7200 X134.500 Y181.575
G1 F3000 X134.500 Y123.425 E2026.52317
G0 F7200 X134.500 Y123.075
G1 F3000 X134.500 Y118.576 E2026.71022
G0 F7200 X134.000 Y118.576
G1 F3000 X134.000 Y123.075 E2026.89727
G0 F7200 X134.000 Y123.425
G1 F3000 X134.000 Y181.575 E2029.31486
G0 F7200 X134.000 Y181.925
G1 F3000 X134.000 Y186.424 E2029.50191
G0 F7200 X133.500 Y186.424
G1 F3000 X133.500 Y181.925 E2029.68896
G0 F7200 X133.500 Y181.575
G1 F3000 X133.500 Y123.425 E2032.10655
G0 F7200 X133.500 Y123.075
G1 F3000 X133.500 Y118.576 E2032.29360
G0 F7200 X133.000 Y118.576
G1 F3000 X133.000 Y123.075 E2032.48065
G0 F7200 X133.000 Y123.425
G1 F3000 X133.000 Y181.575 E2034.89824
G0 F7200 X133.000 Y181.925
G1 F3000 X133.000 Y186.424 E2035.08529
G0 F7200 X132.500 Y186.424
G1 F3000 X132.500 Y181.925 E2035.27234
G1 F2100 E2034.87234
G0 F7200 X132.000 Y186.424
G1 F2100 E2035.27234
G1 F3000 X132.000 Y118.576 E2038.09313
G0 F7200 X131.500 Y118.576
G1 F3000 X131.500 Y186.424 E2040.91392
G0 F7200 X131.000 Y186.424
G1 F3000 X131.000 Y118.576 E2043.73471
G0 F7200 X130.500 Y118.576
G1 F3000 X130.500 Y186.424 E2046.55550
G0 F7200 X130.000 Y186.424
G1 F3000 X130.000 Y118.576 E2049.37630
G0 F7200 X129.500 Y118.576
G1 F3000 X129.500 Y186.424 E2052.19709
G0 F7200 X129.000 Y186.424
G1 F3000 X129.000 Y118.576 E2055.01788
G0 F7200 X128.500 Y118.576
G1 F3000 X128.500 Y186.424 E2057.83867
G1 F2100 E2057.43867
G0 F7200 X132.500 Y123.075
G1 F2100 E2057.83867
G1 F3000 X132.500 Y118.576 E2058.02572
;LAYER:13
M106 S137
G1 F2100 E2057.62572
G0 F7200 X128.150 Y118.401 Z2.800
;TYPE:WALL-INNER
G1 F2100 E2058.02572
G1 F3000 X176.850 Y118.401 E2060.05043
G1 X176.850 Y186.599 E2062.88577
G1 X128.150 Y186.599 E2064.91048
G1 X128.150 Y118.401 E2067.74583
G0 F7200 X127.650 Y117.901
;TYPE:WALL-OUTER
G1 F3000 X177.350 Y117.901 E2069.81211
G1 X177.350 Y187.099 E2072.68903
G1 X127.650 Y187.099 E2074.75532
G1 X127.650 Y117.901 E2077.63224
G1 F2100 E2077.23224
G0 F7200 X138.083 Y122.424
;TYPE:FILL
G1 F2100 E2077.63224
G1 F3000 X140.940 Y124.073 E2077.76938
G0 F7200 X141.385 Y124.075
G1 F3000 X144.244 Y122.424 E2077.90664
G1 F2100 E2077.50664
G0 F7200 X149.296 Y122.425
G1 F2100 E2077.90664
G1 F3000 X149.296 Y124.075 E2077.97524
G1 F2100 E2077.57524
G0 F7200 X157.687 Y122.424
G1 F2100 E2077.97524
G1 F3000 X160.544 Y124.074 E2078.11240
G0 F7200 X160.990 Y124.074
G1 F3000 X163.848 Y122.424 E2078.24961
G1 F2100 E2077.84961
G0 F7200 X168.900 Y122.425
G1 F2100 E2078.24961
G1 F3000 X168.900 Y124.075 E2078.31821
G1 F2100 E2077.91821
G0 F7200 X171.675 Y129.224
G1 F2100 E2078.31821
G1 F3000 X173.324 Y128.272 E2078.39737
G1 F2100 E2077.99737
G0 F7200 X171.674 Y130.499
G1 F2100 E2078.39737
G1 F3000 X173.325 Y131.453 E2078.47664
G1 F2100 E2078.07664
G0 F7200 X173.324 Y139.590
G1 F2100 E2078.47664
G1 F3000 X171.674 Y140.542 E2078.55584
G0 F7200 X171.674 Y141.818
G1 F3000 X173.325 Y142.771 E2078.63510
G1 F2100 E2078.23510
G0 F7200 X173.324 Y150.908
G1 F2100 E2078.63510
G1 F3000 X171.674 Y151.861 E2078.71432
G0 F7200 X171.674 Y153.136
G1 F3000 X173.325 Y154.089 E2078.79357
G1 F2100 E2078.39357
G0 F7200 X173.323 Y162.227
G1 F2100 E2078.79357
G1 F3000 X171.674 Y163.179 E2078.87273
G0 F7200 X171.674 Y164.455
G1 F3000 X173.325 Y165.408 E2078.95199
G1 F2100 E2078.55199
G0 F7200 X173.323 Y173.545
G1 F2100 E2078.95199
G1 F3000 X171.674 Y174.497 E2079.03115
G0 F7200 X171.674 Y175.773
G1 F3000 X173.324 Y176.726 E2079.11037
G1 F2100 E2078.71037
G0 F7200 X168.900 Y180.925
G1 F2100 E2079.11037
G1 F3000 X168.900 Y182.575 E2079.17897
G1 F2100 E2078.77897
G0 F7200 X163.850 Y182.574
G1 F2100 E2079.17897
G1 F3000 X160.993 Y180.925 E2079.31612
G0 F7200 X160.543 Y180.924
G1 F3000 X157.684 Y182.575 E2079.45337
G0 F7200 X159.098 Y182.575
G1 F3000 X159.098 Y180.925 E2079.52197
G1 F2100 E2079.12197
G0 F7200 X149.296 Y180.925
G1 F2100 E2079.52197
G1 F3000 X149.296 Y182.575 E2079.59057
G1 F2100 E2079.19057
G0 F7200 X144.246 Y182.574
G1 F2100 E2079.59057
G1 F3000 X141.389 Y180.924 E2079.72774
G0 F7200 X140.938 Y180.925
G1 F3000 X138.079 Y182.575 E2079.86498
G0 F7200 X139.494 Y182.575
G1 F3000 X139.494 Y180.925 E2079.93358
G1 F2100 E2079.53358
G0 F7200 X133.325 Y176.269
G1 F2100 E2079.93358
G1 F3000 X131.674 Y175.315 E2080.01285
G0 F7200 X131.674 Y174.955
G1 F3000 X133.324 Y174.002 E2080.09207
G1 F2100 E2079.69207
G0 F7200 X133.325 Y164.951
G1 F2100 E2080.09207
G1 F3000 X131.674 Y163.997 E2080.17135
G0 F7200 X131.675 Y163.636
G1 F3000 X133.324 Y162.684 E2080.25051
G1 F2100 E2079.85051
G0 F7200 X133.324 Y153.632
G1 F2100 E2080.25051
G1 F3000 X131.674 Y152.679 E2080.32973
G0 F7200 X131.675 Y152.318
G1 F3000 X133.324 Y151.366 E2080.40889
G1 F2100 E2080.00889
G0 F7200 X133.325 Y142.314
G1 F2100 E2080.40889
G1 F3000 X131.674 Y141.361 E2080.48815
G0 F7200 X131.675 Y140.999
G1 F3000 X133.323 Y140.047 E2080.56727
G1 F2100 E2080.16727
G0 F7200 X133.325 Y130.995
G1 F2100 E2080.56727
G1 F3000 X131.674 Y130.042 E2080.64653
G0 F7200 X131.674 Y129.681
G1 F3000 X133.323 Y128.729 E2080.72569
G1 F2100 E2080.32569
G0 F7200 X139.494 Y124.075
G1 F2100 E2080.72569
G1 F3000 X139.494 Y122.425 E2080.79429
G1 F2100 E2080.39429
G0 F7200 X159.098 Y122.425
G1 F2100 E2080.79429
G1 F3000 X159.098 Y124.075 E2080.86289
G1 F2100 E2080.46289
G0 F7200 X172.324 Y124.000
;TYPE:SKIN
G1 F2100 E2080.86289
G1 F3000 X132.674 Y124.000 E2082.51134
G0 F7200 X132.324 Y124.000
G1 F3000 X128.324 Y124.000 E2082.67764
G0 F7200 X128.324 Y124.500
G1 F3000 X132.324 Y124.500 E2082.84394
G0 F7200 X132.674 Y124.500
G1 F3000 X172.324 Y124.500 E2084.49240
G0 F7200 X172.674 Y124.500
G1 F3000 X176.674 Y124.500 E2084.65870
G0 F7200 X176.674 Y125.000
G1 F3000 X172.674 Y125.000 E2084.82500
G0 F7200 X172.324 Y125.000
G1 F3000 X132.674 Y125.000 E2086.47346
G0 F7200 X132.324 Y125.000
G1 F3000 X128.324 Y125.000 E2086.63976
G0 F7200 X128.324 Y125.500
G1 F3000 X132.324 Y125.500 E2086.80606
G0 F7200 X132.674 Y125.500
G1 F3000 X172.324 Y125.500 E2088.45451
G0 F7200 X172.674 Y125.500
G1 F3000 X176.674 Y125.500 E2088.62081
G0 F7200 X176.674 Y126.000
G1 F3000 X172.674 Y126.000 E2088.78711
G0 F7200 X172.324 Y126.000
G1 F3000 X132.674 Y126.000 E2090.43557
G0 F7200 X132.324 Y126.000
G1 F3000 X128.324 Y126.000 E2090.60187
G0 F7200 X128.324 Y126.500
G1 F3000 X132.324 Y126.500 E2090.76817
G0 F7200 X132.674 Y126.500
G1 F3000 X172.324 Y126.500 E2092.41663
G0 F7200 X172.674 Y126.500
G1 F3000 X176.674 Y126.500 E2092.58293
G0 F7200 X176.674 Y127.000
G1 F3000 X172.674 Y127.000 E2092.74923
G0 F7200 X172.324 Y127.000
G1 F3000 X132.674 Y127.000 E2094.39768
G0 F7200 X132.324 Y127.000
G1 F3000 X128.324 Y127.000 E2094.56398
G0 F7200 X128.324 Y127.500
G1 F3000 X132.324 Y127.500 E2094.73028
G0 F7200 X132.674 Y127.500
G1 F3000 X172.324 Y127.500 E2096.37874
G0 F7200 X172.674 Y127.500
G1 F3000 X176.674 Y127.500 E2096.54504
G0 F7200 X176.674 Y128.000
G1 F3000 X172.674 Y128.000 E2096.71134
G0 F7200 X172.324 Y128.000
G1 F3000 X132.674 Y128.000 E2098.35980
G0 F7200 X132.324 Y128.000
G1 F3000 X128.324 Y128.000 E2098.52610
G0 F7200 X128.324 Y128.500
G1 F3000 X132.324 Y128.500 E2098.69240
G0 F7200 X132.674 Y128.500
G1 F3000 X172.324 Y128.500 E2100.34085
G0 F7200 X172.674 Y128.500
G1 F3000 X176.674 Y128.500 E2100.50715
G0 F7200 X176.674 Y129.000
G1 F3000 X172.674 Y129.000 E2100.67345
G0 F7200 X172.324 Y129.000
G1 F3000 X132.674 Y129.000 E2102.32191
G0 F7200 X132.324 Y129.000
G1 F3000 X128.324 Y129.000 E2102.48821
G0 F7200 X128.324 Y129.500
G1 F3000 X132.324 Y129.500 E2102.65451
G0 F7200 X132.674 Y129.500
G1 F3000 X172.324 Y129.500 E2104.30297
G0 F7200 X172.674 Y129.500
G1 F3000 X176.674 Y129.500 E2104.46927
G0 F7200 X176.674 Y130.000
G1 F3000 X172.674 Y130.000 E2104.63557
G0 F7200 X172.324 Y130.000
G1 F3000 X132.674 Y130.000 E2106.28402
G0 F7200 X132.324 Y130.000
G1 F3000 X128.324 Y130.000 E2106.45032
G0 F7200 X128.324 Y130.500
G1 F3000 X132.324 Y130.500 E2106.61663
G0 F7200 X132.674 Y130.500
G1 F3000 X172.324 Y130.500 E2108.26508
G0 F7200 X172.674 Y130.500
G1 F3000 X176.674 Y130.500 E2108.43138
G0 F7200 X176.674 Y131.000
G1 F3000 X172.674 Y131.000 E2108.59768
G0 F7200 X172.324 Y131.000
G1 F3000 X132.674 Y131.000 E2110.24614
G0 F7200 X132.324 Y131.000
G1 F3000 X128.324 Y131.000 E2110.41244
G0 F7200 X128.324 Y131.500
G1 F3000 X132.324 Y131.500 E2110.57874
G0 F7200 X132.674 Y131.500
G1 F3000 X172.324 Y131.500 E2112.22719
G0 F7200 X172.674 Y131.500
G1 F3000 X176.674 Y131.500 E2112.39349
G0 F7200 X176.674 Y132.000
G1 F3000 X172.674 Y132.000 E2112.55980
G0 F7200 X172.324 Y132.000
G1 F3000 X132.674 Y132.000 E2114.20825
G0 F7200 X132.324 Y132.000
G1 F3000 X128.324 Y132.000 E2114.37455
G0 F7200 X128.324 Y132.500
G1 F3000 X132.324 Y132.500 E2114.54085
G0 F7200 X132.674 Y132.500
G1 F3000 X172.324 Y132.500 E2116.18931
G0 F7200 X172.674 Y132.500
G1 F3000 X176.674 Y132.500 E2116.35561
G0 F7200 X176.674 Y133.000
G1 F3000 X172.674 Y133.000 E2116.52191
G0 F7200 X172.324 Y133.000
G1 F3000 X132.674 Y133.000 E2118.17036
G0 F7200 X132.324 Y133.000
G1 F3000 X128.324 Y133.000 E2118.33667
G0 F7200 X128.324 Y133.500
G1 F3000 X132.324 Y133.500 E2118.50297
G0 F7200 X132.674 Y133.500
G1 F3000 X172.324 Y133.500 E2120.15142
G0 F7200 X172.674 Y133.500
G1 F3000 X176.674 Y133.500 E2120.31772
G0 F7200 X176.674 Y134.000
G1 F3000 X172.674 Y134.000 E2120.48402
G0 F7200 X172.324 Y134.000
G1 F3000 X132.674 Y134.000 E2122.13248
G0 F7200 X132.324 Y134.000
G1 F3000 X128.324 Y134.000 E2122.29878
G0 F7200 X128.324 Y134.500
G1 F3000 X132.324 Y134.500 E2122.46508
G0 F7200 X132.674 Y134.500
G1 F3000 X172.324 Y134.500 E2124.11353
G0 F7200 X172.674 Y134.500
G1 F3000 X176.674 Y134.500 E2124.27984
G0 F7200 X176.674 Y135.000
G1 F3000 X172.674 Y135.000 E2124.44614
G0 F7200 X172.324 Y135.000
G1 F3000 X132.674 Y135.000 E2126.09459
G0 F7200 X132.324 Y135.000
G1 F3000 X128.324 Y135.000 E2126.26089
G0 F7200 X128.324 Y135.500
G1 F3000 X132.324 Y135.500 E2126.42719
G0 F7200 X132.674 Y135.500
G1 F3000 X172.324 Y135.500 E2128.07565
G0 F7200 X172.674 Y135.500
G1 F3000 X176.674 Y135.500 E2128.24195
G0 F7200 X176.674 Y136.000
G1 F3000 X172.674 Y136.000 E2128.40825
G0 F7200 X172.324 Y136.000
G1 F3000 X132.674 Y136.000 E2130.05671
G0 F7200 X132.324 Y136.000
G1 F3000 X128.324 Y136.000 E2130.22301
G0 F7200 X128.324 Y136.500
G1 F3000 X132.324 Y136.500 E2130.38931
G0 F7200 X132.674 Y136.500
G1 F3000 X172.324 Y136.500 E2132.03776
G0 F7200 X172.674 Y136.500
G1 F3000 X176.674 Y136.500 E2132.20406
G0 F7200 X176.674 Y137.000
G1 F3000 X172.674 Y137.000 E2132.37036
G0 F7200 X172.324 Y137.000
G1 F3000 X132.674 Y137.000 E2134.01882
G0 F7200 X132.324 Y137.000
G1 F3000 X128.324 Y137.000 E2134.18512
G0 F7200 X128.324 Y137.500
G1 F3000 X132.324 Y137.500 E2134.35142
G0 F7200 X132.674 Y137.500
G1 F3000 X172.324 Y137.500 E2135.99988
G0 F7200 X172.674 Y137.500
G1 F3000 X176.674 Y137.500 E2136.16618
G0 F7200 X176.674 Y138.000
G1 F3000 X172.674 Y138.000 E2136.33248
G0 F7200 X172.324 Y138.000
G1 F3000 X132.674 Y138.000 E2137.98093
G0 F7200 X132.324 Y138.000
G1 F3000 X128.324 Y138.000 E2138.14723
G0 F7200 X128.324 Y138.500
G1 F3000 X132.324 Y138.500 E2138.31353
G0 F7200 X132.674 Y138.500
G1 F3000 X172.324 Y138.500 E2139.96199
G0 F7200 X172.674 Y138.500
G1 F3000 X176.674 Y138.500 E2140.12829
G0 F7200 X176.674 Y139.000
G1 F3000 X172.674 Y139.000 E2140.29459
G0 F7200 X172.324 Y139.000
G1 F3000 X132.674 Y139.000 E2141.94305
G0 F7200 X132.324 Y139.000
G1 F3000 X128.324 Y139.000 E2142.10935
G0 F7200 X128.324 Y139.500
G1 F3000 X132.324 Y139.500 E2142.27565
G0 F7200 X132.674 Y139.500
G1 F3000 X172.324 Y139.500 E2143.92410
G0 F7200 X172.674 Y139.500
G1 F3000 X176.674 Y139.500 E2144.09040
G1 F2100 E2143.69040
G0 F7200 X176.674 Y124.000
G1 F2100 E2144.09040
G1 F3000 X172.674 Y124.000 E2144.25670
G0 F7200 X172.674 Y123.500
G1 F3000 X176.674 Y123.500 E2144.42300
G0 F7200 X176.674 Y123.000
G1 F3000 X128.324 Y123.000 E2146.43316
G0 F7200 X128.324 Y123.500
G1 F3000 X132.324 Y123.500 E2146.59946
G0 F7200 X132.674 Y123.500
G1 F3000 X172.324 Y123.500 E2148.24792
G1 F2100 E2147.84792
G0 F7200 X176.674 Y122.500
G1 F2100 E2148.24792
G1 F3000 X128.324 Y122.500 E2150.25808
G0 F7200 X128.324 Y122.000
G1 F3000 X176.674 Y122.000 E2152.26824
G0 F7200 X176.674 Y121.500
G1 F3000 X128.324 Y121.500 E2154.27840
G0 F7200 X128.324 Y121.000
G1 F3000 X176.674 Y121.000 E2156.28856
G0 F7200 X176.674 Y120.500
G1 F3000 X128.324 Y120.500 E2158.29872
G0 F7200 X128.324 Y120.000
G1 F3000 X176.674 Y120.000 E2160.30888
G0 F7200 X176.674 Y119.500
G1 F3000 X128.324 Y119.500 E2162.31904
G0 F7200 X128.324 Y119.000
G1 F3000 X176.674 Y119.000 E2164.32920
G1 F2100 E2163.92920
G0 F7200 X176.674 Y140.000
G1 F2100 E2164.32920
G1 F3000 X172.674 Y140.000 E2164.49550
G0 F7200 X172.324 Y140.000
G1 F3000 X132.674 Y140.000 E2166.14395
G0 F7200 X132.324 Y140.000
G1 F3000 X128.324 Y140.000 E2166.31025
G0 F7200 X128.324 Y140.500
G1 F3000 X132.324 Y140.500 E2166.47655
G0 F7200 X132.674 Y140.500
G1 F3000 X172.324 Y140.500 E2168.12501
G0 F7200 X172.674 Y140.500
G1 F3000 X176.674 Y140.500 E2168.29131
G0 F7200 X176.674 Y141.000
G1 F3000 X172.674 Y141.000 E2168.45761
G0 F7200 X172.324 Y141.000
G1 F3000 X132.674 Y141.000 E2170.10607
G0 F7200 X132.324 Y141.000
G1 F3000 X128.324 Y141.000 E2170.27237
G0 F7200 X128.324 Y141.500
G1 F3000 X132.324 Y141.500 E2170.43867
G0 F7200 X132.674 Y141.500
G1 F3000 X172.324 Y141.500 E2172.08712
G0 F7200 X172.674 Y141.500
G1 F3000 X176.674 Y141.500 E2172.25342
G0 F7200 X176.674 Y142.000
G1 F3000 X172.674 Y142.000 E2172.41972
G0 F7200 X172.324 Y142.000
G1 F3000 X132.674 Y142.000 E2174.06818
G0 F7200 X132.324 Y142.000
G1 F3000 X128.324 Y142.000 E2174.23448
G0 F7200 X128.324 Y142.500
G1 F3000 X132.324 Y142.500 E2174.40078
G0 F7200 X132.674 Y142.500
G1 F3000 X172.324 Y142.500 E2176.04924
G0 F7200 X172.674 Y142.500
G1 F3000 X176.674 Y142.500 E2176.21554
G0 F7200 X176.674 Y143.000
G1 F3000 X172.674 Y143.000 E2176.38184
G0 F7200 X172.324 Y143.000
G1 F3000 X132.674 Y143.000 E2178.03029
G0 F7200 X132.324 Y143.000
G1 F3000 X128.324 Y143.000 E2178.19659
G0 F7200 X128.324 Y143.500
G1 F3000 X132.324 Y143.500 E2178.36289
G0 F7200 X132.674 Y143.500
G1 F3000 X172.324 Y143.500 E2180.01135
G0 F7200 X172.674 Y143.500
G1 F3000 X176.674 Y143.500 E2180.17765
G0 F7200 X176.674 Y144.000
G1 F3000 X172.674 Y144.000 E2180.34395
G0 F7200 X172.324 Y144.000
G1 F3000 X132.674 Y144.000 E2181.99241
G0 F7200 X132.324 Y144.000
G1 F3000 X128.324 Y144.000 E2182.15871
G0 F7200 X128.324 Y144.500
G1 F3000 X132.324 Y144.500 E2182.32501
G0 F7200 X132.674 Y144.500
G1 F3000 X172.324 Y144.500 E2183.97346
G0 F7200 X172.674 Y144.500
G1 F3000 X176.674 Y144.500 E2184.13976
G0 F7200 X176.674 Y145.000
G1 F3000 X172.674 Y145.000 E2184.30606
G0 F7200 X172.324 Y145.000
G1 F3000 X132.674 Y145.000 E2185.95452
G0 F7200 X132.324 Y145.000
G1 F3000 X128.324 Y145.000 E2186.12082
G0 F7200 X128.324 Y145.500
G1 F3000 X132.324 Y145.500 E2186.28712
G0 F7200 X132.674 Y145.500
G1 F3000 X172.324 Y145.500 E2187.93558
G0 F7200 X172.674 Y145.500
G1 F3000 X176.674 Y145.500 E2188.10188
G0 F7200 X176.674 Y146.000
G1 F3000 X172.674 Y146.000 E2188.26818
G0 F7200 X172.324 Y146.000
G1 F3000 X132.674 Y146.000 E2189.91663
G0 F7200 X132.324 Y146.000
G1 F3000 X128.324 Y146.000 E2190.08293
G0 F7200 X128.324 Y146.500
G1 F3000 X132.324 Y146.500 E2190.24923
G0 F7200 X132.674 Y146.500
G1 F3000 X172.324 Y146.500 E2191.89769
G0 F7200 X172.674 Y146.500
G1 F3000 X176.674 Y146.500 E2192.06399
G0 F7200 X176.674 Y147.000
G1 F3000 X172.674 Y147.000 E2192.23029
G0 F7200 X172.324 Y147.000
G1 F3000 X132.674 Y147.000 E2193.87875
G0 F7200 X132.324 Y147.000
G1 F3000 X128.324 Y147.000 E2194.04505
G0 F7200 X128.324 Y147.500
G1 F3000 X132.324 Y147.500 E2194.21135
G0 F7200 X132.674 Y147.500
G1 F3000 X172.324 Y147.500 E2195.85980
G0 F7200 X172.674 Y147.500
G1 F3000 X176.674 Y147.500 E2196.02610
G0 F7200 X176.674 Y148.000
G1 F3000 X172.674 Y148.000 E2196.19241
G0 F7200 X172.324 Y148.000
G1 F3000 X132.674 Y148.000 E2197.84086
G0 F7200 X132.324 Y148.000
G1 F3000 X128.324 Y148.000 E2198.00716
G0 F7200 X128.324 Y148.500
G1 F3000 X132.324 Y148.500 E2198.17346
G0 F7200 X132.674 Y148.500
G1 F3000 X172.324 Y148.500 E2199.82192
G0 F7200 X172.674 Y148.500
G1 F3000 X176.674 Y148.500 E2199.98822
G0 F7200 X176.674 Y149.000
G1 F3000 X172.674 Y149.000 E2200.15452
G0 F7200 X172.324 Y149.000
G1 F3000 X132.674 Y149.000 E2201.80297
G0 F7200 X132.324 Y149.000
G1 F3000 X128.324 Y149.000 E2201.96927
G0 F7200 X128.324 Y149.500
G1 F3000 X132.324 Y149.500 E2202.13558
G0 F7200 X132.674 Y149.500
G1 F3000 X172.324 Y149.500 E2203.78403
G0 F7200 X172.674 Y149.500
G1 F3000 X176.674 Y149.500 E2203.95033
G0 F7200 X176.674 Y150.000
G1 F3000 X172.674 Y150.000 E2204.11663
G0 F7200 X172.324 Y150.000
G1 F3000 X132.674 Y150.000 E2205.76509
G0 F7200 X132.324 Y150.000
G1 F3000 X128.324 Y150.000 E2205.93139
G0 F7200 X128.324 Y150.500
G1 F3000 X132.324 Y150.500 E2206.09769
G0 F7200 X132.674 Y150.500
G1 F3000 X172.324 Y150.500 E2207.74614
G0 F7200 X172.674 Y150.500
G1 F3000 X176.674 Y150.500 E2207.91245
G0 F7200 X176.674 Y151.000
G1 F3000 X172.674 Y151.000 E2208.07875
G0 F7200 X172.324 Y151.000
G1 F3000 X132.674 Y151.000 E2209.72720
G0 F7200 X132.324 Y151.000
G1 F3000 X128.324 Y151.000 E2209.89350
G0 F7200 X128.324 Y151.500
G1 F3000 X132.324 Y151.500 E2210.05980
G0 F7200 X132.674 Y151.500
G1 F3000 X172.324 Y151.500 E2211.70826
G0 F7200 X172.674 Y151.500
G1 F3000 X176.674 Y151.500 E2211.87456
G0 F7200 X176.674 Y152.000
G1 F3000 X172.674 Y152.000 E2212.04086
G0 F7200 X172.324 Y152.000
G1 F3000 X132.674 Y152.000 E2213.68931
G0 F7200 X132.324 Y152.000
G1 F3000 X128.324 Y152.000 E2213.85562
G0 F7200 X128.324 Y152.500
G1 F3000 X132.324 Y152.500 E2214.02192
G0 F7200 X132.674 Y152.500
G1 F3000 X172.324 Y152.500 E2215.67037
G0 F7200 X172.674 Y152.500
G1 F3000 X176.674 Y152.500 E2215.83667
G0 F7200 X176.674 Y153.000
G1 F3000 X172.674 Y153.000 E2216.00297
G0 F7200 X172.324 Y153.000
G1 F3000 X132.674 Y153.000 E2217.65143
G0 F7200 X132.324 Y153.000
G1 F3000 X128.324 Y153.000 E2217.81773
G0 F7200 X128.324 Y153.500
G1 F3000 X132.324 Y153.500 E2217.98403
G0 F7200 X132.674 Y153.500
G1 F3000 X172.324 Y153.500 E2219.63249
G0 F7200 X172.674 Y153.500
G1 F3000 X176.674 Y153.500 E2219.79879
G0 F7200 X176.674 Y154.000
G1 F3000 X172.674 Y154.000 E2219.96509
G0 F7200 X172.324 Y154.000
G1 F3000 X132.674 Y154.000 E2221.61354
G0 F7200 X132.324 Y154.000
G1 F3000 X128.324 Y154.000 E2221.77984
G0 F7200 X128.324 Y154.500
G1 F3000 X132.324 Y154.500 E2221.94614
G0 F7200 X132.674 Y154.500
G1 F3000 X172.324 Y154.500 E2223.59460
G0 F7200 X172.674 Y154.500
G1 F3000 X176.674 Y154.500 E2223.76090
G0 F7200 X176.674 Y155.000
G1 F3000 X172.674 Y155.000 E2223.92720
G0 F7200 X172.324 Y155.000
G1 F3000 X132.674 Y155.000 E2225.57566
G0 F7200 X132.324 Y155.000
G1 F3000 X128.324 Y155.000 E2225.74196
G0 F7200 X128.324 Y155.500
G1 F3000 X132.324 Y155.500 E2225.90826
G0 F7200 X132.674 Y155.500
G1 F3000 X172.324 Y155.500 E2227.55671
G0 F7200 X172.674 Y155.500
G1 F3000 X176.674 Y155.500 E2227.72301
G0 F7200 X176.674 Y156.000
G1 F3000 X172.674 Y156.000 E2227.88931
G0 F7200 X172.324 Y156.000
G1 F3000 X132.674 Y156.000 E2229.53777
G0 F7200 X132.324 Y156.000
G1 F3000 X128.324 Y156.000 E2229.70407
G0 F7200 X128.324 Y156.500
G1 F3000 X132.324 Y156.500 E2229.87037
G0 F7200 X132.674 Y156.500
G1 F3000 X172.324 Y156.500 E2231.51883
G0 F7200 X172.674 Y156.500
G1 F3000 X176.674 Y156.500 E2231.68513
G0 F7200 X176.674 Y157.000
G1 F3000 X172.674 Y157.000 E2231.85143
G0 F7200 X172.324 Y157.000
G1 F3000 X132.674 Y157.000 E2233.49988
G0 F7200 X132.324 Y157.000
G1 F3000 X128.324 Y157.000 E2233.66618
G0 F7200 X128.324 Y157.500
G1 F3000 X132.324 Y157.500 E2233.83248
G0 F7200 X132.674 Y157.500
G1 F3000 X172.324 Y157.500 E2235.48094
G0 F7200 X172.674 Y157.500
G1 F3000 X176.674 Y157.500 E2235.64724
G0 F7200 X176.674 Y158.000
G1 F3000 X172.674 Y158.000 E2235.81354
G0 F7200 X172.324 Y158.000
G1 F3000 X132.674 Y158.000 E2237.46200
G0 F7200 X132.324 Y158.000
G1 F3000 X128.324 Y158.000 E2237.62830
G0 F7200 X128.324 Y158.500
G1 F3000 X132.324 Y158.500 E2237.79460
G0 F7200 X132.674 Y158.500
G1 F3000 X172.324 Y158.500 E2239.44305
G0 F7200 X172.674 Y158.500
G1 F3000 X176.674 Y158.500 E2239.60935
G0 F7200 X176.674 Y159.000
G1 F3000 X172.674 Y159.000 E2239.77565
G0 F7200 X172.324 Y159.000
G1 F3000 X132.674 Y159.000 E2241.42411
G0 F7200 X132.324 Y159.000
G1 F3000 X128.324 Y159.000 E2241.59041
G0 F7200 X128.324 Y159.500
G1 F3000 X132.324 Y159.500 E2241.75671
G0 F7200 X132.674 Y159.500
G1 F3000 X172.324 Y159.500 E2243.40517
G0 F7200 X172.674 Y159.500
G1 F3000 X176.674 Y159.500 E2243.57147
G0 F7200 X176.674 Y160.000
G1 F3000 X172.674 Y160.000 E2243.73777
G0 F7200 X172.324 Y160.000
G1 F3000 X132.674 Y160.000 E2245.38622
G0 F7200 X132.324 Y160.000
G1 F3000 X128.324 Y160.000 E2245.55252
G0 F7200 X128.324 Y160.500
G1 F3000 X132.324 Y160.500 E2245.71882
G0 F7200 X132.674 Y160.500
G1 F3000 X172.324 Y160.500 E2247.36728
G0 F7200 X172.674 Y160.500
G1 F3000 X176.674 Y160.500 E2247.53358
G0 F7200 X176.674 Y161.000
G1 F3000 X172.674 Y161.000 E2247.69988
G0 F7200 X172.324 Y161.000
G1 F3000 X132.674 Y161.000 E2249.34834
G0 F7200 X132.324 Y161.000
G1 F3000 X128.324 Y161.000 E2249.51464
G0 F7200 X128.324 Y161.500
G1 F3000 X132.324 Y161.500 E2249.68094
G0 F7200 X132.674 Y161.500
G1 F3000 X172.324 Y161.500 E2251.32939
G0 F7200 X172.674 Y161.500
G1 F3000 X176.674 Y161.500 E2251.49569
G0 F7200 X176.674 Y162.000
G1 F3000 X172.674 Y162.000 E2251.66200
G0 F7200 X172.324 Y162.000
G1 F3000 X132.674 Y162.000 E2253.31045
G0 F7200 X132.324 Y162.000
G1 F3000 X128.324 Y162.000 E2253.47675
G0 F7200 X128.324 Y162.500
G1 F3000 X132.324 Y162.500 E2253.64305
G0 F7200 X132.674 Y162.500
G1 F3000 X172.324 Y162.500 E2255.29151
G0 F7200 X172.674 Y162.500
G1 F3000 X176.674 Y162.500 E2255.45781
G0 F7200 X176.674 Y163.000
G1 F3000 X172.674 Y163.000 E2255.62411
G0 F7200 X172.324 Y163.000
G1 F3000 X132.674 Y163.000 E2257.27256
G0 F7200 X132.324 Y163.000
G1 F3000 X128.324 Y163.000 E2257.43887
G0 F7200 X128.324 Y163.500
G1 F3000 X132.324 Y163.500 E2257.60517
G0 F7200 X132.674 Y163.500
G1 F3000 X172.324 Y163.500 E2259.25362
G0 F7200 X172.674 Y163.500
G1 F3000 X176.674 Y163.500 E2259.41992
G0 F7200 X176.674 Y164.000
G1 F3000 X172.674 Y164.000 E2259.58622
G0 F7200 X172.324 Y164.000
G1 F3000 X132.674 Y164.000 E2261.23468
G0 F7200 X132.324 Y164.000
G1 F3000 X128.324 Y164.000 E2261.40098
G0 F7200 X128.324 Y164.500
G1 F3000 X132.324 Y164.500 E2261.56728
G0 F7200 X132.674 Y164.500
G1 F3000 X172.324 Y164.500 E2263.21573
G0 F7200 X172.674 Y164.500
G1 F3000 X176.674 Y164.500 E2263.38204
G0 F7200 X176.674 Y165.000
G1 F3000 X172.674 Y165.000 E2263.54834
G0 F7200 X172.324 Y165.000
G1 F3000 X132.674 Y165.000 E2265.19679
G0 F7200 X132.324 Y165.000
G1 F3000 X128.324 Y165.000 E2265.36309
G0 F7200 X128.324 Y165.500
G1 F3000 X132.324 Y165.500 E2265.52939
G0 F7200 X132.674 Y165.500
G1 F3000 X172.324 Y165.500 E2267.17785
G0 F7200 X172.674 Y165.500
G1 F3000 X176.674 Y165.500 E2267.34415
G0 F7200 X176.674 Y166.000
G1 F3000 X172.674 Y166.000 E2267.51045
G0 F7200 X172.324 Y166.000
G1 F3000 X132.674 Y166.000 E2269.15891
G0 F7200 X132.324 Y166.000
G1 F3000 X128.324 Y166.000 E2269.32521
G0 F7200 X128.324 Y166.500
G1 F3000 X132.324 Y166.500 E2269.49151
G0 F7200 X132.674 Y166.500
G1 F3000 X172.324 Y166.500 E2271.13996
G0 F7200 X172.674 Y166.500
G1 F3000 X176.674 Y166.500 E2271.30626
G0 F7200 X176.674 Y167.000
G1 F3000 X172.674 Y167.000 E2271.47256
G0 F7200 X172.324 Y167.000
G1 F3000 X132.674 Y167.000 E2273.12102
G0 F7200 X132.324 Y167.000
G1 F3000 X128.324 Y167.000 E2273.28732
G0 F7200 X128.324 Y167.500
G1 F3000 X132.324 Y167.500 E2273.45362
G0 F7200 X132.674 Y167.500
