;-- START GCODE --
;Sliced for Type A Machines Series 1
;Sliced at: Fri 24-02-2017 21:52:06
;Basic settings:
; Layer height: 0.2
; Walls: 1
; Fill: 8
; Print Speed: 50
; Support: 0
; Retraction Speed: 35
; Retraction Distance: 0.4
;Print time: 1 hour 17 minutes
;Filament used: 5.759m 17.0g
;Settings based on: Type A Machines Everyday PLA
G21        ;metric values
G90        ;absolute positioning
G28     ;move to endstops
G29		;allows for auto-levelling
G1 Z15.0 F12000 ;move the platform down 15mm
G1 X150 Y5 F7200 ;center
M140 S50 ;Prep Heat Bed
M109 S220 ;Heat To temp
M190 S50 ;Heat Bed to temp
G1 X150 Y5 Z0.3 ;move the platform to purge extrusion
G92 E0 ;zero the extruded length
G1 F200 X250 E30 ;extrude 30mm of feed stock
G92 E0 ;zero the extruded length again
G1 X150 Y150  Z25 F12000 ;recenter and begin
G1 F7200

;Layer count: 246
;LAYER:0
M107
G0 F7200 X120.650 Y110.901 Z0.200
;TYPE:SKIRT
G1 F1800 X184.350 Y110.901 E2.64834
G1 X184.350 Y194.099 E6.10731
G1 X120.650 Y194.099 E8.75565
G1 X120.650 Y110.901 E12.21462
G0 F7200 X121.150 Y111.401
G1 F1800 X183.850 Y111.401 E14.82138
G1 X183.850 Y193.599 E18.23878
G1 X121.150 Y193.599 E20.84554
G1 X121.150 Y111.401 E24.26294
G0 F7200 X121.650 Y111.901
G1 F1800 X183.350 Y111.901 E26.82812
G1 X183.350 Y193.099 E30.20394
G1 X121.650 Y193.099 E32.76913
G1 X121.650 Y111.901 E36.14495
G0 F7200 X122.150 Y112.401
G1 F1800 X182.850 Y112.401 E38.66857
G1 X182.850 Y192.599 E42.00281
G1 X122.150 Y192.599 E44.52642
G1 X122.150 Y112.401 E47.86067
G0 F7200 X122.650 Y112.901
G1 F1800 X182.350 Y112.901 E50.34271
G1 X182.350 Y192.099 E53.63538
G1 X122.650 Y192.099 E56.11741
G1 X122.650 Y112.901 E59.41008
G0 F7200 X123.150 Y113.401
G1 F1800 X181.850 Y113.401 E61.85055
G1 X181.850 Y191.599 E65.10164
G1 X123.150 Y191.599 E67.54210
G1 X123.150 Y113.401 E70.79320
G0 F7200 X123.650 Y113.901
G1 F1800 X181.350 Y113.901 E73.19209
G1 X181.350 Y191.099 E76.40161
G1 X123.650 Y191.099 E78.80049
G1 X123.650 Y113.901 E82.01001
G0 F7200 X124.150 Y114.401
G1 F1800 X180.850 Y114.401 E84.36733
G1 X180.850 Y190.599 E87.53527
G1 X124.150 Y190.599 E89.89258
G1 X124.150 Y114.401 E93.06053
G0 F7200 X124.650 Y114.901
G1 F1800 X180.350 Y114.901 E95.37626
G1 X180.350 Y190.099 E98.50263
G1 X124.650 Y190.099 E100.81837
G1 X124.650 Y114.901 E103.94474
G0 F7200 X125.150 Y115.401
G1 F1800 X179.850 Y115.401 E106.21890
G1 X179.850 Y189.599 E109.30370
G1 X125.150 Y189.599 E111.57786
G1 X125.150 Y115.401 E114.66265
G0 F7200 X126.150 Y116.401
;TYPE:WALL-INNER
G1 F1800 X178.850 Y116.401 E116.85366
G1 X178.850 Y188.599 E119.85531
G1 X126.150 Y188.599 E122.04632
G1 X126.150 Y116.401 E125.04796
G0 F7200 X127.119 Y117.397
G1 F1800 X126.727 Y117.917 E125.07504
G1 X126.482 Y118.506 E125.10156
G1 X126.396 Y119.159 E125.12894
G1 X126.489 Y119.823 E125.15682
G1 X126.744 Y120.426 E125.18404
G1 X127.147 Y120.942 E125.21126
G1 X127.666 Y121.334 E125.23830
G1 X128.256 Y121.580 E125.26487
G1 X128.909 Y121.665 E125.29225
G1 X129.573 Y121.573 E125.32012
G1 X130.177 Y121.317 E125.34739
G1 X130.692 Y120.914 E125.37458
G1 X131.084 Y120.395 E125.40162
G1 X131.330 Y119.805 E125.42820
G1 X131.415 Y119.153 E125.45554
G1 X131.323 Y118.488 E125.48345
G1 X131.067 Y117.884 E125.51072
G1 X130.664 Y117.369 E125.53791
G1 X130.144 Y116.977 E125.56498
G1 X129.555 Y116.732 E125.59150
G1 X128.903 Y116.646 E125.61885
G1 X128.238 Y116.739 E125.64676
G1 X127.635 Y116.994 E125.67398
G1 X127.119 Y117.397 E125.70120
G1 F2100 E125.30120
G0 F7200 X173.585 Y119.159
G1 F2100 E125.70120
G1 F1800 X173.678 Y119.823 E125.72908
G1 X173.933 Y120.426 E125.75630
G1 X174.336 Y120.942 E125.78352
G1 X174.855 Y121.334 E125.81056
G1 X175.445 Y121.580 E125.83713
G1 X176.098 Y121.665 E125.86451
G1 X176.762 Y121.573 E125.89238
G1 X177.366 Y121.317 E125.91965
G1 X177.881 Y120.914 E125.94684
G1 X178.273 Y120.395 E125.97388
G1 X178.519 Y119.805 E126.00046
G1 X178.604 Y119.153 E126.02779
G1 X178.512 Y118.488 E126.05571
G1 X178.256 Y117.884 E126.08298
G1 X177.853 Y117.369 E126.11017
G1 X177.333 Y116.977 E126.13724
G1 X176.744 Y116.732 E126.16376
G1 X176.092 Y116.646 E126.19110
G1 X175.427 Y116.739 E126.21902
G1 X174.824 Y116.994 E126.24624
G1 X174.308 Y117.397 E126.27346
G1 X173.916 Y117.917 E126.30053
G1 X173.671 Y118.506 E126.32706
G1 X173.585 Y119.159 E126.35444
G1 F2100 E125.95444
G0 F7200 X176.092 Y183.335
G1 F2100 E126.35444
G1 F1800 X175.427 Y183.428 E126.38236
G1 X174.824 Y183.683 E126.40958
G1 X174.308 Y184.086 E126.43680
G1 X173.916 Y184.606 E126.46387
G1 X173.671 Y185.195 E126.49039
G1 X173.585 Y185.848 E126.51777
G1 X173.678 Y186.512 E126.54565
G1 X173.933 Y187.115 E126.57287
G1 X174.336 Y187.631 E126.60009
G1 X174.855 Y188.023 E126.62713
G1 X175.445 Y188.269 E126.65371
G1 X176.098 Y188.354 E126.68108
G1 X176.762 Y188.262 E126.70895
G1 X177.366 Y188.006 E126.73623
G1 X177.881 Y187.603 E126.76341
G1 X178.273 Y187.084 E126.79046
G1 X178.519 Y186.494 E126.81703
G1 X178.604 Y185.842 E126.84437
G1 X178.512 Y185.177 E126.87228
G1 X178.256 Y184.573 E126.89955
G1 X177.853 Y184.058 E126.92674
G1 X177.333 Y183.666 E126.95381
G1 X176.744 Y183.421 E126.98034
G1 X176.092 Y183.335 E127.00768
G1 F2100 E126.60768
G0 F7200 X131.415 Y185.842
G1 F2100 E127.00768
G1 F1800 X131.323 Y185.177 E127.03559
G1 X131.067 Y184.573 E127.06286
G1 X130.664 Y184.058 E127.09005
G1 X130.144 Y183.666 E127.11712
G1 X129.555 Y183.421 E127.14364
G1 X128.903 Y183.335 E127.17099
G1 X128.238 Y183.428 E127.19890
G1 X127.635 Y183.683 E127.22612
G1 X127.119 Y184.086 E127.25334
G1 X126.727 Y184.606 E127.28042
G1 X126.482 Y185.195 E127.30694
G1 X126.396 Y185.848 E127.33432
G1 X126.489 Y186.512 E127.36220
G1 X126.744 Y187.115 E127.38942
G1 X127.147 Y187.631 E127.41664
G1 X127.666 Y188.023 E127.44368
G1 X128.256 Y188.269 E127.47025
G1 X128.909 Y188.354 E127.49763
G1 X129.573 Y188.262 E127.52550
G1 X130.177 Y188.006 E127.55277
G1 X130.692 Y187.603 E127.57996
G1 X131.084 Y187.084 E127.60700
G1 X131.330 Y186.494 E127.63358
G1 X131.415 Y185.842 E127.66092
G0 F7200 X130.910 Y185.844
;TYPE:WALL-OUTER
G1 F1800 X130.837 Y185.311 E127.68328
G1 X130.632 Y184.829 E127.70506
G1 X130.311 Y184.417 E127.72677
G1 X129.894 Y184.103 E127.74847
G1 X129.424 Y183.908 E127.76963
G1 X128.905 Y183.840 E127.79139
G1 X128.372 Y183.914 E127.81376
G1 X127.890 Y184.118 E127.83552
G1 X127.478 Y184.439 E127.85724
G1 X127.164 Y184.856 E127.87894
G1 X126.969 Y185.326 E127.90010
G1 X126.901 Y185.846 E127.92190
G1 X126.975 Y186.378 E127.94423
G1 X127.179 Y186.860 E127.96599
G1 X127.500 Y187.272 E127.98770
G1 X127.917 Y187.586 E128.00941
G1 X128.387 Y187.782 E128.03058
G1 X128.907 Y187.849 E128.05238
G1 X129.439 Y187.776 E128.07470
G1 X129.921 Y187.571 E128.09648
G1 X130.333 Y187.250 E128.11819
G1 X130.647 Y186.833 E128.13989
G1 X130.843 Y186.363 E128.16107
G1 X130.910 Y185.844 E128.18282
G1 F2100 E127.78282
G0 F7200 X125.650 Y189.099
G1 F2100 E128.18282
G1 F1800 X125.650 Y115.901 E131.22604
G1 X179.350 Y115.901 E133.45863
G1 X179.350 Y189.099 E136.50185
G1 X125.650 Y189.099 E138.73443
G1 F2100 E138.33443
G0 F7200 X174.090 Y185.846
G1 F2100 E138.73443
G1 F1800 X174.164 Y186.378 E138.75676
G1 X174.368 Y186.860 E138.77852
G1 X174.689 Y187.272 E138.80024
G1 X175.106 Y187.586 E138.82194
G1 X175.576 Y187.782 E138.84311
G1 X176.096 Y187.849 E138.86491
G1 X176.628 Y187.776 E138.88724
G1 X177.110 Y187.571 E138.90901
G1 X177.522 Y187.250 E138.93073
G1 X177.836 Y186.833 E138.95243
G1 X178.032 Y186.363 E138.97360
G1 X178.099 Y185.844 E138.99536
G1 X178.026 Y185.311 E139.01772
G1 X177.821 Y184.829 E139.03950
G1 X177.500 Y184.417 E139.06121
G1 X177.083 Y184.103 E139.08292
G1 X176.613 Y183.908 E139.10407
G1 X176.094 Y183.840 E139.12583
G1 X175.561 Y183.914 E139.14820
G1 X175.079 Y184.118 E139.16997
G1 X174.667 Y184.439 E139.19168
G1 X174.353 Y184.856 E139.21338
G1 X174.158 Y185.326 E139.23454
G1 X174.090 Y185.846 E139.25634
G1 F2100 E138.85634
G0 F7200 X176.096 Y121.160
G1 F2100 E139.25634
G1 F1800 X176.628 Y121.087 E139.27867
G1 X177.110 Y120.882 E139.30044
G1 X177.522 Y120.561 E139.32216
G1 X177.836 Y120.144 E139.34386
G1 X178.032 Y119.674 E139.36503
G1 X178.099 Y119.155 E139.38679
G1 X178.026 Y118.622 E139.40915
G1 X177.821 Y118.140 E139.43093
G1 X177.500 Y117.728 E139.45264
G1 X177.083 Y117.414 E139.47435
G1 X176.613 Y117.219 E139.49550
G1 X176.094 Y117.151 E139.51726
G1 X175.561 Y117.225 E139.53963
G1 X175.079 Y117.429 E139.56140
G1 X174.667 Y117.750 E139.58311
G1 X174.353 Y118.167 E139.60481
G1 X174.158 Y118.637 E139.62597
G1 X174.090 Y119.157 E139.64777
G1 X174.164 Y119.689 E139.67010
G1 X174.368 Y120.171 E139.69186
G1 X174.689 Y120.583 E139.71358
G1 X175.106 Y120.897 E139.73528
G1 X175.576 Y121.093 E139.75645
G1 X176.096 Y121.160 E139.77825
G1 F2100 E139.37825
G0 F7200 X130.910 Y119.155
G1 F2100 E139.77825
G1 F1800 X130.837 Y118.622 E139.80061
G1 X130.632 Y118.140 E139.82239
G1 X130.311 Y117.728 E139.84410
G1 X129.894 Y117.414 E139.86581
G1 X129.424 Y117.219 E139.88696
G1 X128.905 Y117.151 E139.90872
G1 X128.372 Y117.225 E139.93110
G1 X127.890 Y117.429 E139.95286
G1 X127.478 Y117.750 E139.97457
G1 X127.164 Y118.167 E139.99627
G1 X126.969 Y118.637 E140.01743
G1 X126.901 Y119.157 E140.03923
G1 X126.975 Y119.689 E140.06156
G1 X127.179 Y120.171 E140.08332
G1 X127.500 Y120.583 E140.10504
G1 X127.917 Y120.897 E140.12674
G1 X128.387 Y121.093 E140.14791
G1 X128.907 Y121.160 E140.16971
G1 X129.439 Y121.087 E140.19203
G1 X129.921 Y120.882 E140.21381
G1 X130.333 Y120.561 E140.23552
G1 X130.647 Y120.144 E140.25723
G1 X130.843 Y119.674 E140.27840
G1 X130.910 Y119.155 E140.30015
G1 F2100 E139.90015
G0 F7200 X126.964 Y116.575
;TYPE:FILL
G1 F2100 E140.30015
G1 F1800 X126.324 Y116.945 E140.33089
G1 F2100 E139.93089
G0 F7200 X126.324 Y188.052
G1 F2100 E140.33089
G1 F1800 X126.983 Y188.423 E140.36170
G1 X127.250 Y187.923 E140.39059
G1 X127.500 Y188.424 E140.41387
G0 F7200 X126.500 Y188.424
;TYPE:SKIN
G1 F1800 X126.500 Y186.988 E140.47357
G1 F2100 E140.07357
G0 F7200 X126.500 Y184.697
G1 F2100 E140.47357
G1 F1800 X126.500 Y120.299 E143.15093
G0 F7200 X127.000 Y121.040
G1 F1800 X127.000 Y183.956 E145.76667
G0 F7200 X127.500 Y183.567
G1 F1800 X127.500 Y121.429 E148.35007
G0 F7200 X128.000 Y121.664
G1 F1800 X128.000 Y183.340 E150.91426
G0 F7200 X128.500 Y183.215
G1 F1800 X128.500 Y121.789 E153.46806
G0 F7200 X129.000 Y121.829
G1 F1800 X129.000 Y183.170 E156.01832
G0 F7200 X129.500 Y183.236
G1 F1800 X129.500 Y121.759 E158.57424
G0 F7200 X130.000 Y121.581
G1 F1800 X130.000 Y183.416 E161.14504
G0 F7200 X130.500 Y183.714
G1 F1800 X130.500 Y121.287 E163.74045
G0 F7200 X131.000 Y120.797
G1 F1800 X131.000 Y184.202 E166.37652
G0 F7200 X131.500 Y185.180
G1 F1800 X131.500 Y119.852 E169.09255
G0 F7200 X131.500 Y118.491
G1 F1800 X131.500 Y116.576 E169.17216
G0 F7200 X131.000 Y116.576
G1 F1800 X130.750 Y117.269 E169.21112
G1 X130.250 Y116.576 E169.22974
G1 X130.000 Y116.727 E169.24188
G1 F2100 E168.84188
G0 F7200 X132.000 Y116.576
G1 F2100 E169.24188
G1 F1800 X132.000 Y188.424 E172.22898
G0 F7200 X131.500 Y188.424
G1 F1800 X131.500 Y186.541 E172.30726
G0 F7200 X131.000 Y187.486
G1 F1800 X130.750 Y188.424 E172.34625
G1 X130.250 Y188.123 E172.36488
G1 X130.000 Y188.424 E172.38115
G1 F2100 E171.98115
G0 F7200 X132.500 Y188.424
G1 F2100 E172.38115
G1 F1800 X132.500 Y116.576 E175.36824
G0 F7200 X133.000 Y116.576
G1 F1800 X133.000 Y188.424 E178.35534
G0 F7200 X133.500 Y188.424
G1 F1800 X133.500 Y116.576 E181.34243
G0 F7200 X134.000 Y116.576
G1 F1800 X134.000 Y188.424 E184.32952
G0 F7200 X134.500 Y188.424
G1 F1800 X134.500 Y116.576 E187.31661
G0 F7200 X135.000 Y116.576
G1 F1800 X135.000 Y188.424 E190.30371
G0 F7200 X135.500 Y188.424
G1 F1800 X135.500 Y116.576 E193.29080
G0 F7200 X136.000 Y116.576
G1 F1800 X136.000 Y188.424 E196.27789
G0 F7200 X136.500 Y188.424
G1 F1800 X136.500 Y116.576 E199.26499
G0 F7200 X137.000 Y116.576
G1 F1800 X137.000 Y188.424 E202.25208
G0 F7200 X137.500 Y188.424
G1 F1800 X137.500 Y116.576 E205.23917
G0 F7200 X138.000 Y116.576
G1 F1800 X138.000 Y188.424 E208.22626
G0 F7200 X138.500 Y188.424
G1 F1800 X138.500 Y116.576 E211.21336
G0 F7200 X139.000 Y116.576
G1 F1800 X139.000 Y188.424 E214.20045
G0 F7200 X139.500 Y188.424
G1 F1800 X139.500 Y116.576 E217.18754
G1 F2100 E216.78754
G0 F7200 X127.500 Y116.576
G1 F2100 E217.18754
G1 F1800 X127.250 Y116.727 E217.20010
G1 X127.000 Y117.267 E217.22484
G0 F7200 X126.500 Y116.576
G1 F1800 X126.500 Y118.008 E217.28437
G1 F2100 E216.88437
G0 F7200 X140.000 Y116.576
G1 F2100 E217.28437
G1 F1800 X140.000 Y188.424 E220.27147
G0 F7200 X140.500 Y188.424
G1 F1800 X140.500 Y116.576 E223.25856
G0 F7200 X141.000 Y116.576
G1 F1800 X141.000 Y188.424 E226.24565
G0 F7200 X141.500 Y188.424
G1 F1800 X141.500 Y116.576 E229.23274
G0 F7200 X142.000 Y116.576
G1 F1800 X142.000 Y188.424 E232.21984
G0 F7200 X142.500 Y188.424
G1 F1800 X142.500 Y116.576 E235.20693
G0 F7200 X143.000 Y116.576
G1 F1800 X143.000 Y188.424 E238.19402
G0 F7200 X143.500 Y188.424
G1 F1800 X143.500 Y116.576 E241.18111
G0 F7200 X144.000 Y116.576
G1 F1800 X144.000 Y188.424 E244.16821
G0 F7200 X144.500 Y188.424
G1 F1800 X144.500 Y116.576 E247.15530
G0 F7200 X145.000 Y116.576
G1 F1800 X145.000 Y188.424 E250.14239
G0 F7200 X145.500 Y188.424
G1 F1800 X145.500 Y116.576 E253.12949
G0 F7200 X146.000 Y116.576
G1 F1800 X146.000 Y188.424 E256.11658
G0 F7200 X146.500 Y188.424
G1 F1800 X146.500 Y116.576 E259.10367
G0 F7200 X147.000 Y116.576
G1 F1800 X147.000 Y188.424 E262.09076
G0 F7200 X147.500 Y188.424
G1 F1800 X147.500 Y116.576 E265.07786
G0 F7200 X148.000 Y116.576
G1 F1800 X148.000 Y188.424 E268.06495
G0 F7200 X148.500 Y188.424
G1 F1800 X148.500 Y116.576 E271.05204
G0 F7200 X149.000 Y116.576
G1 F1800 X149.000 Y188.424 E274.03913
G0 F7200 X149.500 Y188.424
G1 F1800 X149.500 Y116.576 E277.02623
G0 F7200 X150.000 Y116.576
G1 F1800 X150.000 Y188.424 E280.01332
G0 F7200 X150.500 Y188.424
G1 F1800 X150.500 Y116.576 E283.00041
G0 F7200 X151.000 Y116.576
G1 F1800 X151.000 Y188.424 E285.98751
G0 F7200 X151.500 Y188.424
G1 F1800 X151.500 Y116.576 E288.97460
G0 F7200 X152.000 Y116.576
G1 F1800 X152.000 Y188.424 E291.96169
G0 F7200 X152.500 Y188.424
G1 F1800 X152.500 Y116.576 E294.94878
G0 F7200 X153.000 Y116.576
G1 F1800 X153.000 Y188.424 E297.93588
G0 F7200 X153.500 Y188.424
G1 F1800 X153.500 Y116.576 E300.92297
G0 F7200 X154.000 Y116.576
G1 F1800 X154.000 Y188.424 E303.91006
G0 F7200 X154.500 Y188.424
G1 F1800 X154.500 Y116.576 E306.89715
G0 F7200 X155.000 Y116.576
G1 F1800 X155.000 Y188.424 E309.88425
G0 F7200 X155.500 Y188.424
G1 F1800 X155.500 Y116.576 E312.87134
G0 F7200 X156.000 Y116.576
G1 F1800 X156.000 Y188.424 E315.85843
G0 F7200 X156.500 Y188.424
G1 F1800 X156.500 Y116.576 E318.84553
G0 F7200 X157.000 Y116.576
G1 F1800 X157.000 Y188.424 E321.83262
G0 F7200 X157.500 Y188.424
G1 F1800 X157.500 Y116.576 E324.81971
G0 F7200 X158.000 Y116.576
G1 F1800 X158.000 Y188.424 E327.80680
G0 F7200 X158.500 Y188.424
G1 F1800 X158.500 Y116.576 E330.79390
G0 F7200 X159.000 Y116.576
G1 F1800 X159.000 Y188.424 E333.78099
G0 F7200 X159.500 Y188.424
G1 F1800 X159.500 Y116.576 E336.76808
G0 F7200 X160.000 Y116.576
G1 F1800 X160.000 Y188.424 E339.75517
G0 F7200 X160.500 Y188.424
G1 F1800 X160.500 Y116.576 E342.74227
G0 F7200 X161.000 Y116.576
G1 F1800 X161.000 Y188.424 E345.72936
G0 F7200 X161.500 Y188.424
G1 F1800 X161.500 Y116.576 E348.71645
G0 F7200 X162.000 Y116.576
G1 F1800 X162.000 Y188.424 E351.70355
G0 F7200 X162.500 Y188.424
G1 F1800 X162.500 Y116.576 E354.69064
G0 F7200 X163.000 Y116.576
G1 F1800 X163.000 Y188.424 E357.67773
G0 F7200 X163.500 Y188.424
G1 F1800 X163.500 Y116.576 E360.66482
G0 F7200 X164.000 Y116.576
G1 F1800 X164.000 Y188.424 E363.65192
G0 F7200 X164.500 Y188.424
G1 F1800 X164.500 Y116.576 E366.63901
G0 F7200 X165.000 Y116.576
G1 F1800 X165.000 Y188.424 E369.62610
G0 F7200 X165.500 Y188.424
G1 F1800 X165.500 Y116.576 E372.61319
G0 F7200 X166.000 Y116.576
G1 F1800 X166.000 Y188.424 E375.60029
G0 F7200 X166.500 Y188.424
G1 F1800 X166.500 Y116.576 E378.58738
G0 F7200 X167.000 Y116.576
G1 F1800 X167.000 Y188.424 E381.57447
G0 F7200 X167.500 Y188.424
G1 F1800 X167.500 Y116.576 E384.56157
G0 F7200 X168.000 Y116.576
G1 F1800 X168.000 Y188.424 E387.54866
G0 F7200 X168.500 Y188.424
G1 F1800 X168.500 Y116.576 E390.53575
G0 F7200 X169.000 Y116.576
G1 F1800 X169.000 Y188.424 E393.52284
G0 F7200 X169.500 Y188.424
G1 F1800 X169.500 Y116.576 E396.50994
G0 F7200 X170.000 Y116.576
G1 F1800 X170.000 Y188.424 E399.49703
G0 F7200 X170.500 Y188.424
G1 F1800 X170.500 Y116.576 E402.48412
G0 F7200 X171.000 Y116.576
G1 F1800 X171.000 Y188.424 E405.47121
G0 F7200 X171.500 Y188.424
G1 F1800 X171.500 Y116.576 E408.45831
G0 F7200 X172.000 Y116.576
G1 F1800 X172.000 Y188.424 E411.44540
G0 F7200 X172.500 Y188.424
G1 F1800 X172.500 Y116.576 E414.43249
G0 F7200 X173.000 Y116.576
G1 F1800 X173.000 Y188.424 E417.41959
G0 F7200 X173.500 Y188.424
G1 F1800 X173.500 Y186.502 E417.49949
G0 F7200 X174.000 Y187.487
G1 F1800 X174.250 Y188.424 E417.53844
G1 X174.750 Y188.124 E417.55711
G1 X175.000 Y188.424 E417.57334
G1 F2100 E417.17334
G0 F7200 X177.500 Y188.424
G1 F2100 E417.57334
G1 F1800 X177.750 Y188.273 E417.58585
G1 X178.000 Y187.733 E417.61059
G0 F7200 X178.500 Y188.424
G1 F1800 X178.500 Y186.994 E417.67004
G1 F2100 E417.27004
G0 F7200 X178.500 Y184.700
G1 F2100 E417.67004
G1 F1800 X178.500 Y120.305 E420.34727
G0 F7200 X178.000 Y121.044
G1 F1800 X178.000 Y183.960 E422.96302
G0 F7200 X177.500 Y183.572
G1 F1800 X177.500 Y121.434 E425.54642
G0 F7200 X177.000 Y121.661
G1 F1800 X177.000 Y183.337 E428.11061
G0 F7200 X176.500 Y183.211
G1 F1800 X176.500 Y121.786 E430.66436
G0 F7200 X176.000 Y121.830
G1 F1800 X176.000 Y183.171 E433.21462
G0 F7200 X175.500 Y183.242
G1 F1800 X175.500 Y121.765 E435.77054
G0 F7200 X175.000 Y121.585
G1 F1800 X175.000 Y183.419 E438.34130
G0 F7200 X174.500 Y183.714
G1 F1800 X174.500 Y121.286 E440.93675
G0 F7200 X174.000 Y120.798
G1 F1800 X174.000 Y184.203 E443.57283
G0 F7200 X173.500 Y185.150
G1 F1800 X173.500 Y119.813 E446.28922
G0 F7200 X173.500 Y118.461
G1 F1800 X173.500 Y116.576 E446.36759
G0 F7200 X174.000 Y116.576
G1 F1800 X174.250 Y117.269 E446.40661
G1 X174.750 Y116.576 E446.42523
G1 X175.000 Y116.730 E446.43744
G1 F2100 E446.03744
G0 F7200 X177.500 Y116.883
G1 F2100 E446.43744
G1 F1800 X177.750 Y116.576 E446.45021
G1 X178.000 Y117.271 E446.48092
G0 F7200 X178.500 Y116.576
G1 F1800 X178.500 Y118.011 E446.54058
;LAYER:1
M106 S10
G0 F7200 X178.267 Y117.901 Z0.400
;TYPE:WALL-INNER
G1 F2040 X177.869 Y117.381 E446.56780
G1 X177.349 Y116.983 E446.59503
G1 X176.744 Y116.732 E446.62226
G1 X176.095 Y116.646 E446.64948
G1 X175.445 Y116.732 E446.67674
G1 X174.840 Y116.983 E446.70397
G1 X174.320 Y117.381 E446.73119
G1 X173.922 Y117.901 E446.75842
G1 X173.671 Y118.506 E446.78565
G1 X173.585 Y119.156 E446.81291
G1 X173.671 Y119.805 E446.84013
G1 X173.922 Y120.410 E446.86736
G1 X174.320 Y120.930 E446.89459
G1 X174.840 Y121.328 E446.92181
G1 X175.445 Y121.580 E446.94906
G1 X176.095 Y121.664 E446.97631
G1 X176.744 Y121.580 E447.00351
G1 X177.349 Y121.328 E447.03076
G1 X177.869 Y120.930 E447.05799
G1 X178.267 Y120.410 E447.08521
G1 X178.519 Y119.805 E447.11246
G1 X178.603 Y119.156 E447.13967
G1 X178.519 Y118.506 E447.16691
G1 X178.267 Y117.901 E447.19416
G1 F2100 E446.79416
G0 F7200 X178.850 Y116.401
G1 F2100 E447.19416
G1 F2040 X178.850 Y188.599 E450.19581
G1 X126.150 Y188.599 E452.38682
G1 X126.150 Y116.401 E455.38846
G1 X178.850 Y116.401 E457.57947
G1 F2100 E457.17947
G0 F7200 X131.414 Y119.156
G1 F2100 E457.57947
G1 F2040 X131.330 Y118.506 E457.60672
G1 X131.078 Y117.901 E457.63397
G1 X130.680 Y117.381 E457.66119
G1 X130.160 Y116.983 E457.68842
G1 X129.555 Y116.732 E457.71565
G1 X128.906 Y116.646 E457.74287
G1 X128.256 Y116.732 E457.77013
G1 X127.651 Y116.983 E457.79736
G1 X127.131 Y117.381 E457.82458
G1 X126.733 Y117.901 E457.85181
G1 X126.482 Y118.506 E457.87904
G1 X126.396 Y119.156 E457.90630
G1 X126.482 Y119.805 E457.93352
G1 X126.733 Y120.410 E457.96075
G1 X127.131 Y120.930 E457.98797
G1 X127.651 Y121.328 E458.01520
G1 X128.256 Y121.580 E458.04245
G1 X128.906 Y121.664 E458.06970
G1 X129.555 Y121.580 E458.09690
G1 X130.160 Y121.328 E458.12415
G1 X130.680 Y120.930 E458.15138
G1 X131.078 Y120.410 E458.17860
G1 X131.330 Y119.805 E458.20585
G1 X131.414 Y119.156 E458.23306
G1 F2100 E457.83306
G0 F7200 X128.906 Y183.335
G1 F2100 E458.23306
G1 F2040 X128.256 Y183.421 E458.26031
G1 X127.651 Y183.672 E458.28755
G1 X127.131 Y184.070 E458.31477
G1 X126.733 Y184.590 E458.34200
G1 X126.482 Y185.195 E458.36923
G1 X126.396 Y185.845 E458.39649
G1 X126.482 Y186.494 E458.42371
G1 X126.733 Y187.099 E458.45094
G1 X127.131 Y187.619 E458.47816
G1 X127.651 Y188.017 E458.50539
G1 X128.256 Y188.269 E458.53263
G1 X128.906 Y188.353 E458.55988
G1 X129.555 Y188.269 E458.58709
G1 X130.160 Y188.017 E458.61434
G1 X130.680 Y187.619 E458.64156
G1 X131.078 Y187.099 E458.66879
G1 X131.330 Y186.494 E458.69604
G1 X131.414 Y185.845 E458.72324
G1 X131.330 Y185.195 E458.75049
G1 X131.078 Y184.590 E458.77774
G1 X130.680 Y184.070 E458.80496
G1 X130.160 Y183.672 E458.83219
G1 X129.555 Y183.421 E458.85942
G1 X128.906 Y183.335 E458.88664
G1 F2100 E458.48664
G0 F7200 X173.585 Y185.845
G1 F2100 E458.88664
G1 F2040 X173.671 Y186.494 E458.91386
G1 X173.922 Y187.099 E458.94109
G1 X174.320 Y187.619 E458.96831
G1 X174.840 Y188.017 E458.99554
G1 X175.445 Y188.269 E459.02279
G1 X176.095 Y188.353 E459.05003
G1 X176.744 Y188.269 E459.07724
G1 X177.349 Y188.017 E459.10449
G1 X177.869 Y187.619 E459.13171
G1 X178.267 Y187.099 E459.15894
G1 X178.519 Y186.494 E459.18619
G1 X178.603 Y185.845 E459.21339
G1 X178.519 Y185.195 E459.24064
G1 X178.267 Y184.590 E459.26789
G1 X177.869 Y184.070 E459.29511
G1 X177.349 Y183.672 E459.32234
G1 X176.744 Y183.421 E459.34957
G1 X176.095 Y183.335 E459.37679
G1 X175.445 Y183.421 E459.40405
G1 X174.840 Y183.672 E459.43128
G1 X174.320 Y184.070 E459.45851
G1 X173.922 Y184.590 E459.48573
G1 X173.671 Y185.195 E459.51296
G1 X173.585 Y185.845 E459.54022
G0 F7200 X174.090 Y185.845
;TYPE:WALL-OUTER
G1 F2040 X174.158 Y186.363 E459.56194
G1 X174.359 Y186.847 E459.58373
G1 X174.677 Y187.262 E459.60547
G1 X175.092 Y187.580 E459.62720
G1 X175.576 Y187.782 E459.64901
G1 X176.095 Y187.849 E459.67076
G1 X176.613 Y187.782 E459.69248
G1 X177.097 Y187.580 E459.71428
G1 X177.512 Y187.262 E459.73602
G1 X177.830 Y186.847 E459.75776
G1 X178.032 Y186.363 E459.77956
G1 X178.099 Y185.845 E459.80128
G1 X178.032 Y185.326 E459.82303
G1 X177.830 Y184.842 E459.84484
G1 X177.512 Y184.427 E459.86658
G1 X177.097 Y184.109 E459.88831
G1 X176.613 Y183.908 E459.91010
G1 X176.095 Y183.840 E459.93182
G1 X175.576 Y183.908 E459.95358
G1 X175.092 Y184.109 E459.97537
G1 X174.677 Y184.427 E459.99711
G1 X174.359 Y184.842 E460.01885
G1 X174.158 Y185.326 E460.04063
G1 X174.090 Y185.845 E460.06240
G1 F2100 E459.66240
G0 F7200 X179.350 Y189.099
G1 F2100 E460.06240
G1 F2040 X125.650 Y189.099 E462.29498
G1 X125.650 Y115.901 E465.33820
G1 X179.350 Y115.901 E467.57079
G1 X179.350 Y189.099 E470.61401
G1 F2100 E470.21401
G0 F7200 X130.910 Y185.845
G1 F2100 E470.61401
G1 F2040 X130.843 Y185.326 E470.63576
G1 X130.641 Y184.842 E470.65757
G1 X130.323 Y184.427 E470.67931
G1 X129.908 Y184.109 E470.70104
G1 X129.424 Y183.908 E470.72283
G1 X128.906 Y183.840 E470.74455
G1 X128.387 Y183.908 E470.76631
G1 X127.903 Y184.109 E470.78810
G1 X127.488 Y184.427 E470.80984
G1 X127.170 Y184.842 E470.83158
G1 X126.969 Y185.326 E470.85336
G1 X126.901 Y185.845 E470.87513
G1 X126.969 Y186.363 E470.89685
G1 X127.170 Y186.847 E470.91863
G1 X127.488 Y187.262 E470.94037
G1 X127.903 Y187.580 E470.96211
G1 X128.387 Y187.782 E470.98391
G1 X128.906 Y187.849 E471.00567
G1 X129.424 Y187.782 E471.02738
G1 X129.908 Y187.580 E471.04919
G1 X130.323 Y187.262 E471.07093
G1 X130.641 Y186.847 E471.09266
G1 X130.843 Y186.363 E471.11447
G1 X130.910 Y185.845 E471.13618
G1 F2100 E470.73618
G0 F7200 X128.906 Y121.160
G1 F2100 E471.13618
G1 F2040 X129.424 Y121.093 E471.15790
G1 X129.908 Y120.891 E471.17970
G1 X130.323 Y120.573 E471.20144
G1 X130.641 Y120.158 E471.22318
G1 X130.843 Y119.674 E471.24498
G1 X130.910 Y119.156 E471.26670
G1 X130.843 Y118.637 E471.28845
G1 X130.641 Y118.153 E471.31026
G1 X130.323 Y117.738 E471.33199
G1 X129.908 Y117.420 E471.35373
G1 X129.424 Y117.219 E471.37552
G1 X128.906 Y117.151 E471.39724
G1 X128.387 Y117.219 E471.41900
G1 X127.903 Y117.420 E471.44079
G1 X127.488 Y117.738 E471.46253
G1 X127.170 Y118.153 E471.48426
G1 X126.969 Y118.637 E471.50605
G1 X126.901 Y119.156 E471.52781
G1 X126.969 Y119.674 E471.54953
G1 X127.170 Y120.158 E471.57132
G1 X127.488 Y120.573 E471.59306
G1 X127.903 Y120.891 E471.61480
G1 X128.387 Y121.093 E471.63660
G1 X128.906 Y121.160 E471.65836
G1 F2100 E471.25836
G0 F7200 X174.090 Y119.156
G1 F2100 E471.65836
G1 F2040 X174.158 Y119.674 E471.68008
G1 X174.359 Y120.158 E471.70187
G1 X174.677 Y120.573 E471.72360
G1 X175.092 Y120.891 E471.74534
G1 X175.576 Y121.093 E471.76714
G1 X176.095 Y121.160 E471.78890
G1 X176.613 Y121.093 E471.81062
G1 X177.097 Y120.891 E471.83242
G1 X177.512 Y120.573 E471.85416
G1 X177.830 Y120.158 E471.87589
G1 X178.032 Y119.674 E471.89770
G1 X178.099 Y119.156 E471.91941
G1 X178.032 Y118.637 E471.94117
G1 X177.830 Y118.153 E471.96298
G1 X177.512 Y117.738 E471.98471
G1 X177.097 Y117.420 E472.00645
G1 X176.613 Y117.219 E472.02824
G1 X176.095 Y117.151 E472.04996
G1 X175.576 Y117.219 E472.07172
G1 X175.092 Y117.420 E472.09351
G1 X174.677 Y117.738 E472.11525
G1 X174.359 Y118.153 E472.13698
G1 X174.158 Y118.637 E472.15877
G1 X174.090 Y119.156 E472.18053
G1 F2100 E471.78053
G0 F7200 X127.248 Y116.575
;TYPE:FILL
G1 F2100 E472.18053
G1 F2040 X126.324 Y117.109 E472.22490
G1 F2100 E471.82490
G0 F7200 X126.324 Y187.888
G1 F2100 E472.22490
G1 F2040 X127.250 Y188.423 E472.26936
G0 F7200 X127.343 Y188.000
;TYPE:SKIN
G1 F2040 X126.324 Y188.000 E472.31173
G0 F7200 X126.324 Y187.500
G1 F2040 X126.661 Y187.250 E472.33242
G1 X126.324 Y187.000 E472.34986
G1 F2100 E471.94986
G0 F7200 X126.324 Y184.500
G1 F2100 E472.34986
G1 F2040 X126.452 Y184.250 E472.36054
G1 X126.963 Y184.000 E472.38419
G0 F7200 X126.324 Y183.500
G1 F2040 X127.604 Y183.500 E472.43740
G0 F7200 X126.324 Y183.000
G1 F2040 X178.674 Y183.000 E474.61386
G0 F7200 X178.674 Y183.500
G1 F2040 X177.393 Y183.500 E474.66712
G0 F7200 X178.034 Y184.000
G1 F2040 X178.674 Y184.250 E474.69369
G1 X178.417 Y184.500 E474.70860
G1 F2100 E474.30860
G0 F7200 X178.674 Y182.500
G1 F2100 E474.70860
G1 F2040 X126.324 Y182.500 E476.88506
G0 F7200 X126.324 Y182.000
G1 F2040 X178.674 Y182.000 E479.06152
G0 F7200 X178.674 Y181.500
G1 F2040 X126.324 Y181.500 E481.23798
G0 F7200 X126.324 Y181.000
G1 F2040 X178.674 Y181.000 E483.41444
G0 F7200 X178.674 Y180.500
G1 F2040 X126.324 Y180.500 E485.59090
G0 F7200 X126.324 Y180.000
G1 F2040 X178.674 Y180.000 E487.76736
G1 F2100 E487.36736
G0 F7200 X174.793 Y183.500
G1 F2100 E487.76736
G1 F2040 X130.204 Y183.500 E489.62115
G0 F7200 X130.845 Y184.000
G1 F2040 X174.152 Y184.000 E491.42165
G0 F7200 X173.769 Y184.500
G1 F2040 X131.227 Y184.500 E493.19034
G0 F7200 X131.437 Y185.000
G1 F2040 X173.560 Y185.000 E494.94161
G0 F7200 X173.452 Y185.500
G1 F2040 X131.545 Y185.500 E496.68390
G0 F7200 X131.570 Y186.000
G1 F2040 X173.428 Y186.000 E498.42415
G0 F7200 X173.494 Y186.500
G1 F2040 X131.505 Y186.500 E500.16985
G0 F7200 X131.308 Y187.000
G1 F2040 X173.691 Y187.000 E501.93193
G0 F7200 X174.010 Y187.500
G1 F2040 X130.989 Y187.500 E503.72054
G0 F7200 X130.467 Y188.000
G1 F2040 X174.532 Y188.000 E505.55255
G1 F2100 E505.15255
G0 F7200 X177.656 Y188.000
G1 F2100 E505.55255
G1 F2040 X178.674 Y188.000 E505.59487
G0 F7200 X178.674 Y187.500
G1 F2040 X178.337 Y187.250 E505.61549
G1 X178.674 Y187.000 E505.63294
G1 F2100 E505.23294
G0 F7200 X178.674 Y179.500
G1 F2100 E505.63294
G1 F2040 X126.324 Y179.500 E507.80940
G0 F7200 X126.324 Y179.000
G1 F2040 X178.674 Y179.000 E509.98586
G0 F7200 X178.674 Y178.500
G1 F2040 X126.324 Y178.500 E512.16232
G0 F7200 X126.324 Y178.000
G1 F2040 X178.674 Y178.000 E514.33878
G0 F7200 X178.674 Y177.500
G1 F2040 X126.324 Y177.500 E516.51524
G0 F7200 X126.324 Y177.000
G1 F2040 X178.674 Y177.000 E518.69170
G0 F7200 X178.674 Y176.500
G1 F2040 X126.324 Y176.500 E520.86816
G0 F7200 X126.324 Y176.000
G1 F2040 X178.674 Y176.000 E523.04462
G0 F7200 X178.674 Y175.500
G1 F2040 X126.324 Y175.500 E525.22108
G0 F7200 X126.324 Y175.000
G1 F2040 X178.674 Y175.000 E527.39754
G0 F7200 X178.674 Y174.500
G1 F2040 X126.324 Y174.500 E529.57400
G0 F7200 X126.324 Y174.000
G1 F2040 X178.674 Y174.000 E531.75046
G0 F7200 X178.674 Y173.500
G1 F2040 X126.324 Y173.500 E533.92692
G0 F7200 X126.324 Y173.000
G1 F2040 X178.674 Y173.000 E536.10338
G0 F7200 X178.674 Y172.500
G1 F2040 X126.324 Y172.500 E538.27984
G0 F7200 X126.324 Y172.000
G1 F2040 X178.674 Y172.000 E540.45630
G0 F7200 X178.674 Y171.500
G1 F2040 X126.324 Y171.500 E542.63276
G0 F7200 X126.324 Y171.000
G1 F2040 X178.674 Y171.000 E544.80922
G0 F7200 X178.674 Y170.500
G1 F2040 X126.324 Y170.500 E546.98568
G0 F7200 X126.324 Y170.000
G1 F2040 X178.674 Y170.000 E549.16214
G0 F7200 X178.674 Y169.500
G1 F2040 X126.324 Y169.500 E551.33860
G0 F7200 X126.324 Y169.000
G1 F2040 X178.674 Y169.000 E553.51506
G0 F7200 X178.674 Y168.500
G1 F2040 X126.324 Y168.500 E555.69152
G0 F7200 X126.324 Y168.000
G1 F2040 X178.674 Y168.000 E557.86798
G0 F7200 X178.674 Y167.500
G1 F2040 X126.324 Y167.500 E560.04444
G0 F7200 X126.324 Y167.000
G1 F2040 X178.674 Y167.000 E562.22090
G0 F7200 X178.674 Y166.500
G1 F2040 X126.324 Y166.500 E564.39736
G0 F7200 X126.324 Y166.000
G1 F2040 X178.674 Y166.000 E566.57382
G0 F7200 X178.674 Y165.500
G1 F2040 X126.324 Y165.500 E568.75028
G0 F7200 X126.324 Y165.000
G1 F2040 X178.674 Y165.000 E570.92674
G0 F7200 X178.674 Y164.500
G1 F2040 X126.324 Y164.500 E573.10320
G0 F7200 X126.324 Y164.000
G1 F2040 X178.674 Y164.000 E575.27966
G0 F7200 X178.674 Y163.500
G1 F2040 X126.324 Y163.500 E577.45612
G0 F7200 X126.324 Y163.000
G1 F2040 X178.674 Y163.000 E579.63258
G0 F7200 X178.674 Y162.500
G1 F2040 X126.324 Y162.500 E581.80904
G0 F7200 X126.324 Y162.000
G1 F2040 X178.674 Y162.000 E583.98550
G0 F7200 X178.674 Y161.500
G1 F2040 X126.324 Y161.500 E586.16196
G0 F7200 X126.324 Y161.000
G1 F2040 X178.674 Y161.000 E588.33842
G0 F7200 X178.674 Y160.500
G1 F2040 X126.324 Y160.500 E590.51488
G0 F7200 X126.324 Y160.000
G1 F2040 X178.674 Y160.000 E592.69134
G0 F7200 X178.674 Y159.500
G1 F2040 X126.324 Y159.500 E594.86780
G0 F7200 X126.324 Y159.000
G1 F2040 X178.674 Y159.000 E597.04426
G0 F7200 X178.674 Y158.500
G1 F2040 X126.324 Y158.500 E599.22072
G0 F7200 X126.324 Y158.000
G1 F2040 X178.674 Y158.000 E601.39718
G0 F7200 X178.674 Y157.500
G1 F2040 X126.324 Y157.500 E603.57364
G0 F7200 X126.324 Y157.000
G1 F2040 X178.674 Y157.000 E605.75010
G0 F7200 X178.674 Y156.500
G1 F2040 X126.324 Y156.500 E607.92656
G0 F7200 X126.324 Y156.000
G1 F2040 X178.674 Y156.000 E610.10302
G0 F7200 X178.674 Y155.500
G1 F2040 X126.324 Y155.500 E612.27948
G0 F7200 X126.324 Y155.000
G1 F2040 X178.674 Y155.000 E614.45594
G0 F7200 X178.674 Y154.500
G1 F2040 X126.324 Y154.500 E616.63240
G0 F7200 X126.324 Y154.000
G1 F2040 X178.674 Y154.000 E618.80886
G0 F7200 X178.674 Y153.500
G1 F2040 X126.324 Y153.500 E620.98532
G0 F7200 X126.324 Y153.000
G1 F2040 X178.674 Y153.000 E623.16178
G0 F7200 X178.674 Y152.500
G1 F2040 X126.324 Y152.500 E625.33824
G0 F7200 X126.324 Y152.000
G1 F2040 X178.674 Y152.000 E627.51470
G0 F7200 X178.674 Y151.500
G1 F2040 X126.324 Y151.500 E629.69116
G0 F7200 X126.324 Y151.000
G1 F2040 X178.674 Y151.000 E631.86762
G0 F7200 X178.674 Y150.500
G1 F2040 X126.324 Y150.500 E634.04408
G0 F7200 X126.324 Y150.000
G1 F2040 X178.674 Y150.000 E636.22054
G0 F7200 X178.674 Y149.500
G1 F2040 X126.324 Y149.500 E638.39700
G0 F7200 X126.324 Y149.000
G1 F2040 X178.674 Y149.000 E640.57346
G0 F7200 X178.674 Y148.500
G1 F2040 X126.324 Y148.500 E642.74992
G0 F7200 X126.324 Y148.000
G1 F2040 X178.674 Y148.000 E644.92638
G0 F7200 X178.674 Y147.500
G1 F2040 X126.324 Y147.500 E647.10284
G0 F7200 X126.324 Y147.000
G1 F2040 X178.674 Y147.000 E649.27930
G0 F7200 X178.674 Y146.500
G1 F2040 X126.324 Y146.500 E651.45576
G0 F7200 X126.324 Y146.000
G1 F2040 X178.674 Y146.000 E653.63222
G0 F7200 X178.674 Y145.500
G1 F2040 X126.324 Y145.500 E655.80868
G0 F7200 X126.324 Y145.000
G1 F2040 X178.674 Y145.000 E657.98514
G0 F7200 X178.674 Y144.500
G1 F2040 X126.324 Y144.500 E660.16160
G0 F7200 X126.324 Y144.000
G1 F2040 X178.674 Y144.000 E662.33806
G0 F7200 X178.674 Y143.500
G1 F2040 X126.324 Y143.500 E664.51452
G0 F7200 X126.324 Y143.000
G1 F2040 X178.674 Y143.000 E666.69098
G0 F7200 X178.674 Y142.500
G1 F2040 X126.324 Y142.500 E668.86744
G0 F7200 X126.324 Y142.000
G1 F2040 X178.674 Y142.000 E671.04390
G0 F7200 X178.674 Y141.500
G1 F2040 X126.324 Y141.500 E673.22036
G0 F7200 X126.324 Y141.000
G1 F2040 X178.674 Y141.000 E675.39682
G0 F7200 X178.674 Y140.500
G1 F2040 X126.324 Y140.500 E677.57328
G0 F7200 X126.324 Y140.000
G1 F2040 X178.674 Y140.000 E679.74974
G0 F7200 X178.674 Y139.500
G1 F2040 X126.324 Y139.500 E681.92620
G0 F7200 X126.324 Y139.000
G1 F2040 X178.674 Y139.000 E684.10266
G0 F7200 X178.674 Y138.500
G1 F2040 X126.324 Y138.500 E686.27912
G0 F7200 X126.324 Y138.000
G1 F2040 X178.674 Y138.000 E688.45558
G0 F7200 X178.674 Y137.500
G1 F2040 X126.324 Y137.500 E690.63204
G0 F7200 X126.324 Y137.000
G1 F2040 X178.674 Y137.000 E692.80850
G0 F7200 X178.674 Y136.500
G1 F2040 X126.324 Y136.500 E694.98496
G0 F7200 X126.324 Y136.000
G1 F2040 X178.674 Y136.000 E697.16142
G0 F7200 X178.674 Y135.500
G1 F2040 X126.324 Y135.500 E699.33788
G0 F7200 X126.324 Y135.000
G1 F2040 X178.674 Y135.000 E701.51434
G0 F7200 X178.674 Y134.500
G1 F2040 X126.324 Y134.500 E703.69080
G0 F7200 X126.324 Y134.000
G1 F2040 X178.674 Y134.000 E705.86726
G0 F7200 X178.674 Y133.500
G1 F2040 X126.324 Y133.500 E708.04372
G0 F7200 X126.324 Y133.000
G1 F2040 X178.674 Y133.000 E710.22018
G0 F7200 X178.674 Y132.500
G1 F2040 X126.324 Y132.500 E712.39664
G0 F7200 X126.324 Y132.000
G1 F2040 X178.674 Y132.000 E714.57310
G0 F7200 X178.674 Y131.500
G1 F2040 X126.324 Y131.500 E716.74957
G0 F7200 X126.324 Y131.000
G1 F2040 X178.674 Y131.000 E718.92603
G0 F7200 X178.674 Y130.500
G1 F2040 X126.324 Y130.500 E721.10249
G0 F7200 X126.324 Y130.000
G1 F2040 X178.674 Y130.000 E723.27895
G0 F7200 X178.674 Y129.500
G1 F2040 X126.324 Y129.500 E725.45541
G0 F7200 X126.324 Y129.000
G1 F2040 X178.674 Y129.000 E727.63187
G0 F7200 X178.674 Y128.500
G1 F2040 X126.324 Y128.500 E729.80833
G0 F7200 X126.324 Y128.000
G1 F2040 X178.674 Y128.000 E731.98479
G0 F7200 X178.674 Y127.500
G1 F2040 X126.324 Y127.500 E734.16125
G0 F7200 X126.324 Y127.000
G1 F2040 X178.674 Y127.000 E736.33771
G0 F7200 X178.674 Y126.500
G1 F2040 X126.324 Y126.500 E738.51417
G0 F7200 X126.324 Y126.000
G1 F2040 X178.674 Y126.000 E740.69063
G0 F7200 X178.674 Y125.500
G1 F2040 X126.324 Y125.500 E742.86709
G0 F7200 X126.324 Y125.000
G1 F2040 X178.674 Y125.000 E745.04355
G0 F7200 X178.674 Y124.500
G1 F2040 X126.324 Y124.500 E747.22001
G0 F7200 X126.324 Y124.000
G1 F2040 X178.674 Y124.000 E749.39647
G0 F7200 X178.674 Y123.500
G1 F2040 X126.324 Y123.500 E751.57293
G0 F7200 X126.324 Y123.000
G1 F2040 X178.674 Y123.000 E753.74939
G0 F7200 X178.674 Y122.500
G1 F2040 X126.324 Y122.500 E755.92585
G0 F7200 X126.324 Y122.000
G1 F2040 X178.674 Y122.000 E758.10231
G0 F7200 X178.674 Y121.500
G1 F2040 X177.388 Y121.500 E758.15577
G0 F7200 X178.033 Y121.000
G1 F2040 X178.674 Y120.750 E758.18237
G1 X178.417 Y120.500 E758.19728
G1 F2100 E757.79728
G0 F7200 X174.800 Y121.500
G1 F2100 E758.19728
G1 F2040 X130.199 Y121.500 E760.05158
G0 F7200 X130.844 Y121.000
G1 F2040 X174.155 Y121.000 E761.85224
G0 F7200 X173.771 Y120.500
G1 F2040 X131.227 Y120.500 E763.62101
G0 F7200 X131.438 Y120.000
G1 F2040 X173.562 Y120.000 E765.37232
G0 F7200 X173.453 Y119.500
G1 F2040 X131.546 Y119.500 E767.11461
G0 F7200 X131.569 Y119.000
G1 F2040 X173.427 Y119.000 E768.85487
G0 F7200 X173.493 Y118.500
G1 F2040 X131.505 Y118.500 E770.60053
G0 F7200 X131.308 Y118.000
G1 F2040 X173.689 Y118.000 E772.36252
G0 F7200 X174.007 Y117.500
G1 F2040 X130.989 Y117.500 E774.15100
G0 F7200 X130.469 Y117.000
G1 F2040 X174.528 Y117.000 E775.98276
G1 F2100 E775.58276
G0 F7200 X177.658 Y117.000
G1 F2100 E775.98276
G1 F2040 X178.674 Y117.000 E776.02500
G0 F7200 X178.674 Y117.500
G1 F2040 X178.337 Y117.750 E776.04559
G1 X178.674 Y118.000 E776.06303
G1 F2100 E775.66303
G0 F7200 X127.611 Y121.500
G1 F2100 E776.06303
G1 F2040 X126.324 Y121.500 E776.11654
G0 F7200 X126.324 Y121.000
G1 F2040 X126.774 Y120.750 E776.14325
G1 X126.324 Y120.500 E776.16465
G1 F2100 E775.76465
G0 F7200 X126.324 Y118.000
G1 F2100 E776.16465
G1 F2040 X126.412 Y117.750 E776.17199
G1 X126.818 Y117.500 E776.19182
G0 F7200 X126.324 Y117.000
G1 F2040 X127.339 Y117.000 E776.23401
;LAYER:2
M106 S20
G0 F7200 X127.651 Y116.983 Z0.600
;TYPE:WALL-INNER
G1 F2400 X127.131 Y117.381 E776.26124
G1 X126.733 Y117.901 E776.28846
G1 X126.482 Y118.506 E776.31570
G1 X126.396 Y119.156 E776.34296
G1 X126.482 Y119.805 E776.37017
G1 X126.733 Y120.410 E776.39741
G1 X127.131 Y120.930 E776.42463
G1 X127.651 Y121.328 E776.45185
G1 X128.256 Y121.580 E776.47910
G1 X128.906 Y121.664 E776.50635
G1 X129.555 Y121.580 E776.53356
G1 X130.160 Y121.328 E776.56081
G1 X130.680 Y120.930 E776.58803
G1 X131.078 Y120.410 E776.61526
G1 X131.330 Y119.805 E776.64250
G1 X131.414 Y119.156 E776.66971
G1 X131.330 Y118.506 E776.69696
G1 X131.078 Y117.901 E776.72421
G1 X130.680 Y117.381 E776.75143
G1 X130.160 Y116.983 E776.77866
G1 X129.555 Y116.732 E776.80589
G1 X128.906 Y116.646 E776.83311
G1 X128.256 Y116.732 E776.86037
G1 X127.651 Y116.983 E776.88760
G1 F2100 E776.48760
G0 F7200 X126.150 Y116.401
G1 F2100 E776.88760
G1 F2400 X178.850 Y116.401 E779.07861
G1 X178.850 Y188.599 E782.08025
G1 X126.150 Y188.599 E784.27126
G1 X126.150 Y116.401 E787.27291
G1 F2100 E786.87291
G0 F7200 X173.585 Y119.156
G1 F2100 E787.27291
G1 F2400 X173.671 Y119.805 E787.30013
G1 X173.922 Y120.410 E787.32736
G1 X174.320 Y120.930 E787.35458
G1 X174.840 Y121.328 E787.38181
G1 X175.445 Y121.580 E787.40906
G1 X176.095 Y121.664 E787.43630
G1 X176.744 Y121.580 E787.46351
G1 X177.349 Y121.328 E787.49076
G1 X177.869 Y120.930 E787.51798
G1 X178.267 Y120.410 E787.54521
G1 X178.519 Y119.805 E787.57246
G1 X178.603 Y119.156 E787.59966
G1 X178.519 Y118.506 E787.62691
G1 X178.267 Y117.901 E787.65416
G1 X177.869 Y117.381 E787.68138
G1 X177.349 Y116.983 E787.70861
G1 X176.744 Y116.732 E787.73584
G1 X176.095 Y116.646 E787.76306
G1 X175.445 Y116.732 E787.79032
G1 X174.840 Y116.983 E787.81755
G1 X174.320 Y117.381 E787.84477
G1 X173.922 Y117.901 E787.87200
G1 X173.671 Y118.506 E787.89923
G1 X173.585 Y119.156 E787.92649
G1 F2100 E787.52649
G0 F7200 X176.095 Y183.335
G1 F2100 E787.92649
G1 F2400 X175.445 Y183.421 E787.95375
G1 X174.840 Y183.672 E787.98098
G1 X174.320 Y184.070 E788.00821
G1 X173.922 Y184.590 E788.03543
G1 X173.671 Y185.195 E788.06266
G1 X173.585 Y185.845 E788.08992
G1 X173.671 Y186.494 E788.11714
G1 X173.922 Y187.099 E788.14437
G1 X174.320 Y187.619 E788.17160
G1 X174.840 Y188.017 E788.19882
G1 X175.445 Y188.269 E788.22607
G1 X176.095 Y188.353 E788.25332
G1 X176.744 Y188.269 E788.28053
G1 X177.349 Y188.017 E788.30777
G1 X177.869 Y187.619 E788.33500
G1 X178.267 Y187.099 E788.36222
G1 X178.519 Y186.494 E788.38947
G1 X178.603 Y185.845 E788.41668
G1 X178.519 Y185.195 E788.44393
G1 X178.267 Y184.590 E788.47117
G1 X177.869 Y184.070 E788.49840
G1 X177.349 Y183.672 E788.52562
G1 X176.744 Y183.421 E788.55286
G1 X176.095 Y183.335 E788.58007
G1 F2100 E788.18007
G0 F7200 X131.414 Y185.845
G1 F2100 E788.58007
G1 F2400 X131.330 Y185.195 E788.60732
G1 X131.078 Y184.590 E788.63457
G1 X130.680 Y184.070 E788.66179
G1 X130.160 Y183.672 E788.68902
G1 X129.555 Y183.421 E788.71625
G1 X128.906 Y183.335 E788.74347
G1 X128.256 Y183.421 E788.77073
G1 X127.651 Y183.672 E788.79796
G1 X127.131 Y184.070 E788.82518
G1 X126.733 Y184.590 E788.85241
G1 X126.482 Y185.195 E788.87964
G1 X126.396 Y185.845 E788.90690
G1 X126.482 Y186.494 E788.93412
G1 X126.733 Y187.099 E788.96135
G1 X127.131 Y187.619 E788.98858
G1 X127.651 Y188.017 E789.01580
G1 X128.256 Y188.269 E789.04305
G1 X128.906 Y188.353 E789.07030
G1 X129.555 Y188.269 E789.09750
G1 X130.160 Y188.017 E789.12475
G1 X130.680 Y187.619 E789.15198
G1 X131.078 Y187.099 E789.17920
G1 X131.330 Y186.494 E789.20645
G1 X131.414 Y185.845 E789.23366
G0 F7200 X130.910 Y185.845
;TYPE:WALL-OUTER
G1 F2400 X130.843 Y185.326 E789.25541
G1 X130.641 Y184.842 E789.27722
G1 X130.323 Y184.427 E789.29895
G1 X129.908 Y184.109 E789.32069
G1 X129.424 Y183.908 E789.34248
G1 X128.906 Y183.840 E789.36420
G1 X128.387 Y183.908 E789.38596
G1 X127.903 Y184.109 E789.40775
G1 X127.488 Y184.427 E789.42949
G1 X127.170 Y184.842 E789.45122
G1 X126.969 Y185.326 E789.47301
G1 X126.901 Y185.845 E789.49477
G1 X126.969 Y186.363 E789.51649
G1 X127.170 Y186.847 E789.53828
G1 X127.488 Y187.262 E789.56002
G1 X127.903 Y187.580 E789.58176
G1 X128.387 Y187.782 E789.60356
G1 X128.906 Y187.849 E789.62532
G1 X129.424 Y187.782 E789.64703
G1 X129.908 Y187.580 E789.66884
G1 X130.323 Y187.262 E789.69057
G1 X130.641 Y186.847 E789.71231
G1 X130.843 Y186.363 E789.73412
G1 X130.910 Y185.845 E789.75583
G1 F2100 E789.35583
G0 F7200 X125.650 Y189.099
G1 F2100 E789.75583
G1 F2400 X125.650 Y115.901 E792.79905
G1 X179.350 Y115.901 E795.03164
G1 X179.350 Y189.099 E798.07486
G1 X125.650 Y189.099 E800.30744
G1 F2100 E799.90744
G0 F7200 X174.090 Y185.845
G1 F2100 E800.30744
G1 F2400 X174.158 Y186.363 E800.32916
G1 X174.359 Y186.847 E800.35095
G1 X174.677 Y187.262 E800.37269
G1 X175.092 Y187.580 E800.39443
G1 X175.576 Y187.782 E800.41623
G1 X176.095 Y187.849 E800.43799
G1 X176.613 Y187.782 E800.45970
G1 X177.097 Y187.580 E800.48151
G1 X177.512 Y187.262 E800.50324
G1 X177.830 Y186.847 E800.52498
G1 X178.032 Y186.363 E800.54678
G1 X178.099 Y185.845 E800.56850
G1 X178.032 Y185.326 E800.59026
G1 X177.830 Y184.842 E800.61206
G1 X177.512 Y184.427 E800.63380
G1 X177.097 Y184.109 E800.65553
G1 X176.613 Y183.908 E800.67732
G1 X176.095 Y183.840 E800.69904
G1 X175.576 Y183.908 E800.72081
G1 X175.092 Y184.109 E800.74259
G1 X174.677 Y184.427 E800.76433
G1 X174.359 Y184.842 E800.78607
G1 X174.158 Y185.326 E800.80786
G1 X174.090 Y185.845 E800.82962
G1 F2100 E800.42962
G0 F7200 X176.095 Y121.160
G1 F2100 E800.82962
G1 F2400 X176.613 Y121.093 E800.85133
G1 X177.097 Y120.891 E800.87314
G1 X177.512 Y120.573 E800.89487
G1 X177.830 Y120.158 E800.91661
G1 X178.032 Y119.674 E800.93842
G1 X178.099 Y119.156 E800.96013
G1 X178.032 Y118.637 E800.98189
G1 X177.830 Y118.153 E801.00369
G1 X177.512 Y117.738 E801.02543
G1 X177.097 Y117.420 E801.04717
G1 X176.613 Y117.219 E801.06895
G1 X176.095 Y117.151 E801.09067
G1 X175.576 Y117.219 E801.11244
G1 X175.092 Y117.420 E801.13423
G1 X174.677 Y117.738 E801.15596
G1 X174.359 Y118.153 E801.17770
G1 X174.158 Y118.637 E801.19949
G1 X174.090 Y119.156 E801.22125
G1 X174.158 Y119.674 E801.24297
G1 X174.359 Y120.158 E801.26476
G1 X174.677 Y120.573 E801.28649
G1 X175.092 Y120.891 E801.30823
G1 X175.576 Y121.093 E801.33004
G1 X176.095 Y121.160 E801.35179
G1 F2100 E800.95179
G0 F7200 X130.910 Y119.156
G1 F2100 E801.35179
G1 F2400 X130.843 Y118.637 E801.37355
G1 X130.641 Y118.153 E801.39535
G1 X130.323 Y117.738 E801.41709
G1 X129.908 Y117.420 E801.43883
G1 X129.424 Y117.219 E801.46062
G1 X128.906 Y117.151 E801.48234
G1 X128.387 Y117.219 E801.50410
G1 X127.903 Y117.420 E801.52589
G1 X127.488 Y117.738 E801.54762
G1 X127.170 Y118.153 E801.56936
G1 X126.969 Y118.637 E801.59115
G1 X126.901 Y119.156 E801.61291
G1 X126.969 Y119.674 E801.63463
G1 X127.170 Y120.158 E801.65642
G1 X127.488 Y120.573 E801.67816
G1 X127.903 Y120.891 E801.69989
G1 X128.387 Y121.093 E801.72170
G1 X128.906 Y121.160 E801.74345
G1 X129.424 Y121.093 E801.76517
G1 X129.908 Y120.891 E801.78697
G1 X130.323 Y120.573 E801.80871
G1 X130.641 Y120.158 E801.83045
G1 X130.843 Y119.674 E801.85225
G1 X130.910 Y119.156 E801.87397
G1 F2100 E801.47397
G0 F7200 X127.530 Y116.575
;TYPE:FILL
G1 F2100 E801.87397
G1 F2400 X126.324 Y117.272 E801.93188
G1 F2100 E801.53188
G0 F7200 X126.324 Y187.725
G1 F2100 E801.93188
G1 F2400 X127.532 Y188.423 E801.98988
G0 F7200 X127.500 Y188.424
;TYPE:SKIN
G1 F2400 X127.250 Y188.273 E802.00244
G1 X127.000 Y187.734 E802.02714
G0 F7200 X126.500 Y188.424
G1 F2400 X126.500 Y186.994 E802.08659
G1 F2100 E801.68659
G0 F7200 X126.500 Y184.696
G1 F2100 E802.08659
G1 F2400 X126.500 Y120.305 E804.76366
G0 F7200 X127.000 Y121.045
G1 F2400 X127.000 Y183.956 E807.37920
G0 F7200 X127.500 Y183.568
G1 F2400 X127.500 Y121.432 E809.96251
G0 F7200 X128.000 Y121.664
G1 F2400 X128.000 Y183.338 E812.52662
G0 F7200 X128.500 Y183.212
G1 F2400 X128.500 Y121.789 E815.08029
G0 F7200 X129.000 Y121.828
G1 F2400 X129.000 Y183.170 E817.63059
G0 F7200 X129.500 Y183.236
G1 F2400 X129.500 Y121.763 E820.18634
G0 F7200 X130.000 Y121.584
G1 F2400 X130.000 Y183.415 E822.75698
G0 F7200 X130.500 Y183.712
G1 F2400 X130.500 Y121.286 E825.35235
G0 F7200 X131.000 Y120.798
G1 F2400 X131.000 Y184.201 E827.98834
G0 F7200 X131.500 Y185.147
G1 F2400 X131.500 Y119.852 E830.70299
G0 F7200 X131.500 Y118.458
G1 F2400 X131.500 Y116.576 E830.78123
G0 F7200 X131.000 Y116.576
G1 F2400 X130.750 Y117.267 E830.82016
G1 X130.250 Y116.576 E830.83874
G1 X130.000 Y116.727 E830.85088
G1 F2100 E830.45088
G0 F7200 X132.000 Y116.576
G1 F2100 E830.85088
G1 F2400 X132.000 Y188.424 E833.83797
G0 F7200 X131.500 Y188.424
G1 F2400 X131.500 Y186.541 E833.91626
G0 F7200 X131.000 Y187.487
G1 F2400 X130.750 Y188.424 E833.95521
G1 X130.250 Y188.124 E833.97382
G1 X130.000 Y188.424 E833.99006
G1 F2100 E833.59006
G0 F7200 X132.500 Y188.424
G1 F2100 E833.99006
G1 F2400 X132.500 Y116.576 E836.97715
G0 F7200 X133.000 Y116.576
G1 F2400 X133.000 Y188.424 E839.96425
G0 F7200 X133.500 Y188.424
G1 F2400 X133.500 Y116.576 E842.95134
G0 F7200 X134.000 Y116.576
G1 F2400 X134.000 Y188.424 E845.93843
G0 F7200 X134.500 Y188.424
G1 F2400 X134.500 Y116.576 E848.92552
G0 F7200 X135.000 Y116.576
G1 F2400 X135.000 Y188.424 E851.91262
G0 F7200 X135.500 Y188.424
G1 F2400 X135.500 Y116.576 E854.89971
G0 F7200 X136.000 Y116.576
G1 F2400 X136.000 Y188.424 E857.88680
G0 F7200 X136.500 Y188.424
G1 F2400 X136.500 Y116.576 E860.87389
G0 F7200 X137.000 Y116.576
G1 F2400 X137.000 Y188.424 E863.86099
G0 F7200 X137.500 Y188.424
G1 F2400 X137.500 Y116.576 E866.84808
G0 F7200 X138.000 Y116.576
G1 F2400 X138.000 Y188.424 E869.83517
G0 F7200 X138.500 Y188.424
G1 F2400 X138.500 Y116.576 E872.82227
G0 F7200 X139.000 Y116.576
G1 F2400 X139.000 Y188.424 E875.80936
G0 F7200 X139.500 Y188.424
G1 F2400 X139.500 Y116.576 E878.79645
G1 F2100 E878.39645
G0 F7200 X127.500 Y116.576
G1 F2100 E878.79645
G1 F2400 X127.250 Y116.727 E878.80903
G1 X127.000 Y117.267 E878.83377
G0 F7200 X126.500 Y116.576
G1 F2400 X126.500 Y118.007 E878.89326
G1 F2100 E878.49326
G0 F7200 X140.000 Y116.576
G1 F2100 E878.89326
G1 F2400 X140.000 Y188.424 E881.88036
G0 F7200 X140.500 Y188.424
G1 F2400 X140.500 Y116.576 E884.86745
G0 F7200 X141.000 Y116.576
G1 F2400 X141.000 Y188.424 E887.85454
G0 F7200 X141.500 Y188.424
G1 F2400 X141.500 Y116.576 E890.84164
G0 F7200 X142.000 Y116.576
G1 F2400 X142.000 Y188.424 E893.82873
G0 F7200 X142.500 Y188.424
G1 F2400 X142.500 Y116.576 E896.81582
G0 F7200 X143.000 Y116.576
G1 F2400 X143.000 Y188.424 E899.80291
G0 F7200 X143.500 Y188.424
G1 F2400 X143.500 Y116.576 E902.79001
G0 F7200 X144.000 Y116.576
G1 F2400 X144.000 Y188.424 E905.77710
G0 F7200 X144.500 Y188.424
G1 F2400 X144.500 Y116.576 E908.76419
G0 F7200 X145.000 Y116.576
G1 F2400 X145.000 Y188.424 E911.75128
G0 F7200 X145.500 Y188.424
G1 F2400 X145.500 Y116.576 E914.73838
G0 F7200 X146.000 Y116.576
G1 F2400 X146.000 Y188.424 E917.72547
G0 F7200 X146.500 Y188.424
G1 F2400 X146.500 Y116.576 E920.71256
G0 F7200 X147.000 Y116.576
G1 F2400 X147.000 Y188.424 E923.69966
G0 F7200 X147.500 Y188.424
G1 F2400 X147.500 Y116.576 E926.68675
G0 F7200 X148.000 Y116.576
G1 F2400 X148.000 Y188.424 E929.67384
G0 F7200 X148.500 Y188.424
G1 F2400 X148.500 Y116.576 E932.66093
G0 F7200 X149.000 Y116.576
G1 F2400 X149.000 Y188.424 E935.64803
G0 F7200 X149.500 Y188.424
G1 F2400 X149.500 Y116.576 E938.63512
G0 F7200 X150.000 Y116.576
G1 F2400 X150.000 Y188.424 E941.62221
G0 F7200 X150.500 Y188.424
G1 F2400 X150.500 Y116.576 E944.60930
G0 F7200 X151.000 Y116.576
G1 F2400 X151.000 Y188.424 E947.59640
G0 F7200 X151.500 Y188.424
G1 F2400 X151.500 Y116.576 E950.58349
G0 F7200 X152.000 Y116.576
G1 F2400 X152.000 Y188.424 E953.57058
G0 F7200 X152.500 Y188.424
G1 F2400 X152.500 Y116.576 E956.55768
G0 F7200 X153.000 Y116.576
G1 F2400 X153.000 Y188.424 E959.54477
G0 F7200 X153.500 Y188.424
G1 F2400 X153.500 Y116.576 E962.53186
G0 F7200 X154.000 Y116.576
G1 F2400 X154.000 Y188.424 E965.51895
G0 F7200 X154.500 Y188.424
G1 F2400 X154.500 Y116.576 E968.50605
G0 F7200 X155.000 Y116.576
G1 F2400 X155.000 Y188.424 E971.49314
G0 F7200 X155.500 Y188.424
G1 F2400 X155.500 Y116.576 E974.48023
G0 F7200 X156.000 Y116.576
G1 F2400 X156.000 Y188.424 E977.46732
G0 F7200 X156.500 Y188.424
G1 F2400 X156.500 Y116.576 E980.45442
G0 F7200 X157.000 Y116.576
G1 F2400 X157.000 Y188.424 E983.44151
G0 F7200 X157.500 Y188.424
G1 F2400 X157.500 Y116.576 E986.42860
G0 F7200 X158.000 Y116.576
G1 F2400 X158.000 Y188.424 E989.41570
G0 F7200 X158.500 Y188.424
G1 F2400 X158.500 Y116.576 E992.40279
G0 F7200 X159.000 Y116.576
G1 F2400 X159.000 Y188.424 E995.38988
G0 F7200 X159.500 Y188.424
G1 F2400 X159.500 Y116.576 E998.37697
G0 F7200 X160.000 Y116.576
G1 F2400 X160.000 Y188.424 E1001.36407
G0 F7200 X160.500 Y188.424
G1 F2400 X160.500 Y116.576 E1004.35116
G0 F7200 X161.000 Y116.576
G1 F2400 X161.000 Y188.424 E1007.33825
G0 F7200 X161.500 Y188.424
G1 F2400 X161.500 Y116.576 E1010.32534
G0 F7200 X162.000 Y116.576
G1 F2400 X162.000 Y188.424 E1013.31244
G0 F7200 X162.500 Y188.424
G1 F2400 X162.500 Y116.576 E1016.29953
G0 F7200 X163.000 Y116.576
G1 F2400 X163.000 Y188.424 E1019.28662
G0 F7200 X163.500 Y188.424
G1 F2400 X163.500 Y116.576 E1022.27372
G0 F7200 X164.000 Y116.576
G1 F2400 X164.000 Y188.424 E1025.26081
G0 F7200 X164.500 Y188.424
G1 F2400 X164.500 Y116.576 E1028.24790
G0 F7200 X165.000 Y116.576
G1 F2400 X165.000 Y188.424 E1031.23499
G0 F7200 X165.500 Y188.424
G1 F2400 X165.500 Y116.576 E1034.22209
G0 F7200 X166.000 Y116.576
G1 F2400 X166.000 Y188.424 E1037.20918
G0 F7200 X166.500 Y188.424
G1 F2400 X166.500 Y116.576 E1040.19627
G0 F7200 X167.000 Y116.576
G1 F2400 X167.000 Y188.424 E1043.18336
G0 F7200 X167.500 Y188.424
G1 F2400 X167.500 Y116.576 E1046.17046
G0 F7200 X168.000 Y116.576
G1 F2400 X168.000 Y188.424 E1049.15755
G0 F7200 X168.500 Y188.424
G1 F2400 X168.500 Y116.576 E1052.14464
G0 F7200 X169.000 Y116.576
G1 F2400 X169.000 Y188.424 E1055.13174
G0 F7200 X169.500 Y188.424
G1 F2400 X169.500 Y116.576 E1058.11883
G0 F7200 X170.000 Y116.576
G1 F2400 X170.000 Y188.424 E1061.10592
G0 F7200 X170.500 Y188.424
G1 F2400 X170.500 Y116.576 E1064.09301
G0 F7200 X171.000 Y116.576
G1 F2400 X171.000 Y188.424 E1067.08011
G0 F7200 X171.500 Y188.424
G1 F2400 X171.500 Y116.576 E1070.06720
G0 F7200 X172.000 Y116.576
G1 F2400 X172.000 Y188.424 E1073.05429
G0 F7200 X172.500 Y188.424
G1 F2400 X172.500 Y116.576 E1076.04138
G0 F7200 X173.000 Y116.576
G1 F2400 X173.000 Y188.424 E1079.02848
G0 F7200 X173.500 Y188.424
G1 F2400 X173.500 Y186.539 E1079.10685
G0 F7200 X174.000 Y187.488
G1 F2400 X174.250 Y188.424 E1079.14576
G1 X174.750 Y188.125 E1079.16436
G1 X175.000 Y188.424 E1079.18056
G1 F2100 E1078.78056
G0 F7200 X177.500 Y188.424
G1 F2100 E1079.18056
G1 F2400 X177.750 Y188.272 E1079.19316
G1 X178.000 Y187.733 E1079.21787
G0 F7200 X178.500 Y188.424
G1 F2400 X178.500 Y186.993 E1079.27736
G1 F2100 E1078.87736
G0 F7200 X178.500 Y184.695
G1 F2100 E1079.27736
G1 F2400 X178.500 Y120.304 E1081.95443
G0 F7200 X178.000 Y121.044
G1 F2400 X178.000 Y183.955 E1084.56996
G0 F7200 X177.500 Y183.567
G1 F2400 X177.500 Y121.431 E1087.15328
G0 F7200 X177.000 Y121.663
G1 F2400 X177.000 Y183.337 E1089.71738
G0 F7200 X176.500 Y183.211
G1 F2400 X176.500 Y121.788 E1092.27105
G0 F7200 X176.000 Y121.829
G1 F2400 X176.000 Y183.171 E1094.82136
G0 F7200 X175.500 Y183.237
G1 F2400 X175.500 Y121.764 E1097.37711
G0 F7200 X175.000 Y121.585
G1 F2400 X175.000 Y183.416 E1099.94774
G0 F7200 X174.500 Y183.713
G1 F2400 X174.500 Y121.287 E1102.54311
G0 F7200 X174.000 Y120.799
G1 F2400 X174.000 Y184.202 E1105.17911
G0 F7200 X173.500 Y185.150
G1 F2400 X173.500 Y119.850 E1107.89396
G0 F7200 X173.500 Y118.461
G1 F2400 X173.500 Y116.576 E1107.97233
G0 F7200 X174.000 Y116.576
G1 F2400 X174.250 Y117.268 E1108.01130
G1 X174.750 Y116.576 E1108.02990
G1 X175.000 Y116.728 E1108.04207
G1 F2100 E1107.64207
G0 F7200 X177.500 Y116.878
G1 F2100 E1108.04207
G1 F2400 X177.750 Y116.576 E1108.05462
G1 X178.000 Y117.266 E1108.08513
G0 F7200 X178.500 Y116.576
G1 F2400 X178.500 Y118.006 E1108.14458
;LAYER:3
M106 S30
G0 F7200 X178.267 Y117.901 Z0.800
;TYPE:WALL-INNER
G1 F2640 X177.869 Y117.381 E1108.17181
G1 X177.349 Y116.983 E1108.19903
G1 X176.744 Y116.732 E1108.22626
G1 X176.095 Y116.646 E1108.25348
G1 X175.445 Y116.732 E1108.28074
G1 X174.840 Y116.983 E1108.30797
G1 X174.320 Y117.381 E1108.33520
G1 X173.922 Y117.901 E1108.36242
G1 X173.671 Y118.506 E1108.38965
G1 X173.585 Y119.156 E1108.41691
G1 X173.671 Y119.805 E1108.44413
G1 X173.922 Y120.410 E1108.47136
G1 X174.320 Y120.930 E1108.49859
G1 X174.840 Y121.328 E1108.52581
G1 X175.445 Y121.580 E1108.55306
G1 X176.095 Y121.664 E1108.58031
G1 X176.744 Y121.580 E1108.60752
G1 X177.349 Y121.328 E1108.63476
G1 X177.869 Y120.930 E1108.66199
G1 X178.267 Y120.410 E1108.68921
G1 X178.519 Y119.805 E1108.71646
G1 X178.603 Y119.156 E1108.74367
G1 X178.519 Y118.506 E1108.77092
G1 X178.267 Y117.901 E1108.79817
G1 F2100 E1108.39817
G0 F7200 X178.850 Y116.401
G1 F2100 E1108.79817
G1 F2640 X178.850 Y188.599 E1111.79981
G1 X126.150 Y188.599 E1113.99082
G1 X126.150 Y116.401 E1116.99246
G1 X178.850 Y116.401 E1119.18348
G1 F2100 E1118.78348
G0 F7200 X131.414 Y119.156
G1 F2100 E1119.18348
G1 F2640 X131.330 Y118.506 E1119.21072
G1 X131.078 Y117.901 E1119.23797
G1 X130.680 Y117.381 E1119.26520
G1 X130.160 Y116.983 E1119.29242
G1 X129.555 Y116.732 E1119.31965
G1 X128.906 Y116.646 E1119.34687
G1 X128.256 Y116.732 E1119.37413
G1 X127.651 Y116.983 E1119.40136
G1 X127.131 Y117.381 E1119.42859
G1 X126.733 Y117.901 E1119.45581
G1 X126.482 Y118.506 E1119.48304
G1 X126.396 Y119.156 E1119.51030
G1 X126.482 Y119.805 E1119.53752
G1 X126.733 Y120.410 E1119.56475
G1 X127.131 Y120.930 E1119.59198
G1 X127.651 Y121.328 E1119.61920
G1 X128.256 Y121.580 E1119.64645
G1 X128.906 Y121.664 E1119.67370
G1 X129.555 Y121.580 E1119.70091
G1 X130.160 Y121.328 E1119.72815
G1 X130.680 Y120.930 E1119.75538
G1 X131.078 Y120.410 E1119.78260
G1 X131.330 Y119.805 E1119.80985
G1 X131.414 Y119.156 E1119.83706
G1 F2100 E1119.43706
G0 F7200 X128.906 Y183.335
G1 F2100 E1119.83706
G1 F2640 X128.256 Y183.421 E1119.86432
G1 X127.651 Y183.672 E1119.89155
G1 X127.131 Y184.070 E1119.91877
G1 X126.733 Y184.590 E1119.94600
G1 X126.482 Y185.195 E1119.97323
G1 X126.396 Y185.845 E1120.00049
G1 X126.482 Y186.494 E1120.02771
G1 X126.733 Y187.099 E1120.05494
G1 X127.131 Y187.619 E1120.08216
G1 X127.651 Y188.017 E1120.10939
G1 X128.256 Y188.269 E1120.13664
G1 X128.906 Y188.353 E1120.16389
G1 X129.555 Y188.269 E1120.19109
G1 X130.160 Y188.017 E1120.21834
G1 X130.680 Y187.619 E1120.24557
G1 X131.078 Y187.099 E1120.27279
G1 X131.330 Y186.494 E1120.30004
G1 X131.414 Y185.845 E1120.32725
G1 X131.330 Y185.195 E1120.35449
G1 X131.078 Y184.590 E1120.38174
G1 X130.680 Y184.070 E1120.40897
G1 X130.160 Y183.672 E1120.43619
G1 X129.555 Y183.421 E1120.46342
G1 X128.906 Y183.335 E1120.49064
G1 F2100 E1120.09064
G0 F7200 X173.585 Y185.845
G1 F2100 E1120.49064
G1 F2640 X173.671 Y186.494 E1120.51786
G1 X173.922 Y187.099 E1120.54509
G1 X174.320 Y187.619 E1120.57232
G1 X174.840 Y188.017 E1120.59954
G1 X175.445 Y188.269 E1120.62679
G1 X176.095 Y188.353 E1120.65404
G1 X176.744 Y188.269 E1120.68124
G1 X177.349 Y188.017 E1120.70849
G1 X177.869 Y187.619 E1120.73572
G1 X178.267 Y187.099 E1120.76294
G1 X178.519 Y186.494 E1120.79019
G1 X178.603 Y185.845 E1120.81740
G1 X178.519 Y185.195 E1120.84465
G1 X178.267 Y184.590 E1120.87189
G1 X177.869 Y184.070 E1120.89912
G1 X177.349 Y183.672 E1120.92634
G1 X176.744 Y183.421 E1120.95357
G1 X176.095 Y183.335 E1120.98079
G1 X175.445 Y183.421 E1121.00805
G1 X174.840 Y183.672 E1121.03528
G1 X174.320 Y184.070 E1121.06251
G1 X173.922 Y184.590 E1121.08973
G1 X173.671 Y185.195 E1121.11696
G1 X173.585 Y185.845 E1121.14422
G0 F7200 X174.090 Y185.845
;TYPE:WALL-OUTER
G1 F2640 X174.158 Y186.363 E1121.16594
G1 X174.359 Y186.847 E1121.18773
G1 X174.677 Y187.262 E1121.20947
G1 X175.092 Y187.580 E1121.23121
G1 X175.576 Y187.782 E1121.25301
G1 X176.095 Y187.849 E1121.27477
G1 X176.613 Y187.782 E1121.29648
G1 X177.097 Y187.580 E1121.31829
G1 X177.512 Y187.262 E1121.34002
G1 X177.830 Y186.847 E1121.36176
G1 X178.032 Y186.363 E1121.38357
G1 X178.099 Y185.845 E1121.40528
G1 X178.032 Y185.326 E1121.42704
G1 X177.830 Y184.842 E1121.44884
G1 X177.512 Y184.427 E1121.47058
G1 X177.097 Y184.109 E1121.49232
G1 X176.613 Y183.908 E1121.51410
G1 X176.095 Y183.840 E1121.53582
G1 X175.576 Y183.908 E1121.55759
G1 X175.092 Y184.109 E1121.57938
G1 X174.677 Y184.427 E1121.60111
G1 X174.359 Y184.842 E1121.62285
G1 X174.158 Y185.326 E1121.64464
G1 X174.090 Y185.845 E1121.66640
G1 F2100 E1121.26640
G0 F7200 X179.350 Y189.099
G1 F2100 E1121.66640
G1 F2640 X125.650 Y189.099 E1123.89899
G1 X125.650 Y115.901 E1126.94220
G1 X179.350 Y115.901 E1129.17479
G1 X179.350 Y189.099 E1132.21801
G1 F2100 E1131.81801
G0 F7200 X130.910 Y185.845
G1 F2100 E1132.21801
G1 F2640 X130.843 Y185.326 E1132.23977
G1 X130.641 Y184.842 E1132.26157
G1 X130.323 Y184.427 E1132.28331
G1 X129.908 Y184.109 E1132.30504
G1 X129.424 Y183.908 E1132.32683
G1 X128.906 Y183.840 E1132.34855
G1 X128.387 Y183.908 E1132.37032
G1 X127.903 Y184.109 E1132.39210
G1 X127.488 Y184.427 E1132.41384
G1 X127.170 Y184.842 E1132.43558
G1 X126.969 Y185.326 E1132.45737
G1 X126.901 Y185.845 E1132.47913
G1 X126.969 Y186.363 E1132.50085
G1 X127.170 Y186.847 E1132.52264
G1 X127.488 Y187.262 E1132.54437
G1 X127.903 Y187.580 E1132.56611
G1 X128.387 Y187.782 E1132.58792
G1 X128.906 Y187.849 E1132.60967
G1 X129.424 Y187.782 E1132.63139
G1 X129.908 Y187.580 E1132.65319
G1 X130.323 Y187.262 E1132.67493
G1 X130.641 Y186.847 E1132.69667
G1 X130.843 Y186.363 E1132.71847
G1 X130.910 Y185.845 E1132.74019
G1 F2100 E1132.34019
G0 F7200 X128.906 Y121.160
G1 F2100 E1132.74019
G1 F2640 X129.424 Y121.093 E1132.76190
G1 X129.908 Y120.891 E1132.78371
G1 X130.323 Y120.573 E1132.80544
G1 X130.641 Y120.158 E1132.82718
G1 X130.843 Y119.674 E1132.84898
G1 X130.910 Y119.156 E1132.87070
G1 X130.843 Y118.637 E1132.89246
G1 X130.641 Y118.153 E1132.91426
G1 X130.323 Y117.738 E1132.93600
G1 X129.908 Y117.420 E1132.95773
G1 X129.424 Y117.219 E1132.97952
G1 X128.906 Y117.151 E1133.00124
G1 X128.387 Y117.219 E1133.02300
G1 X127.903 Y117.420 E1133.04479
G1 X127.488 Y117.738 E1133.06653
G1 X127.170 Y118.153 E1133.08827
G1 X126.969 Y118.637 E1133.11005
G1 X126.901 Y119.156 E1133.13182
G1 X126.969 Y119.674 E1133.15354
G1 X127.170 Y120.158 E1133.17533
G1 X127.488 Y120.573 E1133.19706
G1 X127.903 Y120.891 E1133.21880
G1 X128.387 Y121.093 E1133.24060
G1 X128.906 Y121.160 E1133.26236
G1 F2100 E1132.86236
G0 F7200 X174.090 Y119.156
G1 F2100 E1133.26236
G1 F2640 X174.158 Y119.674 E1133.28408
G1 X174.359 Y120.158 E1133.30587
G1 X174.677 Y120.573 E1133.32761
G1 X175.092 Y120.891 E1133.34934
G1 X175.576 Y121.093 E1133.37115
G1 X176.095 Y121.160 E1133.39290
G1 X176.613 Y121.093 E1133.41462
G1 X177.097 Y120.891 E1133.43642
G1 X177.512 Y120.573 E1133.45816
G1 X177.830 Y120.158 E1133.47990
G1 X178.032 Y119.674 E1133.50170
G1 X178.099 Y119.156 E1133.52342
G1 X178.032 Y118.637 E1133.54517
G1 X177.830 Y118.153 E1133.56698
G1 X177.512 Y117.738 E1133.58872
G1 X177.097 Y117.420 E1133.61045
G1 X176.613 Y117.219 E1133.63224
G1 X176.095 Y117.151 E1133.65396
G1 X175.576 Y117.219 E1133.67572
G1 X175.092 Y117.420 E1133.69751
G1 X174.677 Y117.738 E1133.71925
G1 X174.359 Y118.153 E1133.74099
G1 X174.158 Y118.637 E1133.76277
G1 X174.090 Y119.156 E1133.78454
G1 F2100 E1133.38454
G0 F7200 X127.814 Y116.575
;TYPE:FILL
G1 F2100 E1133.78454
G1 F2640 X126.324 Y117.436 E1133.85608
G1 F2100 E1133.45608
G0 F7200 X126.324 Y187.561
G1 F2100 E1133.85608
G1 F2640 X127.816 Y188.423 E1133.92772
G0 F7200 X127.343 Y188.000
;TYPE:SKIN
G1 F2640 X126.324 Y188.000 E1133.97009
G0 F7200 X126.324 Y187.500
G1 F2640 X126.661 Y187.250 E1133.99078
G1 X126.324 Y187.000 E1134.00822
G1 F2100 E1133.60822
G0 F7200 X126.324 Y184.500
G1 F2100 E1134.00822
G1 F2640 X126.452 Y184.250 E1134.01889
G1 X126.963 Y184.000 E1134.04254
G0 F7200 X126.324 Y183.500
G1 F2640 X127.604 Y183.500 E1134.09576
G0 F7200 X126.324 Y183.000
G1 F2640 X178.674 Y183.000 E1136.27222
G0 F7200 X178.674 Y183.500
G1 F2640 X177.393 Y183.500 E1136.32548
G0 F7200 X178.034 Y184.000
G1 F2640 X178.674 Y184.250 E1136.35204
G1 X178.417 Y184.500 E1136.36695
G1 F2100 E1135.96695
G0 F7200 X178.674 Y182.500
G1 F2100 E1136.36695
G1 F2640 X126.324 Y182.500 E1138.54341
G0 F7200 X126.324 Y182.000
G1 F2640 X178.674 Y182.000 E1140.71987
G0 F7200 X178.674 Y181.500
G1 F2640 X126.324 Y181.500 E1142.89633
G0 F7200 X126.324 Y181.000
G1 F2640 X178.674 Y181.000 E1145.07279
G0 F7200 X178.674 Y180.500
G1 F2640 X126.324 Y180.500 E1147.24925
G0 F7200 X126.324 Y180.000
G1 F2640 X178.674 Y180.000 E1149.42571
G1 F2100 E1149.02571
G0 F7200 X174.793 Y183.500
G1 F2100 E1149.42571
G1 F2640 X130.204 Y183.500 E1151.27951
G0 F7200 X130.845 Y184.000
G1 F2640 X174.152 Y184.000 E1153.08000
G0 F7200 X173.769 Y184.500
G1 F2640 X131.227 Y184.500 E1154.84869
G0 F7200 X131.437 Y185.000
G1 F2640 X173.560 Y185.000 E1156.59996
G0 F7200 X173.452 Y185.500
G1 F2640 X131.545 Y185.500 E1158.34225
G0 F7200 X131.570 Y186.000
G1 F2640 X173.428 Y186.000 E1160.08251
G0 F7200 X173.494 Y186.500
G1 F2640 X131.505 Y186.500 E1161.82821
G0 F7200 X131.308 Y187.000
G1 F2640 X173.691 Y187.000 E1163.59029
G0 F7200 X174.010 Y187.500
G1 F2640 X130.989 Y187.500 E1165.37889
G0 F7200 X130.467 Y188.000
G1 F2640 X174.532 Y188.000 E1167.21090
G1 F2100 E1166.81090
G0 F7200 X177.656 Y188.000
G1 F2100 E1167.21090
G1 F2640 X178.674 Y188.000 E1167.25323
G0 F7200 X178.674 Y187.500
G1 F2640 X178.337 Y187.250 E1167.27385
G1 X178.674 Y187.000 E1167.29129
G1 F2100 E1166.89129
G0 F7200 X178.674 Y179.500
G1 F2100 E1167.29129
G1 F2640 X126.324 Y179.500 E1169.46775
G0 F7200 X126.324 Y179.000
G1 F2640 X178.674 Y179.000 E1171.64421
G0 F7200 X178.674 Y178.500
G1 F2640 X126.324 Y178.500 E1173.82067
G0 F7200 X126.324 Y178.000
G1 F2640 X178.674 Y178.000 E1175.99713
G0 F7200 X178.674 Y177.500
G1 F2640 X126.324 Y177.500 E1178.17359
G0 F7200 X126.324 Y177.000
G1 F2640 X178.674 Y177.000 E1180.35005
G0 F7200 X178.674 Y176.500
G1 F2640 X126.324 Y176.500 E1182.52651
G0 F7200 X126.324 Y176.000
G1 F2640 X178.674 Y176.000 E1184.70297
G0 F7200 X178.674 Y175.500
G1 F2640 X126.324 Y175.500 E1186.87943
G0 F7200 X126.324 Y175.000
G1 F2640 X178.674 Y175.000 E1189.05589
G0 F7200 X178.674 Y174.500
G1 F2640 X126.324 Y174.500 E1191.23235
G0 F7200 X126.324 Y174.000
G1 F2640 X178.674 Y174.000 E1193.40881
G0 F7200 X178.674 Y173.500
G1 F2640 X126.324 Y173.500 E1195.58527
G0 F7200 X126.324 Y173.000
G1 F2640 X178.674 Y173.000 E1197.76173
G0 F7200 X178.674 Y172.500
G1 F2640 X126.324 Y172.500 E1199.93819
G0 F7200 X126.324 Y172.000
G1 F2640 X178.674 Y172.000 E1202.11465
G0 F7200 X178.674 Y171.500
G1 F2640 X126.324 Y171.500 E1204.29111
G0 F7200 X126.324 Y171.000
G1 F2640 X178.674 Y171.000 E1206.46757
G0 F7200 X178.674 Y170.500
G1 F2640 X126.324 Y170.500 E1208.64403
G0 F7200 X126.324 Y170.000
G1 F2640 X178.674 Y170.000 E1210.82049
G0 F7200 X178.674 Y169.500
G1 F2640 X126.324 Y169.500 E1212.99695
G0 F7200 X126.324 Y169.000
G1 F2640 X178.674 Y169.000 E1215.17341
G0 F7200 X178.674 Y168.500
G1 F2640 X126.324 Y168.500 E1217.34987
G0 F7200 X126.324 Y168.000
G1 F2640 X178.674 Y168.000 E1219.52633
G0 F7200 X178.674 Y167.500
G1 F2640 X126.324 Y167.500 E1221.70279
G0 F7200 X126.324 Y167.000
G1 F2640 X178.674 Y167.000 E1223.87925
G0 F7200 X178.674 Y166.500
G1 F2640 X126.324 Y166.500 E1226.05571
G0 F7200 X126.324 Y166.000
G1 F2640 X178.674 Y166.000 E1228.23217
G0 F7200 X178.674 Y165.500
G1 F2640 X126.324 Y165.500 E1230.40863
G0 F7200 X126.324 Y165.000
G1 F2640 X178.674 Y165.000 E1232.58510
G0 F7200 X178.674 Y164.500
G1 F2640 X126.324 Y164.500 E1234.76156
G0 F7200 X126.324 Y164.000
G1 F2640 X178.674 Y164.000 E1236.93802
G0 F7200 X178.674 Y163.500
G1 F2640 X126.324 Y163.500 E1239.11448
G0 F7200 X126.324 Y163.000
G1 F2640 X178.674 Y163.000 E1241.29094
G0 F7200 X178.674 Y162.500
G1 F2640 X126.324 Y162.500 E1243.46740
G0 F7200 X126.324 Y162.000
G1 F2640 X178.674 Y162.000 E1245.64386
G0 F7200 X178.674 Y161.500
G1 F2640 X126.324 Y161.500 E1247.82032
G0 F7200 X126.324 Y161.000
G1 F2640 X178.674 Y161.000 E1249.99678
G0 F7200 X178.674 Y160.500
G1 F2640 X126.324 Y160.500 E1252.17324
G0 F7200 X126.324 Y160.000
G1 F2640 X178.674 Y160.000 E1254.34970
G0 F7200 X178.674 Y159.500
G1 F2640 X126.324 Y159.500 E1256.52616
G0 F7200 X126.324 Y159.000
G1 F2640 X178.674 Y159.000 E1258.70262
G0 F7200 X178.674 Y158.500
G1 F2640 X126.324 Y158.500 E1260.87908
G0 F7200 X126.324 Y158.000
G1 F2640 X178.674 Y158.000 E1263.05554
G0 F7200 X178.674 Y157.500
G1 F2640 X126.324 Y157.500 E1265.23200
G0 F7200 X126.324 Y157.000
G1 F2640 X178.674 Y157.000 E1267.40846
G0 F7200 X178.674 Y156.500
G1 F2640 X126.324 Y156.500 E1269.58492
G0 F7200 X126.324 Y156.000
G1 F2640 X178.674 Y156.000 E1271.76138
G0 F7200 X178.674 Y155.500
G1 F2640 X126.324 Y155.500 E1273.93784
G0 F7200 X126.324 Y155.000
G1 F2640 X178.674 Y155.000 E1276.11430
G0 F7200 X178.674 Y154.500
G1 F2640 X126.324 Y154.500 E1278.29076
G0 F7200 X126.324 Y154.000
G1 F2640 X178.674 Y154.000 E1280.46722
G0 F7200 X178.674 Y153.500
G1 F2640 X126.324 Y153.500 E1282.64368
G0 F7200 X126.324 Y153.000
G1 F2640 X178.674 Y153.000 E1284.82014
G0 F7200 X178.674 Y152.500
G1 F2640 X126.324 Y152.500 E1286.99660
G0 F7200 X126.324 Y152.000
G1 F2640 X178.674 Y152.000 E1289.17306
G0 F7200 X178.674 Y151.500
G1 F2640 X126.324 Y151.500 E1291.34952
G0 F7200 X126.324 Y151.000
G1 F2640 X178.674 Y151.000 E1293.52598
G0 F7200 X178.674 Y150.500
G1 F2640 X126.324 Y150.500 E1295.70244
G0 F7200 X126.324 Y150.000
G1 F2640 X178.674 Y150.000 E1297.87890
G0 F7200 X178.674 Y149.500
G1 F2640 X126.324 Y149.500 E1300.05536
G0 F7200 X126.324 Y149.000
G1 F2640 X178.674 Y149.000 E1302.23182
G0 F7200 X178.674 Y148.500
G1 F2640 X126.324 Y148.500 E1304.40828
G0 F7200 X126.324 Y148.000
G1 F2640 X178.674 Y148.000 E1306.58474
G0 F7200 X178.674 Y147.500
G1 F2640 X126.324 Y147.500 E1308.76120
G0 F7200 X126.324 Y147.000
G1 F2640 X178.674 Y147.000 E1310.93766
G0 F7200 X178.674 Y146.500
G1 F2640 X126.324 Y146.500 E1313.11412
G0 F7200 X126.324 Y146.000
G1 F2640 X178.674 Y146.000 E1315.29058
G0 F7200 X178.674 Y145.500
G1 F2640 X126.324 Y145.500 E1317.46704
G0 F7200 X126.324 Y145.000
G1 F2640 X178.674 Y145.000 E1319.64350
G0 F7200 X178.674 Y144.500
G1 F2640 X126.324 Y144.500 E1321.81996
G0 F7200 X126.324 Y144.000
G1 F2640 X178.674 Y144.000 E1323.99642
G0 F7200 X178.674 Y143.500
G1 F2640 X126.324 Y143.500 E1326.17288
G0 F7200 X126.324 Y143.000
G1 F2640 X178.674 Y143.000 E1328.34934
G0 F7200 X178.674 Y142.500
G1 F2640 X126.324 Y142.500 E1330.52580
G0 F7200 X126.324 Y142.000
G1 F2640 X178.674 Y142.000 E1332.70226
G0 F7200 X178.674 Y141.500
G1 F2640 X126.324 Y141.500 E1334.87872
G0 F7200 X126.324 Y141.000
G1 F2640 X178.674 Y141.000 E1337.05518
G0 F7200 X178.674 Y140.500
G1 F2640 X126.324 Y140.500 E1339.23164
G0 F7200 X126.324 Y140.000
G1 F2640 X178.674 Y140.000 E1341.40810
G0 F7200 X178.674 Y139.500
G1 F2640 X126.324 Y139.500 E1343.58456
G0 F7200 X126.324 Y139.000
G1 F2640 X178.674 Y139.000 E1345.76102
G0 F7200 X178.674 Y138.500
G1 F2640 X126.324 Y138.500 E1347.93748
G0 F7200 X126.324 Y138.000
G1 F2640 X178.674 Y138.000 E1350.11394
G0 F7200 X178.674 Y137.500
G1 F2640 X126.324 Y137.500 E1352.29040
G0 F7200 X126.324 Y137.000
G1 F2640 X178.674 Y137.000 E1354.46686
G0 F7200 X178.674 Y136.500
G1 F2640 X126.324 Y136.500 E1356.64332
G0 F7200 X126.324 Y136.000
G1 F2640 X178.674 Y136.000 E1358.81978
G0 F7200 X178.674 Y135.500
G1 F2640 X126.324 Y135.500 E1360.99624
G0 F7200 X126.324 Y135.000
G1 F2640 X178.674 Y135.000 E1363.17270
G0 F7200 X178.674 Y134.500
G1 F2640 X126.324 Y134.500 E1365.34916
G0 F7200 X126.324 Y134.000
G1 F2640 X178.674 Y134.000 E1367.52562
G0 F7200 X178.674 Y133.500
G1 F2640 X126.324 Y133.500 E1369.70208
G0 F7200 X126.324 Y133.000
G1 F2640 X178.674 Y133.000 E1371.87854
G0 F7200 X178.674 Y132.500
G1 F2640 X126.324 Y132.500 E1374.05500
G0 F7200 X126.324 Y132.000
G1 F2640 X178.674 Y132.000 E1376.23146
G0 F7200 X178.674 Y131.500
G1 F2640 X126.324 Y131.500 E1378.40792
G0 F7200 X126.324 Y131.000
G1 F2640 X178.674 Y131.000 E1380.58438
G0 F7200 X178.674 Y130.500
G1 F2640 X126.324 Y130.500 E1382.76084
G0 F7200 X126.324 Y130.000
G1 F2640 X178.674 Y130.000 E1384.93730
G0 F7200 X178.674 Y129.500
G1 F2640 X126.324 Y129.500 E1387.11376
G0 F7200 X126.324 Y129.000
G1 F2640 X178.674 Y129.000 E1389.29022
G0 F7200 X178.674 Y128.500
G1 F2640 X126.324 Y128.500 E1391.46668
G0 F7200 X126.324 Y128.000
G1 F2640 X178.674 Y128.000 E1393.64314
G0 F7200 X178.674 Y127.500
G1 F2640 X126.324 Y127.500 E1395.81960
G0 F7200 X126.324 Y127.000
G1 F2640 X178.674 Y127.000 E1397.99606
G0 F7200 X178.674 Y126.500
G1 F2640 X126.324 Y126.500 E1400.17252
G0 F7200 X126.324 Y126.000
G1 F2640 X178.674 Y126.000 E1402.34898
G0 F7200 X178.674 Y125.500
G1 F2640 X126.324 Y125.500 E1404.52544
G0 F7200 X126.324 Y125.000
G1 F2640 X178.674 Y125.000 E1406.70190
G0 F7200 X178.674 Y124.500
G1 F2640 X126.324 Y124.500 E1408.87836
G0 F7200 X126.324 Y124.000
G1 F2640 X178.674 Y124.000 E1411.05482
G0 F7200 X178.674 Y123.500
G1 F2640 X126.324 Y123.500 E1413.23128
G0 F7200 X126.324 Y123.000
G1 F2640 X178.674 Y123.000 E1415.40774
G0 F7200 X178.674 Y122.500
G1 F2640 X126.324 Y122.500 E1417.58420
G0 F7200 X126.324 Y122.000
G1 F2640 X178.674 Y122.000 E1419.76066
G0 F7200 X178.674 Y121.500
G1 F2640 X177.388 Y121.500 E1419.81413
G0 F7200 X178.033 Y121.000
G1 F2640 X178.674 Y120.750 E1419.84073
G1 X178.417 Y120.500 E1419.85564
G1 F2100 E1419.45564
G0 F7200 X174.800 Y121.500
G1 F2100 E1419.85564
G1 F2640 X130.199 Y121.500 E1421.70993
G0 F7200 X130.844 Y121.000
G1 F2640 X174.155 Y121.000 E1423.51059
G0 F7200 X173.771 Y120.500
G1 F2640 X131.227 Y120.500 E1425.27937
G0 F7200 X131.438 Y120.000
G1 F2640 X173.562 Y120.000 E1427.03068
G0 F7200 X173.453 Y119.500
G1 F2640 X131.546 Y119.500 E1428.77297
G0 F7200 X131.569 Y119.000
G1 F2640 X173.427 Y119.000 E1430.51322
G0 F7200 X173.493 Y118.500
G1 F2640 X131.505 Y118.500 E1432.25888
G0 F7200 X131.308 Y118.000
G1 F2640 X173.689 Y118.000 E1434.02088
G0 F7200 X174.007 Y117.500
G1 F2640 X130.989 Y117.500 E1435.80936
G0 F7200 X130.469 Y117.000
G1 F2640 X174.528 Y117.000 E1437.64112
G1 F2100 E1437.24112
G0 F7200 X177.658 Y117.000
G1 F2100 E1437.64112
G1 F2640 X178.674 Y117.000 E1437.68336
G0 F7200 X178.674 Y117.500
G1 F2640 X178.337 Y117.750 E1437.70395
G1 X178.674 Y118.000 E1437.72139
G1 F2100 E1437.32139
G0 F7200 X127.611 Y121.500
G1 F2100 E1437.72139
G1 F2640 X126.324 Y121.500 E1437.77490
G0 F7200 X126.324 Y121.000
G1 F2640 X126.774 Y120.750 E1437.80161
G1 X126.324 Y120.500 E1437.82301
G1 F2100 E1437.42301
G0 F7200 X126.324 Y118.000
G1 F2100 E1437.82301
G1 F2640 X126.412 Y117.750 E1437.83035
G1 X126.818 Y117.500 E1437.85017
G0 F7200 X126.324 Y117.000
G1 F2640 X127.339 Y117.000 E1437.89237
;LAYER:4
M106 S40
G0 F7200 X127.651 Y116.983 Z1.000
;TYPE:WALL-INNER
G1 F3000 X127.131 Y117.381 E1437.91960
G1 X126.733 Y117.901 E1437.94682
G1 X126.482 Y118.506 E1437.97405
G1 X126.396 Y119.156 E1438.00131
G1 X126.482 Y119.805 E1438.02853
G1 X126.733 Y120.410 E1438.05576
G1 X127.131 Y120.930 E1438.08299
G1 X127.651 Y121.328 E1438.11021
G1 X128.256 Y121.580 E1438.13746
G1 X128.906 Y121.664 E1438.16471
G1 X129.555 Y121.580 E1438.19191
G1 X130.160 Y121.328 E1438.21916
G1 X130.680 Y120.930 E1438.24639
G1 X131.078 Y120.410 E1438.27361
G1 X131.330 Y119.805 E1438.30086
G1 X131.414 Y119.156 E1438.32807
G1 X131.330 Y118.506 E1438.35531
G1 X131.078 Y117.901 E1438.38256
G1 X130.680 Y117.381 E1438.40979
G1 X130.160 Y116.983 E1438.43701
G1 X129.555 Y116.732 E1438.46424
G1 X128.906 Y116.646 E1438.49146
G1 X128.256 Y116.732 E1438.51872
G1 X127.651 Y116.983 E1438.54595
G1 F2100 E1438.14595
G0 F7200 X126.150 Y116.401
G1 F2100 E1438.54595
G1 F3000 X178.850 Y116.401 E1440.73696
G1 X178.850 Y188.599 E1443.73861
G1 X126.150 Y188.599 E1445.92962
G1 X126.150 Y116.401 E1448.93126
G1 F2100 E1448.53126
G0 F7200 X173.585 Y119.156
G1 F2100 E1448.93126
G1 F3000 X173.671 Y119.805 E1448.95848
G1 X173.922 Y120.410 E1448.98571
G1 X174.320 Y120.930 E1449.01294
G1 X174.840 Y121.328 E1449.04016
G1 X175.445 Y121.580 E1449.06741
G1 X176.095 Y121.664 E1449.09466
G1 X176.744 Y121.580 E1449.12187
G1 X177.349 Y121.328 E1449.14911
G1 X177.869 Y120.930 E1449.17634
G1 X178.267 Y120.410 E1449.20356
G1 X178.519 Y119.805 E1449.23081
G1 X178.603 Y119.156 E1449.25802
G1 X178.519 Y118.506 E1449.28527
G1 X178.267 Y117.901 E1449.31252
G1 X177.869 Y117.381 E1449.33974
G1 X177.349 Y116.983 E1449.36696
G1 X176.744 Y116.732 E1449.39420
G1 X176.095 Y116.646 E1449.42141
G1 X175.445 Y116.732 E1449.44867
G1 X174.840 Y116.983 E1449.47591
G1 X174.320 Y117.381 E1449.50313
G1 X173.922 Y117.901 E1449.53036
G1 X173.671 Y118.506 E1449.55759
G1 X173.585 Y119.156 E1449.58485
G1 F2100 E1449.18485
G0 F7200 X176.095 Y183.335
G1 F2100 E1449.58485
G1 F3000 X175.445 Y183.421 E1449.61211
G1 X174.840 Y183.672 E1449.63934
G1 X174.320 Y184.070 E1449.66656
G1 X173.922 Y184.590 E1449.69379
G1 X173.671 Y185.195 E1449.72102
G1 X173.585 Y185.845 E1449.74828
G1 X173.671 Y186.494 E1449.77550
G1 X173.922 Y187.099 E1449.80273
G1 X174.320 Y187.619 E1449.82995
G1 X174.840 Y188.017 E1449.85718
G1 X175.445 Y188.269 E1449.88443
G1 X176.095 Y188.353 E1449.91167
G1 X176.744 Y188.269 E1449.93888
G1 X177.349 Y188.017 E1449.96613
G1 X177.869 Y187.619 E1449.99335
G1 X178.267 Y187.099 E1450.02058
G1 X178.519 Y186.494 E1450.04783
G1 X178.603 Y185.845 E1450.07503
G1 X178.519 Y185.195 E1450.10228
G1 X178.267 Y184.590 E1450.12953
G1 X177.869 Y184.070 E1450.15675
G1 X177.349 Y183.672 E1450.18398
G1 X176.744 Y183.421 E1450.21121
G1 X176.095 Y183.335 E1450.23843
G1 F2100 E1449.83843
G0 F7200 X131.414 Y185.845
G1 F2100 E1450.23843
G1 F3000 X131.330 Y185.195 E1450.26568
G1 X131.078 Y184.590 E1450.29293
G1 X130.680 Y184.070 E1450.32015
G1 X130.160 Y183.672 E1450.34737
G1 X129.555 Y183.421 E1450.37461
G1 X128.906 Y183.335 E1450.40182
G1 X128.256 Y183.421 E1450.42908
G1 X127.651 Y183.672 E1450.45632
G1 X127.131 Y184.070 E1450.48354
G1 X126.733 Y184.590 E1450.51077
G1 X126.482 Y185.195 E1450.53800
G1 X126.396 Y185.845 E1450.56526
G1 X126.482 Y186.494 E1450.59247
G1 X126.733 Y187.099 E1450.61971
G1 X127.131 Y187.619 E1450.64693
G1 X127.651 Y188.017 E1450.67416
G1 X128.256 Y188.269 E1450.70140
G1 X128.906 Y188.353 E1450.72865
G1 X129.555 Y188.269 E1450.75586
G1 X130.160 Y188.017 E1450.78311
G1 X130.680 Y187.619 E1450.81033
G1 X131.078 Y187.099 E1450.83756
G1 X131.330 Y186.494 E1450.86480
G1 X131.414 Y185.845 E1450.89201
G0 F7200 X130.910 Y185.845
;TYPE:WALL-OUTER
G1 F3000 X130.843 Y185.326 E1450.91377
G1 X130.641 Y184.842 E1450.93557
G1 X130.323 Y184.427 E1450.95731
G1 X129.908 Y184.109 E1450.97905
G1 X129.424 Y183.908 E1451.00083
G1 X128.906 Y183.840 E1451.02256
G1 X128.387 Y183.908 E1451.04432
G1 X127.903 Y184.109 E1451.06611
G1 X127.488 Y184.427 E1451.08784
G1 X127.170 Y184.842 E1451.10958
G1 X126.969 Y185.326 E1451.13137
G1 X126.901 Y185.845 E1451.15313
G1 X126.969 Y186.363 E1451.17485
G1 X127.170 Y186.847 E1451.19664
G1 X127.488 Y187.262 E1451.21838
G1 X127.903 Y187.580 E1451.24011
G1 X128.387 Y187.782 E1451.26192
G1 X128.906 Y187.849 E1451.28367
G1 X129.424 Y187.782 E1451.30539
G1 X129.908 Y187.580 E1451.32719
G1 X130.323 Y187.262 E1451.34893
G1 X130.641 Y186.847 E1451.37067
G1 X130.843 Y186.363 E1451.39247
G1 X130.910 Y185.845 E1451.41419
G1 F2100 E1451.01419
G0 F7200 X125.650 Y189.099
G1 F2100 E1451.41419
G1 F3000 X125.650 Y115.901 E1454.45741
G1 X179.350 Y115.901 E1456.68999
G1 X179.350 Y189.099 E1459.73321
G1 X125.650 Y189.099 E1461.96580
G1 F2100 E1461.56580
G0 F7200 X174.090 Y185.845
G1 F2100 E1461.96580
G1 F3000 X174.158 Y186.363 E1461.98752
G1 X174.359 Y186.847 E1462.00931
G1 X174.677 Y187.262 E1462.03104
G1 X175.092 Y187.580 E1462.05278
G1 X175.576 Y187.782 E1462.07459
G1 X176.095 Y187.849 E1462.09634
G1 X176.613 Y187.782 E1462.11806
G1 X177.097 Y187.580 E1462.13986
G1 X177.512 Y187.262 E1462.16160
G1 X177.830 Y186.847 E1462.18334
G1 X178.032 Y186.363 E1462.20514
G1 X178.099 Y185.845 E1462.22686
G1 X178.032 Y185.326 E1462.24861
G1 X177.830 Y184.842 E1462.27042
G1 X177.512 Y184.427 E1462.29215
G1 X177.097 Y184.109 E1462.31389
G1 X176.613 Y183.908 E1462.33568
G1 X176.095 Y183.840 E1462.35740
G1 X175.576 Y183.908 E1462.37916
G1 X175.092 Y184.109 E1462.40095
G1 X174.677 Y184.427 E1462.42269
G1 X174.359 Y184.842 E1462.44442
G1 X174.158 Y185.326 E1462.46621
G1 X174.090 Y185.845 E1462.48797
G1 F2100 E1462.08797
G0 F7200 X176.095 Y121.160
G1 F2100 E1462.48797
G1 F3000 X176.613 Y121.093 E1462.50969
G1 X177.097 Y120.891 E1462.53149
G1 X177.512 Y120.573 E1462.55323
G1 X177.830 Y120.158 E1462.57497
G1 X178.032 Y119.674 E1462.59677
G1 X178.099 Y119.156 E1462.61849
G1 X178.032 Y118.637 E1462.64024
G1 X177.830 Y118.153 E1462.66205
G1 X177.512 Y117.738 E1462.68378
G1 X177.097 Y117.420 E1462.70552
G1 X176.613 Y117.219 E1462.72731
G1 X176.095 Y117.151 E1462.74903
G1 X175.576 Y117.219 E1462.77079
G1 X175.092 Y117.420 E1462.79258
G1 X174.677 Y117.738 E1462.81432
G1 X174.359 Y118.153 E1462.83605
G1 X174.158 Y118.637 E1462.85784
G1 X174.090 Y119.156 E1462.87960
G1 X174.158 Y119.674 E1462.90133
G1 X174.359 Y120.158 E1462.92311
G1 X174.677 Y120.573 E1462.94485
G1 X175.092 Y120.891 E1462.96659
G1 X175.576 Y121.093 E1462.98839
G1 X176.095 Y121.160 E1463.01015
G1 F2100 E1462.61015
G0 F7200 X130.910 Y119.156
G1 F2100 E1463.01015
G1 F3000 X130.843 Y118.637 E1463.03191
G1 X130.641 Y118.153 E1463.05371
G1 X130.323 Y117.738 E1463.07545
G1 X129.908 Y117.420 E1463.09718
G1 X129.424 Y117.219 E1463.11897
G1 X128.906 Y117.151 E1463.14069
G1 X128.387 Y117.219 E1463.16245
G1 X127.903 Y117.420 E1463.18424
G1 X127.488 Y117.738 E1463.20598
G1 X127.170 Y118.153 E1463.22772
G1 X126.969 Y118.637 E1463.24950
G1 X126.901 Y119.156 E1463.27127
G1 X126.969 Y119.674 E1463.29299
G1 X127.170 Y120.158 E1463.31478
G1 X127.488 Y120.573 E1463.33651
G1 X127.903 Y120.891 E1463.35825
G1 X128.387 Y121.093 E1463.38005
G1 X128.906 Y121.160 E1463.40181
G1 X129.424 Y121.093 E1463.42353
G1 X129.908 Y120.891 E1463.44533
G1 X130.323 Y120.573 E1463.46707
G1 X130.641 Y120.158 E1463.48880
G1 X130.843 Y119.674 E1463.51061
G1 X130.910 Y119.156 E1463.53232
G1 F2100 E1463.13232
G0 F7200 X127.272 Y117.052
;TYPE:FILL
G1 F2100 E1463.53232
G1 F3000 X126.324 Y117.600 E1463.57785
G1 F2100 E1463.17785
G0 F7200 X135.418 Y116.576
G1 F2100 E1463.57785
G1 F3000 X135.418 Y188.424 E1466.56494
G1 F2100 E1466.16494
G0 F7200 X129.971 Y183.404
G1 F2100 E1466.56494
G1 F3000 X178.673 Y155.286 E1468.90297
G1 F2100 E1468.50297
G0 F7200 X178.675 Y149.712
G1 F2100 E1468.90297
G1 F3000 X129.973 Y121.594 E1471.24100
G1 F2100 E1470.84100
G0 F7200 X126.324 Y128.918
G1 F2100 E1471.24100
G1 F3000 X147.704 Y116.575 E1472.26737
G1 F2100 E1471.86737
G0 F7200 X145.220 Y116.576
G1 F2100 E1472.26737
G1 F3000 X145.220 Y188.424 E1475.25446
G1 F2100 E1474.85446
G0 F7200 X147.703 Y188.422
G1 F2100 E1475.25446
G1 F3000 X126.324 Y176.079 E1476.28080
G1 F2100 E1475.88080
G0 F7200 X126.325 Y174.191
G1 F2100 E1476.28080
G1 F3000 X178.673 Y143.968 E1478.79386
G1 F2100 E1478.39386
G0 F7200 X178.675 Y138.393
G1 F2100 E1478.79386
G1 F3000 X140.884 Y116.575 E1480.60807
G1 F2100 E1480.20807
G0 F7200 X155.022 Y116.576
G1 F2100 E1480.60807
G1 F3000 X155.022 Y188.424 E1483.59516
G1 F2100 E1483.19516
G0 F7200 X140.882 Y188.423
G1 F2100 E1483.59516
G1 F3000 X178.673 Y166.605 E1485.40938
G1 F2100 E1485.00938
G0 F7200 X178.675 Y161.030
G1 F2100 E1485.40938
G1 F3000 X126.325 Y130.806 E1487.92253
G1 F2100 E1487.52253
G0 F7200 X126.324 Y140.236
G1 F2100 E1487.92253
G1 F3000 X167.307 Y116.575 E1489.88999
G1 F2100 E1489.48999
G0 F7200 X164.824 Y116.576
G1 F2100 E1489.88999
G1 F3000 X164.824 Y188.424 E1492.87708
G1 F2100 E1492.47708
G0 F7200 X167.307 Y188.422
G1 F2100 E1492.87708
G1 F3000 X126.324 Y164.761 E1494.84453
G1 F2100 E1494.44453
G0 F7200 X126.325 Y162.873
G1 F2100 E1494.84453
G1 F3000 X178.673 Y132.649 E1497.35762
G1 F2100 E1496.95762
G0 F7200 X178.675 Y127.075
G1 F2100 E1497.35762
G1 F3000 X160.488 Y116.575 E1498.23071
G1 F2100 E1497.83071
G0 F7200 X174.626 Y116.576
G1 F2100 E1498.23071
G1 F3000 X174.626 Y116.928 E1498.24535
G0 F7200 X174.626 Y121.384
G1 F3000 X174.626 Y183.617 E1500.83269
G1 F2100 E1500.43269
G0 F7200 X178.675 Y183.667
G1 F2100 E1500.83269
G1 F3000 X126.324 Y153.442 E1503.34590
G1 F2100 E1502.94590
G0 F7200 X126.324 Y151.555
G1 F2100 E1503.34590
G1 F3000 X178.673 Y121.331 E1505.85902
G1 F2100 E1505.45902
G0 F7200 X178.675 Y172.349
G1 F2100 E1505.85902
G1 F3000 X126.325 Y142.124 E1508.37220
G1 F2100 E1507.97220
G0 F7200 X126.324 Y187.397
G1 F2100 E1508.37220
G1 F3000 X127.268 Y187.942 E1508.41751
G1 F2100 E1508.01751
G0 F7200 X160.486 Y188.423
G1 F2100 E1508.41751
G1 F3000 X178.673 Y177.923 E1509.29061
G1 F2100 E1508.89061
G0 F7200 X174.626 Y188.073
G1 F2100 E1509.29061
G1 F3000 X174.626 Y188.424 E1509.30520
;LAYER:5
M106 S51
G0 F7200 X174.840 Y188.017 Z1.200
;TYPE:WALL-INNER
G1 F3000 X175.445 Y188.269 E1509.33245
G1 X176.095 Y188.353 E1509.35970
G1 X176.744 Y188.269 E1509.38691
G1 X177.349 Y188.017 E1509.41415
G1 X177.869 Y187.619 E1509.44138
G1 X178.267 Y187.099 E1509.46860
G1 X178.519 Y186.494 E1509.49585
G1 X178.603 Y185.845 E1509.52306
G1 X178.519 Y185.195 E1509.55031
G1 X178.267 Y184.590 E1509.57755
G1 X177.869 Y184.070 E1509.60478
G1 X177.349 Y183.672 E1509.63200
G1 X176.744 Y183.421 E1509.65923
G1 X176.095 Y183.335 E1509.68645
G1 X175.445 Y183.421 E1509.71371
G1 X174.840 Y183.672 E1509.74094
G1 X174.320 Y184.070 E1509.76817
G1 X173.922 Y184.590 E1509.79539
G1 X173.671 Y185.195 E1509.82263
G1 X173.585 Y185.845 E1509.84988
G1 X173.671 Y186.494 E1509.87710
G1 X173.922 Y187.099 E1509.90433
G1 X174.320 Y187.619 E1509.93156
G1 X174.840 Y188.017 E1509.95878
G1 F2100 E1509.55878
G0 F7200 X178.850 Y188.599
G1 F2100 E1509.95878
G1 F3000 X126.150 Y188.599 E1512.14980
G1 X126.150 Y116.401 E1515.15144
G1 X178.850 Y116.401 E1517.34245
G1 X178.850 Y188.599 E1520.34409
G1 F2100 E1519.94409
G0 F7200 X131.414 Y185.845
G1 F2100 E1520.34409
G1 F3000 X131.330 Y185.195 E1520.37134
G1 X131.078 Y184.590 E1520.39859
G1 X130.680 Y184.070 E1520.42582
G1 X130.160 Y183.672 E1520.45304
G1 X129.555 Y183.421 E1520.48027
G1 X128.906 Y183.335 E1520.50749
G1 X128.256 Y183.421 E1520.53475
G1 X127.651 Y183.672 E1520.56198
G1 X127.131 Y184.070 E1520.58921
G1 X126.733 Y184.590 E1520.61643
G1 X126.482 Y185.195 E1520.64366
G1 X126.396 Y185.845 E1520.67092
G1 X126.482 Y186.494 E1520.69814
G1 X126.733 Y187.099 E1520.72537
G1 X127.131 Y187.619 E1520.75260
G1 X127.651 Y188.017 E1520.77982
G1 X128.256 Y188.269 E1520.80707
G1 X128.906 Y188.353 E1520.83432
G1 X129.555 Y188.269 E1520.86153
G1 X130.160 Y188.017 E1520.88877
G1 X130.680 Y187.619 E1520.91600
G1 X131.078 Y187.099 E1520.94322
G1 X131.330 Y186.494 E1520.97047
G1 X131.414 Y185.845 E1520.99768
G1 F2100 E1520.59768
G0 F7200 X128.906 Y121.664
G1 F2100 E1520.99768
G1 F3000 X129.555 Y121.580 E1521.02488
G1 X130.160 Y121.328 E1521.05213
G1 X130.680 Y120.930 E1521.07936
G1 X131.078 Y120.410 E1521.10658
G1 X131.330 Y119.805 E1521.13383
G1 X131.414 Y119.156 E1521.16104
G1 X131.330 Y118.506 E1521.18829
G1 X131.078 Y117.901 E1521.21553
G1 X130.680 Y117.381 E1521.24276
G1 X130.160 Y116.983 E1521.26998
G1 X129.555 Y116.732 E1521.29721
G1 X128.906 Y116.646 E1521.32443
G1 X128.256 Y116.732 E1521.35169
G1 X127.651 Y116.983 E1521.37892
G1 X127.131 Y117.381 E1521.40615
G1 X126.733 Y117.901 E1521.43337
G1 X126.482 Y118.506 E1521.46061
G1 X126.396 Y119.156 E1521.48786
G1 X126.482 Y119.805 E1521.51508
G1 X126.733 Y120.410 E1521.54231
G1 X127.131 Y120.930 E1521.56954
G1 X127.651 Y121.328 E1521.59676
G1 X128.256 Y121.580 E1521.62401
G1 X128.906 Y121.664 E1521.65126
G1 F2100 E1521.25126
G0 F7200 X173.585 Y119.156
G1 F2100 E1521.65126
G1 F3000 X173.671 Y119.805 E1521.67848
G1 X173.922 Y120.410 E1521.70571
G1 X174.320 Y120.930 E1521.73293
G1 X174.840 Y121.328 E1521.76016
G1 X175.445 Y121.580 E1521.78741
G1 X176.095 Y121.664 E1521.81466
G1 X176.744 Y121.580 E1521.84186
G1 X177.349 Y121.328 E1521.86911
G1 X177.869 Y120.930 E1521.89634
G1 X178.267 Y120.410 E1521.92356
G1 X178.519 Y119.805 E1521.95081
G1 X178.603 Y119.156 E1521.97802
G1 X178.519 Y118.506 E1522.00526
G1 X178.267 Y117.901 E1522.03251
G1 X177.869 Y117.381 E1522.05974
G1 X177.349 Y116.983 E1522.08696
G1 X176.744 Y116.732 E1522.11419
G1 X176.095 Y116.646 E1522.14141
G1 X175.445 Y116.732 E1522.16867
G1 X174.840 Y116.983 E1522.19590
G1 X174.320 Y117.381 E1522.22313
G1 X173.922 Y117.901 E1522.25035
G1 X173.671 Y118.506 E1522.27758
G1 X173.585 Y119.156 E1522.30484
G0 F7200 X174.090 Y119.156
;TYPE:WALL-OUTER
G1 F3000 X174.158 Y119.674 E1522.32656
G1 X174.359 Y120.158 E1522.34835
G1 X174.677 Y120.573 E1522.37009
G1 X175.092 Y120.891 E1522.39183
G1 X175.576 Y121.093 E1522.41363
G1 X176.095 Y121.160 E1522.43539
G1 X176.613 Y121.093 E1522.45710
G1 X177.097 Y120.891 E1522.47891
G1 X177.512 Y120.573 E1522.50064
G1 X177.830 Y120.158 E1522.52238
G1 X178.032 Y119.674 E1522.54418
G1 X178.099 Y119.156 E1522.56590
G1 X178.032 Y118.637 E1522.58766
G1 X177.830 Y118.153 E1522.60946
G1 X177.512 Y117.738 E1522.63120
G1 X177.097 Y117.420 E1522.65293
G1 X176.613 Y117.219 E1522.67472
G1 X176.095 Y117.151 E1522.69644
G1 X175.576 Y117.219 E1522.71821
G1 X175.092 Y117.420 E1522.73999
G1 X174.677 Y117.738 E1522.76173
G1 X174.359 Y118.153 E1522.78347
G1 X174.158 Y118.637 E1522.80526
G1 X174.090 Y119.156 E1522.82702
G1 F2100 E1522.42702
G0 F7200 X179.350 Y115.901
G1 F2100 E1522.82702
G1 F3000 X179.350 Y189.099 E1525.87024
G1 X125.650 Y189.099 E1528.10282
G1 X125.650 Y115.901 E1531.14604
G1 X179.350 Y115.901 E1533.37863
G1 F2100 E1532.97863
G0 F7200 X130.910 Y119.156
G1 F2100 E1533.37863
G1 F3000 X130.843 Y118.637 E1533.40039
G1 X130.641 Y118.153 E1533.42219
G1 X130.323 Y117.738 E1533.44393
G1 X129.908 Y117.420 E1533.46566
G1 X129.424 Y117.219 E1533.48745
G1 X128.906 Y117.151 E1533.50917
G1 X128.387 Y117.219 E1533.53094
G1 X127.903 Y117.420 E1533.55272
G1 X127.488 Y117.738 E1533.57446
G1 X127.170 Y118.153 E1533.59620
G1 X126.969 Y118.637 E1533.61799
G1 X126.901 Y119.156 E1533.63975
G1 X126.969 Y119.674 E1533.66147
G1 X127.170 Y120.158 E1533.68326
G1 X127.488 Y120.573 E1533.70499
G1 X127.903 Y120.891 E1533.72673
G1 X128.387 Y121.093 E1533.74853
G1 X128.906 Y121.160 E1533.77029
G1 X129.424 Y121.093 E1533.79201
G1 X129.908 Y120.891 E1533.81381
G1 X130.323 Y120.573 E1533.83555
G1 X130.641 Y120.158 E1533.85728
G1 X130.843 Y119.674 E1533.87909
G1 X130.910 Y119.156 E1533.90080
G1 F2100 E1533.50080
G0 F7200 X128.906 Y183.840
G1 F2100 E1533.90080
G1 F3000 X128.387 Y183.908 E1533.92257
G1 X127.903 Y184.109 E1533.94436
G1 X127.488 Y184.427 E1533.96609
G1 X127.170 Y184.842 E1533.98783
G1 X126.969 Y185.326 E1534.00962
G1 X126.901 Y185.845 E1534.03138
G1 X126.969 Y186.363 E1534.05310
G1 X127.170 Y186.847 E1534.07489
G1 X127.488 Y187.262 E1534.09662
G1 X127.903 Y187.580 E1534.11836
G1 X128.387 Y187.782 E1534.14017
G1 X128.906 Y187.849 E1534.16192
G1 X129.424 Y187.782 E1534.18364
G1 X129.908 Y187.580 E1534.20544
G1 X130.323 Y187.262 E1534.22718
G1 X130.641 Y186.847 E1534.24892
G1 X130.843 Y186.363 E1534.27072
G1 X130.910 Y185.845 E1534.29244
G1 X130.843 Y185.326 E1534.31419
G1 X130.641 Y184.842 E1534.33600
G1 X130.323 Y184.427 E1534.35773
G1 X129.908 Y184.109 E1534.37947
G1 X129.424 Y183.908 E1534.40126
G1 X128.906 Y183.840 E1534.42298
G1 F2100 E1534.02298
G0 F7200 X174.090 Y185.845
G1 F2100 E1534.42298
G1 F3000 X174.158 Y186.363 E1534.44470
G1 X174.359 Y186.847 E1534.46649
G1 X174.677 Y187.262 E1534.48823
G1 X175.092 Y187.580 E1534.50996
G1 X175.576 Y187.782 E1534.53177
G1 X176.095 Y187.849 E1534.55352
G1 X176.613 Y187.782 E1534.57524
G1 X177.097 Y187.580 E1534.59704
G1 X177.512 Y187.262 E1534.61878
G1 X177.830 Y186.847 E1534.64052
G1 X178.032 Y186.363 E1534.66232
G1 X178.099 Y185.845 E1534.68404
G1 X178.032 Y185.326 E1534.70579
G1 X177.830 Y184.842 E1534.72760
G1 X177.512 Y184.427 E1534.74933
G1 X177.097 Y184.109 E1534.77107
G1 X176.613 Y183.908 E1534.79286
G1 X176.095 Y183.840 E1534.81458
G1 X175.576 Y183.908 E1534.83634
G1 X175.092 Y184.109 E1534.85813
G1 X174.677 Y184.427 E1534.87987
G1 X174.359 Y184.842 E1534.90160
G1 X174.158 Y185.326 E1534.92339
G1 X174.090 Y185.845 E1534.94515
G1 F2100 E1534.54515
G0 F7200 X174.485 Y183.725
;TYPE:FILL
G1 F2100 E1534.94515
G1 F3000 X174.485 Y121.276 E1537.54148
G1 F2100 E1537.14148
G0 F7200 X178.673 Y121.494
G1 F2100 E1537.54148
G1 F3000 X126.325 Y151.717 E1540.05454
G1 F2100 E1539.65454
G0 F7200 X126.325 Y153.280
G1 F2100 E1540.05454
G1 F3000 X178.675 Y183.504 E1542.56770
G1 F2100 E1542.16770
G0 F7200 X178.673 Y178.086
G1 F2100 E1542.56770
G1 F3000 X160.768 Y188.423 E1543.42725
G1 F2100 E1543.02725
G0 F7200 X164.683 Y188.424
G1 F2100 E1543.42725
G1 F3000 X164.683 Y116.576 E1546.41434
G1 F2100 E1546.01434
G0 F7200 X167.589 Y116.575
G1 F2100 E1546.41434
G1 F3000 X126.325 Y140.399 E1548.39530
G1 F2100 E1547.99530
G0 F7200 X126.324 Y141.961
G1 F2100 E1548.39530
G1 F3000 X178.675 Y172.186 E1550.90851
G1 F2100 E1550.50851
G0 F7200 X178.673 Y166.767
G1 F2100 E1550.90851
G1 F3000 X141.164 Y188.423 E1552.70921
G1 F2100 E1552.30921
G0 F7200 X145.079 Y188.424
G1 F2100 E1552.70921
G1 F3000 X145.079 Y116.576 E1555.69630
G1 F2100 E1555.29630
G0 F7200 X147.985 Y116.575
G1 F2100 E1555.69630
G1 F3000 X126.324 Y129.081 E1556.73618
G1 F2100 E1556.33618
G0 F7200 X126.324 Y130.643
G1 F2100 E1556.73618
G1 F3000 X178.675 Y160.867 E1559.24937
G1 F2100 E1558.84937
G0 F7200 X178.673 Y155.449
G1 F2100 E1559.24937
G1 F3000 X130.135 Y183.473 E1561.57954
G1 F2100 E1561.17954
G0 F7200 X126.851 Y187.539
G1 F2100 E1561.57954
G1 F3000 X126.323 Y187.234 E1561.60489
G1 F2100 E1561.20489
G0 F7200 X135.277 Y188.424
G1 F2100 E1561.60489
G1 F3000 X135.277 Y116.576 E1564.59198
G1 F2100 E1564.19198
G0 F7200 X126.851 Y117.458
G1 F2100 E1564.59198
G1 F3000 X126.324 Y117.762 E1564.61727
G1 F2100 E1564.21727
G0 F7200 X130.137 Y121.526
G1 F2100 E1564.61727
G1 F3000 X178.675 Y149.549 E1566.94742
G1 F2100 E1566.54742
G0 F7200 X178.673 Y144.131
G1 F2100 E1566.94742
G1 F3000 X126.324 Y174.354 E1569.46052
G1 F2100 E1569.06052
G0 F7200 X126.324 Y175.916
G1 F2100 E1569.46052
G1 F3000 X147.985 Y188.422 E1570.50040
G1 F2100 E1570.10040
G0 F7200 X154.881 Y188.424
G1 F2100 E1570.50040
G1 F3000 X154.881 Y116.576 E1573.48749
G1 F2100 E1573.08749
G0 F7200 X141.166 Y116.575
G1 F2100 E1573.48749
G1 F3000 X178.675 Y138.231 E1575.28818
G1 F2100 E1574.88818
G0 F7200 X178.674 Y132.812
G1 F2100 E1575.28818
G1 F3000 X126.324 Y163.036 E1577.80134
G1 F2100 E1577.40134
G0 F7200 X126.325 Y164.598
G1 F2100 E1577.80134
G1 F3000 X167.590 Y188.423 E1579.78235
G1 F2100 E1579.38235
G0 F7200 X174.485 Y188.424
G1 F2100 E1579.78235
G1 F3000 X174.485 Y187.965 E1579.80144
G0 F7200 X178.675 Y126.912
G1 F3000 X160.770 Y116.575 E1580.66099
G1 F2100 E1580.26099
G0 F7200 X174.485 Y116.576
G1 F2100 E1580.66099
G1 F3000 X174.485 Y117.036 E1580.68011
;LAYER:6
M106 S63
G0 F7200 X174.840 Y116.983 Z1.400
;TYPE:WALL-INNER
G1 F3000 X174.320 Y117.381 E1580.70734
G1 X173.922 Y117.901 E1580.73456
G1 X173.671 Y118.506 E1580.76179
G1 X173.585 Y119.156 E1580.78905
G1 X173.671 Y119.805 E1580.81627
G1 X173.922 Y120.410 E1580.84350
G1 X174.320 Y120.930 E1580.87073
G1 X174.840 Y121.328 E1580.89795
G1 X175.445 Y121.580 E1580.92520
G1 X176.095 Y121.664 E1580.95245
G1 X176.744 Y121.580 E1580.97966
G1 X177.349 Y121.328 E1581.00690
G1 X177.869 Y120.930 E1581.03413
G1 X178.267 Y120.410 E1581.06135
G1 X178.519 Y119.805 E1581.08860
G1 X178.603 Y119.156 E1581.11581
G1 X178.519 Y118.506 E1581.14306
G1 X178.267 Y117.901 E1581.17031
G1 X177.869 Y117.381 E1581.19753
G1 X177.349 Y116.983 E1581.22476
G1 X176.744 Y116.732 E1581.25199
G1 X176.095 Y116.646 E1581.27921
G1 X175.445 Y116.732 E1581.30646
G1 X174.840 Y116.983 E1581.33370
G1 F2100 E1580.93370
G0 F7200 X178.850 Y116.401
G1 F2100 E1581.33370
G1 F3000 X178.850 Y188.599 E1584.33534
G1 X126.150 Y188.599 E1586.52635
G1 X126.150 Y116.401 E1589.52800
G1 X178.850 Y116.401 E1591.71901
G1 F2100 E1591.31901
G0 F7200 X131.414 Y119.156
G1 F2100 E1591.71901
G1 F3000 X131.330 Y118.506 E1591.74626
G1 X131.078 Y117.901 E1591.77350
G1 X130.680 Y117.381 E1591.80073
G1 X130.160 Y116.983 E1591.82795
G1 X129.555 Y116.732 E1591.85518
G1 X128.906 Y116.646 E1591.88240
G1 X128.256 Y116.732 E1591.90966
G1 X127.651 Y116.983 E1591.93689
G1 X127.131 Y117.381 E1591.96412
G1 X126.733 Y117.901 E1591.99134
G1 X126.482 Y118.506 E1592.01858
G1 X126.396 Y119.156 E1592.04583
G1 X126.482 Y119.805 E1592.07305
G1 X126.733 Y120.410 E1592.10028
G1 X127.131 Y120.930 E1592.12751
G1 X127.651 Y121.328 E1592.15473
G1 X128.256 Y121.580 E1592.18198
G1 X128.906 Y121.664 E1592.20923
G1 X129.555 Y121.580 E1592.23644
G1 X130.160 Y121.328 E1592.26369
G1 X130.680 Y120.930 E1592.29091
G1 X131.078 Y120.410 E1592.31813
G1 X131.330 Y119.805 E1592.34538
G1 X131.414 Y119.156 E1592.37259
G1 F2100 E1591.97259
G0 F7200 X128.906 Y183.335
G1 F2100 E1592.37259
G1 F3000 X128.256 Y183.421 E1592.39985
G1 X127.651 Y183.672 E1592.42708
G1 X127.131 Y184.070 E1592.45431
G1 X126.733 Y184.590 E1592.48153
G1 X126.482 Y185.195 E1592.50876
G1 X126.396 Y185.845 E1592.53602
G1 X126.482 Y186.494 E1592.56324
G1 X126.733 Y187.099 E1592.59047
G1 X127.131 Y187.619 E1592.61770
G1 X127.651 Y188.017 E1592.64492
G1 X128.256 Y188.269 E1592.67217
G1 X128.906 Y188.353 E1592.69942
G1 X129.555 Y188.269 E1592.72662
G1 X130.160 Y188.017 E1592.75387
G1 X130.680 Y187.619 E1592.78110
G1 X131.078 Y187.099 E1592.80832
G1 X131.330 Y186.494 E1592.83557
G1 X131.414 Y185.845 E1592.86278
G1 X131.330 Y185.195 E1592.89003
G1 X131.078 Y184.590 E1592.91727
G1 X130.680 Y184.070 E1592.94450
G1 X130.160 Y183.672 E1592.97172
G1 X129.555 Y183.421 E1592.99895
G1 X128.906 Y183.335 E1593.02617
G1 F2100 E1592.62617
G0 F7200 X173.585 Y185.845
G1 F2100 E1593.02617
G1 F3000 X173.671 Y186.494 E1593.05339
G1 X173.922 Y187.099 E1593.08062
G1 X174.320 Y187.619 E1593.10785
G1 X174.840 Y188.017 E1593.13507
G1 X175.445 Y188.269 E1593.16232
G1 X176.095 Y188.353 E1593.18957
G1 X176.744 Y188.269 E1593.21678
G1 X177.349 Y188.017 E1593.24402
G1 X177.869 Y187.619 E1593.27125
G1 X178.267 Y187.099 E1593.29847
G1 X178.519 Y186.494 E1593.32572
G1 X178.603 Y185.845 E1593.35293
G1 X178.519 Y185.195 E1593.38018
G1 X178.267 Y184.590 E1593.40742
G1 X177.869 Y184.070 E1593.43465
G1 X177.349 Y183.672 E1593.46187
G1 X176.744 Y183.421 E1593.48911
G1 X176.095 Y183.335 E1593.51632
G1 X175.445 Y183.421 E1593.54358
G1 X174.840 Y183.672 E1593.57081
G1 X174.320 Y184.070 E1593.59804
G1 X173.922 Y184.590 E1593.62526
G1 X173.671 Y185.195 E1593.65250
G1 X173.585 Y185.845 E1593.67976
G0 F7200 X174.090 Y185.845
;TYPE:WALL-OUTER
G1 F3000 X174.158 Y186.363 E1593.70148
G1 X174.359 Y186.847 E1593.72326
G1 X174.677 Y187.262 E1593.74500
G1 X175.092 Y187.580 E1593.76674
G1 X175.576 Y187.782 E1593.78854
G1 X176.095 Y187.849 E1593.81030
G1 X176.613 Y187.782 E1593.83201
G1 X177.097 Y187.580 E1593.85382
G1 X177.512 Y187.262 E1593.87556
G1 X177.830 Y186.847 E1593.89729
G1 X178.032 Y186.363 E1593.91910
G1 X178.099 Y185.845 E1593.94081
G1 X178.032 Y185.326 E1593.96257
G1 X177.830 Y184.842 E1593.98437
G1 X177.512 Y184.427 E1594.00611
G1 X177.097 Y184.109 E1594.02785
G1 X176.613 Y183.908 E1594.04964
G1 X176.095 Y183.840 E1594.07136
G1 X175.576 Y183.908 E1594.09312
G1 X175.092 Y184.109 E1594.11491
G1 X174.677 Y184.427 E1594.13664
G1 X174.359 Y184.842 E1594.15838
G1 X174.158 Y185.326 E1594.18017
G1 X174.090 Y185.845 E1594.20193
G1 F2100 E1593.80193
G0 F7200 X179.350 Y189.099
G1 F2100 E1594.20193
G1 F3000 X125.650 Y189.099 E1596.43452
G1 X125.650 Y115.901 E1599.47774
G1 X179.350 Y115.901 E1601.71032
G1 X179.350 Y189.099 E1604.75354
G1 F2100 E1604.35354
G0 F7200 X130.910 Y185.845
G1 F2100 E1604.75354
G1 F3000 X130.843 Y185.326 E1604.77530
G1 X130.641 Y184.842 E1604.79710
G1 X130.323 Y184.427 E1604.81884
G1 X129.908 Y184.109 E1604.84058
G1 X129.424 Y183.908 E1604.86236
G1 X128.906 Y183.840 E1604.88409
G1 X128.387 Y183.908 E1604.90585
G1 X127.903 Y184.109 E1604.92764
G1 X127.488 Y184.427 E1604.94937
G1 X127.170 Y184.842 E1604.97111
G1 X126.969 Y185.326 E1604.99290
G1 X126.901 Y185.845 E1605.01466
G1 X126.969 Y186.363 E1605.03638
G1 X127.170 Y186.847 E1605.05817
G1 X127.488 Y187.262 E1605.07991
G1 X127.903 Y187.580 E1605.10164
G1 X128.387 Y187.782 E1605.12345
G1 X128.906 Y187.849 E1605.14520
G1 X129.424 Y187.782 E1605.16692
G1 X129.908 Y187.580 E1605.18872
G1 X130.323 Y187.262 E1605.21046
G1 X130.641 Y186.847 E1605.23220
G1 X130.843 Y186.363 E1605.25400
G1 X130.910 Y185.845 E1605.27572
G1 F2100 E1604.87572
G0 F7200 X128.906 Y121.160
G1 F2100 E1605.27572
