;-- START GCODE --
;Sliced for Type A Machines Series 1
;Sliced at: Sat 04-03-2017 12:33:15
;Basic settings:
; Layer height: 0.2
; Walls: 1
; Fill: 8
; Print Speed: 60
; Support: 0
; Retraction Speed: 35
; Retraction Distance: 0.4
;Print time: 55 minutes
;Filament used: 5.617m 16.0g
;Settings based on: Type A Machines Everyday PLA
G21        ;metric values
G90        ;absolute positioning
G28     ;move to endstops
G29		;allows for auto-levelling
G1 Z15.0 F12000 ;move the platform down 15mm
G1 X150 Y5 F12000 ;center
M140 S50 ;Prep Heat Bed
M109 S220 ;Heat To temp
M190 S50 ;Heat Bed to temp
G1 X150 Y5 Z0.3 ;move the platform to purge extrusion
G92 E0 ;zero the extruded length
G1 F200 X250 E30 ;extrude 30mm of feed stock
G92 E0 ;zero the extruded length again
G1 X150 Y150  Z25 F12000 ;recenter and begin
G1 F12000

;Layer count: 131
;LAYER:0
M107
G0 F12000 X110.901 Y120.650 Z0.200
;TYPE:SKIRT
G1 F1800 X194.099 Y120.650 E3.45897
G1 X194.099 Y184.350 E6.10731
G1 X110.901 Y184.350 E9.56628
G1 X110.901 Y120.650 E12.21462
G0 F12000 X111.401 Y121.150
G1 F1800 X193.599 Y121.150 E15.63201
G1 X193.599 Y183.850 E18.23878
G1 X111.401 Y183.850 E21.65617
G1 X111.401 Y121.150 E24.26294
G0 F12000 X111.901 Y121.650
G1 F1800 X193.099 Y121.650 E27.63876
G1 X193.099 Y183.350 E30.20394
G1 X111.901 Y183.350 E33.57976
G1 X111.901 Y121.650 E36.14495
G0 F12000 X112.401 Y122.150
G1 F1800 X192.599 Y122.150 E39.47920
G1 X192.599 Y182.850 E42.00281
G1 X112.401 Y182.850 E45.33706
G1 X112.401 Y122.150 E47.86067
G0 F12000 X112.901 Y122.650
G1 F1800 X192.099 Y122.650 E51.15334
G1 X192.099 Y182.350 E53.63538
G1 X112.901 Y182.350 E56.92805
G1 X112.901 Y122.650 E59.41008
G0 F12000 X113.401 Y123.150
G1 F1800 X191.599 Y123.150 E62.66118
G1 X191.599 Y181.850 E65.10164
G1 X113.401 Y181.850 E68.35274
G1 X113.401 Y123.150 E70.79320
G0 F12000 X113.901 Y123.650
G1 F1800 X191.099 Y123.650 E74.00272
G1 X191.099 Y181.350 E76.40161
G1 X113.901 Y181.350 E79.61113
G1 X113.901 Y123.650 E82.01001
G0 F12000 X114.401 Y124.150
G1 F1800 X190.599 Y124.150 E85.17796
G1 X190.599 Y180.850 E87.53527
G1 X114.401 Y180.850 E90.70322
G1 X114.401 Y124.150 E93.06053
G0 F12000 X114.901 Y124.650
G1 F1800 X190.099 Y124.650 E96.18690
G1 X190.099 Y180.350 E98.50263
G1 X114.901 Y180.350 E101.62900
G1 X114.901 Y124.650 E103.94474
G0 F12000 X115.401 Y125.150
G1 F1800 X189.599 Y125.150 E107.02953
G1 X189.599 Y179.850 E109.30370
G1 X115.401 Y179.850 E112.38849
G1 X115.401 Y125.150 E114.66265
G0 F12000 X116.401 Y126.150
;TYPE:WALL-INNER
G1 F1800 X188.599 Y126.150 E117.66430
G1 X188.599 Y178.850 E119.85531
G1 X116.401 Y178.850 E122.85695
G1 X116.401 Y126.150 E125.04796
G0 F12000 X117.369 Y127.147
G1 F1800 X116.977 Y127.666 E125.07500
G1 X116.731 Y128.256 E125.10158
G1 X116.646 Y128.909 E125.12896
G1 X116.738 Y129.573 E125.15683
G1 X116.994 Y130.177 E125.18410
G1 X117.397 Y130.692 E125.21129
G1 X117.916 Y131.084 E125.23833
G1 X118.506 Y131.330 E125.26491
G1 X119.158 Y131.415 E125.29224
G1 X119.823 Y131.323 E125.32015
G1 X120.427 Y131.067 E125.34743
G1 X120.942 Y130.664 E125.37461
G1 X121.334 Y130.144 E125.40169
G1 X121.579 Y129.555 E125.42821
G1 X121.665 Y128.903 E125.45555
G1 X121.572 Y128.238 E125.48347
G1 X121.317 Y127.635 E125.51069
G1 X120.914 Y127.119 E125.53791
G1 X120.394 Y126.727 E125.56498
G1 X119.805 Y126.482 E125.59150
G1 X119.152 Y126.396 E125.61889
G1 X118.488 Y126.489 E125.64676
G1 X117.885 Y126.744 E125.67398
G1 X117.369 Y127.147 E125.70120
G1 F2100 E125.30120
G0 F12000 X119.152 Y173.585
G1 F2100 E125.70120
G1 F1800 X118.488 Y173.678 E125.72908
G1 X117.885 Y173.933 E125.75630
G1 X117.369 Y174.336 E125.78352
G1 X116.977 Y174.855 E125.81056
G1 X116.731 Y175.445 E125.83713
G1 X116.646 Y176.098 E125.86451
G1 X116.738 Y176.762 E125.89238
G1 X116.994 Y177.366 E125.91965
G1 X117.397 Y177.881 E125.94684
G1 X117.916 Y178.273 E125.97388
G1 X118.506 Y178.519 E126.00046
G1 X119.158 Y178.604 E126.02779
G1 X119.823 Y178.512 E126.05571
G1 X120.427 Y178.256 E126.08298
G1 X120.942 Y177.853 E126.11017
G1 X121.334 Y177.333 E126.13724
G1 X121.579 Y176.744 E126.16376
G1 X121.665 Y176.092 E126.19110
G1 X121.572 Y175.427 E126.21902
G1 X121.317 Y174.824 E126.24624
G1 X120.914 Y174.308 E126.27346
G1 X120.394 Y173.916 E126.30053
G1 X119.805 Y173.671 E126.32706
G1 X119.152 Y173.585 E126.35444
G1 F2100 E125.95444
G0 F12000 X183.335 Y176.098
G1 F2100 E126.35444
G1 F1800 X183.427 Y176.762 E126.38231
G1 X183.683 Y177.366 E126.40958
G1 X184.086 Y177.881 E126.43677
G1 X184.605 Y178.273 E126.46381
G1 X185.195 Y178.519 E126.49039
G1 X185.847 Y178.604 E126.51772
G1 X186.512 Y178.512 E126.54563
G1 X187.116 Y178.256 E126.57291
G1 X187.631 Y177.853 E126.60010
G1 X188.023 Y177.333 E126.62717
G1 X188.268 Y176.744 E126.65369
G1 X188.354 Y176.092 E126.68103
G1 X188.261 Y175.427 E126.70895
G1 X188.006 Y174.824 E126.73617
G1 X187.603 Y174.308 E126.76339
G1 X187.083 Y173.916 E126.79046
G1 X186.494 Y173.671 E126.81698
G1 X185.841 Y173.585 E126.84437
G1 X185.177 Y173.678 E126.87224
G1 X184.574 Y173.933 E126.89946
G1 X184.058 Y174.336 E126.92668
G1 X183.666 Y174.855 E126.95372
G1 X183.420 Y175.445 E126.98030
G1 X183.335 Y176.098 E127.00768
G1 F2100 E126.60768
G0 F12000 X185.847 Y131.415
G1 F2100 E127.00768
G1 F1800 X186.512 Y131.323 E127.03559
G1 X187.116 Y131.067 E127.06286
G1 X187.631 Y130.664 E127.09005
G1 X188.023 Y130.144 E127.11712
G1 X188.268 Y129.555 E127.14364
G1 X188.354 Y128.903 E127.17099
G1 X188.261 Y128.238 E127.19890
G1 X188.006 Y127.635 E127.22612
G1 X187.603 Y127.119 E127.25334
G1 X187.083 Y126.727 E127.28042
G1 X186.494 Y126.482 E127.30694
G1 X185.841 Y126.396 E127.33432
G1 X185.177 Y126.489 E127.36220
G1 X184.574 Y126.744 E127.38942
G1 X184.058 Y127.147 E127.41664
G1 X183.666 Y127.666 E127.44368
G1 X183.420 Y128.256 E127.47025
G1 X183.335 Y128.909 E127.49763
G1 X183.427 Y129.573 E127.52550
G1 X183.683 Y130.177 E127.55277
G1 X184.086 Y130.692 E127.57996
G1 X184.605 Y131.084 E127.60700
G1 X185.195 Y131.330 E127.63358
G1 X185.847 Y131.415 E127.66092
G0 F12000 X185.845 Y130.910
;TYPE:WALL-OUTER
G1 F1800 X186.378 Y130.837 E127.68328
G1 X186.860 Y130.632 E127.70506
G1 X187.272 Y130.311 E127.72677
G1 X187.586 Y129.894 E127.74847
G1 X187.781 Y129.424 E127.76963
G1 X187.849 Y128.905 E127.79139
G1 X187.775 Y128.372 E127.81376
G1 X187.571 Y127.890 E127.83552
G1 X187.250 Y127.478 E127.85724
G1 X186.833 Y127.164 E127.87894
G1 X186.363 Y126.969 E127.90010
G1 X185.843 Y126.901 E127.92190
G1 X185.311 Y126.975 E127.94423
G1 X184.829 Y127.179 E127.96599
G1 X184.417 Y127.500 E127.98770
G1 X184.103 Y127.917 E128.00941
G1 X183.907 Y128.387 E128.03058
G1 X183.840 Y128.907 E128.05238
G1 X183.913 Y129.439 E128.07470
G1 X184.118 Y129.921 E128.09648
G1 X184.439 Y130.333 E128.11819
G1 X184.856 Y130.647 E128.13989
G1 X185.326 Y130.843 E128.16107
G1 X185.845 Y130.910 E128.18282
G1 F2100 E127.78282
G0 F12000 X189.099 Y125.650
G1 F2100 E128.18282
G1 F1800 X189.099 Y179.350 E130.41541
G1 X115.901 Y179.350 E133.45863
G1 X115.901 Y125.650 E135.69121
G1 X189.099 Y125.650 E138.73443
G1 F2100 E138.33443
G0 F12000 X185.843 Y174.090
G1 F2100 E138.73443
G1 F1800 X185.311 Y174.164 E138.75676
G1 X184.829 Y174.368 E138.77852
G1 X184.417 Y174.689 E138.80024
G1 X184.103 Y175.106 E138.82194
G1 X183.907 Y175.576 E138.84311
G1 X183.840 Y176.096 E138.86491
G1 X183.913 Y176.628 E138.88724
G1 X184.118 Y177.110 E138.90901
G1 X184.439 Y177.522 E138.93073
G1 X184.856 Y177.836 E138.95243
G1 X185.326 Y178.032 E138.97360
G1 X185.845 Y178.099 E138.99536
G1 X186.378 Y178.026 E139.01772
G1 X186.860 Y177.821 E139.03950
G1 X187.272 Y177.500 E139.06121
G1 X187.586 Y177.083 E139.08292
G1 X187.781 Y176.613 E139.10407
G1 X187.849 Y176.094 E139.12583
G1 X187.775 Y175.561 E139.14820
G1 X187.571 Y175.079 E139.16997
G1 X187.250 Y174.667 E139.19168
G1 X186.833 Y174.353 E139.21338
G1 X186.363 Y174.158 E139.23454
G1 X185.843 Y174.090 E139.25634
G1 F2100 E138.85634
G0 F12000 X121.160 Y176.094
G1 F2100 E139.25634
G1 F1800 X121.086 Y175.561 E139.27871
G1 X120.882 Y175.079 E139.30047
G1 X120.561 Y174.667 E139.32219
G1 X120.144 Y174.353 E139.34389
G1 X119.674 Y174.158 E139.36504
G1 X119.154 Y174.090 E139.38685
G1 X118.622 Y174.164 E139.40918
G1 X118.140 Y174.368 E139.43094
G1 X117.728 Y174.689 E139.45265
G1 X117.414 Y175.106 E139.47436
G1 X117.218 Y175.576 E139.49553
G1 X117.151 Y176.096 E139.51732
G1 X117.224 Y176.628 E139.53965
G1 X117.429 Y177.110 E139.56143
G1 X117.750 Y177.522 E139.58314
G1 X118.167 Y177.836 E139.60484
G1 X118.637 Y178.032 E139.62601
G1 X119.156 Y178.099 E139.64777
G1 X119.689 Y178.026 E139.67014
G1 X120.171 Y177.821 E139.69191
G1 X120.583 Y177.500 E139.71363
G1 X120.897 Y177.083 E139.73533
G1 X121.092 Y176.613 E139.75648
G1 X121.160 Y176.094 E139.77825
G1 F2100 E139.37825
G0 F12000 X119.156 Y130.910
G1 F2100 E139.77825
G1 F1800 X119.689 Y130.837 E139.80061
G1 X120.171 Y130.632 E139.82239
G1 X120.583 Y130.311 E139.84410
G1 X120.897 Y129.894 E139.86581
G1 X121.092 Y129.424 E139.88696
G1 X121.160 Y128.905 E139.90872
G1 X121.086 Y128.372 E139.93110
G1 X120.882 Y127.890 E139.95286
G1 X120.561 Y127.478 E139.97457
G1 X120.144 Y127.164 E139.99627
G1 X119.674 Y126.969 E140.01743
G1 X119.154 Y126.901 E140.03923
G1 X118.622 Y126.975 E140.06156
G1 X118.140 Y127.179 E140.08332
G1 X117.728 Y127.500 E140.10504
G1 X117.414 Y127.917 E140.12674
G1 X117.218 Y128.387 E140.14791
G1 X117.151 Y128.907 E140.16971
G1 X117.224 Y129.439 E140.19203
G1 X117.429 Y129.921 E140.21381
G1 X117.750 Y130.333 E140.23552
G1 X118.167 Y130.647 E140.25723
G1 X118.637 Y130.843 E140.27840
G1 X119.156 Y130.910 E140.30015
G0 F12000 X119.000 Y131.572
;TYPE:SKIN
G1 F1800 X119.000 Y173.430 E142.04041
G0 F12000 X119.500 Y173.453
G1 F1800 X119.500 Y131.544 E143.78278
G0 F12000 X118.500 Y131.507
G1 F1800 X118.500 Y173.500 E145.52865
G0 F12000 X118.000 Y173.695
G1 F1800 X118.000 Y131.310 E147.29081
G0 F12000 X117.500 Y130.990
G1 F1800 X117.500 Y174.011 E149.07942
G0 F12000 X117.000 Y174.534
G1 F1800 X117.000 Y130.470 E150.91138
G1 F2100 E150.51138
G0 F12000 X117.000 Y127.345
G1 F2100 E150.91138
G1 F1800 X117.000 Y126.325 E150.95379
G0 F12000 X117.500 Y126.325
G1 F1800 X117.750 Y126.664 E150.97445
G1 X118.000 Y126.325 E150.99197
G1 F2100 E150.59197
G0 F12000 X120.500 Y126.325
G1 F2100 E150.99197
G1 F1800 X120.750 Y126.456 E151.00286
G1 X121.000 Y126.963 E151.02636
G0 F12000 X121.500 Y126.325
G1 F1800 X121.500 Y127.618 E151.08011
G0 F12000 X122.000 Y126.325
G1 F1800 X122.000 Y178.675 E153.25657
G0 F12000 X121.500 Y178.675
G1 F1800 X121.500 Y177.391 E153.30996
G0 F12000 X121.000 Y178.031
G1 F1800 X120.750 Y178.675 E153.33673
G1 X120.500 Y178.415 E153.35172
G1 F2100 E152.95172
G0 F12000 X122.500 Y178.675
G1 F2100 E153.35172
G1 F1800 X122.500 Y126.325 E155.52818
G0 F12000 X123.000 Y126.325
G1 F1800 X123.000 Y178.675 E157.70464
G0 F12000 X123.500 Y178.675
G1 F1800 X123.500 Y126.325 E159.88110
G0 F12000 X124.000 Y126.325
G1 F1800 X124.000 Y178.675 E162.05756
G0 F12000 X124.500 Y178.675
G1 F1800 X124.500 Y126.325 E164.23402
G0 F12000 X125.000 Y126.325
G1 F1800 X125.000 Y178.675 E166.41048
G0 F12000 X125.500 Y178.675
G1 F1800 X125.500 Y126.325 E168.58694
G0 F12000 X126.000 Y126.325
G1 F1800 X126.000 Y178.675 E170.76340
G0 F12000 X126.500 Y178.675
G1 F1800 X126.500 Y126.325 E172.93986
G0 F12000 X127.000 Y126.325
G1 F1800 X127.000 Y178.675 E175.11632
G0 F12000 X127.500 Y178.675
G1 F1800 X127.500 Y126.325 E177.29278
G0 F12000 X128.000 Y126.325
G1 F1800 X128.000 Y178.675 E179.46924
G0 F12000 X128.500 Y178.675
G1 F1800 X128.500 Y126.325 E181.64570
G0 F12000 X129.000 Y126.325
G1 F1800 X129.000 Y178.675 E183.82216
G0 F12000 X129.500 Y178.675
G1 F1800 X129.500 Y126.325 E185.99862
G0 F12000 X130.000 Y126.325
G1 F1800 X130.000 Y178.675 E188.17508
G0 F12000 X130.500 Y178.675
G1 F1800 X130.500 Y126.325 E190.35154
G0 F12000 X131.000 Y126.325
G1 F1800 X131.000 Y178.675 E192.52800
G0 F12000 X131.500 Y178.675
G1 F1800 X131.500 Y126.325 E194.70446
G0 F12000 X132.000 Y126.325
G1 F1800 X132.000 Y178.675 E196.88092
G0 F12000 X132.500 Y178.675
G1 F1800 X132.500 Y126.325 E199.05738
G0 F12000 X133.000 Y126.325
G1 F1800 X133.000 Y178.675 E201.23384
G0 F12000 X133.500 Y178.675
G1 F1800 X133.500 Y126.325 E203.41030
G0 F12000 X134.000 Y126.325
G1 F1800 X134.000 Y178.675 E205.58676
G0 F12000 X134.500 Y178.675
G1 F1800 X134.500 Y126.325 E207.76322
G0 F12000 X135.000 Y126.325
G1 F1800 X135.000 Y178.675 E209.93968
G0 F12000 X135.500 Y178.675
G1 F1800 X135.500 Y126.325 E212.11614
G0 F12000 X136.000 Y126.325
G1 F1800 X136.000 Y178.675 E214.29260
G0 F12000 X136.500 Y178.675
G1 F1800 X136.500 Y126.325 E216.46906
G0 F12000 X137.000 Y126.325
G1 F1800 X137.000 Y178.675 E218.64552
G0 F12000 X137.500 Y178.675
G1 F1800 X137.500 Y126.325 E220.82198
G0 F12000 X138.000 Y126.325
G1 F1800 X138.000 Y178.675 E222.99844
G0 F12000 X138.500 Y178.675
G1 F1800 X138.500 Y126.325 E225.17490
G0 F12000 X139.000 Y126.325
G1 F1800 X139.000 Y178.675 E227.35136
G0 F12000 X139.500 Y178.675
G1 F1800 X139.500 Y126.325 E229.52782
G1 F2100 E229.12782
G0 F12000 X121.500 Y130.202
G1 F2100 E229.52782
G1 F1800 X121.500 Y174.807 E231.38228
G0 F12000 X121.000 Y174.152
G1 F1800 X121.000 Y130.842 E233.18291
G0 F12000 X120.500 Y131.226
G1 F1800 X120.500 Y173.776 E234.95193
G0 F12000 X120.000 Y173.562
G1 F1800 X120.000 Y131.437 E236.70328
G1 F2100 E236.30328
G0 F12000 X140.000 Y126.325
G1 F2100 E236.70328
G1 F1800 X140.000 Y178.675 E238.87974
G0 F12000 X140.500 Y178.675
G1 F1800 X140.500 Y126.325 E241.05620
G0 F12000 X141.000 Y126.325
G1 F1800 X141.000 Y178.675 E243.23266
G0 F12000 X141.500 Y178.675
G1 F1800 X141.500 Y126.325 E245.40912
G0 F12000 X142.000 Y126.325
G1 F1800 X142.000 Y178.675 E247.58558
G0 F12000 X142.500 Y178.675
G1 F1800 X142.500 Y126.325 E249.76204
G0 F12000 X143.000 Y126.325
G1 F1800 X143.000 Y178.675 E251.93850
G0 F12000 X143.500 Y178.675
G1 F1800 X143.500 Y126.325 E254.11496
G0 F12000 X144.000 Y126.325
G1 F1800 X144.000 Y178.675 E256.29142
G0 F12000 X144.500 Y178.675
G1 F1800 X144.500 Y126.325 E258.46788
G0 F12000 X145.000 Y126.325
G1 F1800 X145.000 Y178.675 E260.64434
G0 F12000 X145.500 Y178.675
G1 F1800 X145.500 Y126.325 E262.82080
G0 F12000 X146.000 Y126.325
G1 F1800 X146.000 Y178.675 E264.99726
G0 F12000 X146.500 Y178.675
G1 F1800 X146.500 Y126.325 E267.17372
G0 F12000 X147.000 Y126.325
G1 F1800 X147.000 Y178.675 E269.35018
G0 F12000 X147.500 Y178.675
G1 F1800 X147.500 Y126.325 E271.52664
G0 F12000 X148.000 Y126.325
G1 F1800 X148.000 Y178.675 E273.70310
G0 F12000 X148.500 Y178.675
G1 F1800 X148.500 Y126.325 E275.87956
G0 F12000 X149.000 Y126.325
G1 F1800 X149.000 Y178.675 E278.05602
G0 F12000 X149.500 Y178.675
G1 F1800 X149.500 Y126.325 E280.23248
G0 F12000 X150.000 Y126.325
G1 F1800 X150.000 Y178.675 E282.40894
G0 F12000 X150.500 Y178.675
G1 F1800 X150.500 Y126.325 E284.58540
G0 F12000 X151.000 Y126.325
G1 F1800 X151.000 Y178.675 E286.76186
G0 F12000 X151.500 Y178.675
G1 F1800 X151.500 Y126.325 E288.93832
G0 F12000 X152.000 Y126.325
G1 F1800 X152.000 Y178.675 E291.11478
G0 F12000 X152.500 Y178.675
G1 F1800 X152.500 Y126.325 E293.29125
G0 F12000 X153.000 Y126.325
G1 F1800 X153.000 Y178.675 E295.46771
G0 F12000 X153.500 Y178.675
G1 F1800 X153.500 Y126.325 E297.64417
G0 F12000 X154.000 Y126.325
G1 F1800 X154.000 Y178.675 E299.82063
G0 F12000 X154.500 Y178.675
G1 F1800 X154.500 Y126.325 E301.99709
G0 F12000 X155.000 Y126.325
G1 F1800 X155.000 Y178.675 E304.17355
G0 F12000 X155.500 Y178.675
G1 F1800 X155.500 Y126.325 E306.35001
G0 F12000 X156.000 Y126.325
G1 F1800 X156.000 Y178.675 E308.52647
G0 F12000 X156.500 Y178.675
G1 F1800 X156.500 Y126.325 E310.70293
G0 F12000 X157.000 Y126.325
G1 F1800 X157.000 Y178.675 E312.87939
G0 F12000 X157.500 Y178.675
G1 F1800 X157.500 Y126.325 E315.05585
G0 F12000 X158.000 Y126.325
G1 F1800 X158.000 Y178.675 E317.23231
G0 F12000 X158.500 Y178.675
G1 F1800 X158.500 Y126.325 E319.40877
G0 F12000 X159.000 Y126.325
G1 F1800 X159.000 Y178.675 E321.58523
G0 F12000 X159.500 Y178.675
G1 F1800 X159.500 Y126.325 E323.76169
G0 F12000 X160.000 Y126.325
G1 F1800 X160.000 Y178.675 E325.93815
G0 F12000 X160.500 Y178.675
G1 F1800 X160.500 Y126.325 E328.11461
G0 F12000 X161.000 Y126.325
G1 F1800 X161.000 Y178.675 E330.29107
G0 F12000 X161.500 Y178.675
G1 F1800 X161.500 Y126.325 E332.46753
G0 F12000 X162.000 Y126.325
G1 F1800 X162.000 Y178.675 E334.64399
G0 F12000 X162.500 Y178.675
G1 F1800 X162.500 Y126.325 E336.82045
G0 F12000 X163.000 Y126.325
G1 F1800 X163.000 Y178.675 E338.99691
G0 F12000 X163.500 Y178.675
G1 F1800 X163.500 Y126.325 E341.17337
G0 F12000 X164.000 Y126.325
G1 F1800 X164.000 Y178.675 E343.34983
G0 F12000 X164.500 Y178.675
G1 F1800 X164.500 Y126.325 E345.52629
G0 F12000 X165.000 Y126.325
G1 F1800 X165.000 Y178.675 E347.70275
G0 F12000 X165.500 Y178.675
G1 F1800 X165.500 Y126.325 E349.87921
G0 F12000 X166.000 Y126.325
G1 F1800 X166.000 Y178.675 E352.05567
G0 F12000 X166.500 Y178.675
G1 F1800 X166.500 Y126.325 E354.23213
G0 F12000 X167.000 Y126.325
G1 F1800 X167.000 Y178.675 E356.40859
G0 F12000 X167.500 Y178.675
G1 F1800 X167.500 Y126.325 E358.58505
G0 F12000 X168.000 Y126.325
G1 F1800 X168.000 Y178.675 E360.76151
G0 F12000 X168.500 Y178.675
G1 F1800 X168.500 Y126.325 E362.93797
G0 F12000 X169.000 Y126.325
G1 F1800 X169.000 Y178.675 E365.11443
G0 F12000 X169.500 Y178.675
G1 F1800 X169.500 Y126.325 E367.29089
G0 F12000 X170.000 Y126.325
G1 F1800 X170.000 Y178.675 E369.46735
G0 F12000 X170.500 Y178.675
G1 F1800 X170.500 Y126.325 E371.64381
G0 F12000 X171.000 Y126.325
G1 F1800 X171.000 Y178.675 E373.82027
G0 F12000 X171.500 Y178.675
G1 F1800 X171.500 Y126.325 E375.99673
G0 F12000 X172.000 Y126.325
G1 F1800 X172.000 Y178.675 E378.17319
G0 F12000 X172.500 Y178.675
G1 F1800 X172.500 Y126.325 E380.34965
G0 F12000 X173.000 Y126.325
G1 F1800 X173.000 Y178.675 E382.52611
G0 F12000 X173.500 Y178.675
G1 F1800 X173.500 Y126.325 E384.70257
G0 F12000 X174.000 Y126.325
G1 F1800 X174.000 Y178.675 E386.87903
G0 F12000 X174.500 Y178.675
G1 F1800 X174.500 Y126.325 E389.05549
G0 F12000 X175.000 Y126.325
G1 F1800 X175.000 Y178.675 E391.23195
G0 F12000 X175.500 Y178.675
G1 F1800 X175.500 Y126.325 E393.40841
G0 F12000 X176.000 Y126.325
G1 F1800 X176.000 Y178.675 E395.58487
G0 F12000 X176.500 Y178.675
G1 F1800 X176.500 Y126.325 E397.76133
G0 F12000 X177.000 Y126.325
G1 F1800 X177.000 Y178.675 E399.93779
G0 F12000 X177.500 Y178.675
G1 F1800 X177.500 Y126.325 E402.11425
G0 F12000 X178.000 Y126.325
G1 F1800 X178.000 Y178.675 E404.29071
G0 F12000 X178.500 Y178.675
G1 F1800 X178.500 Y126.325 E406.46717
G0 F12000 X179.000 Y126.325
G1 F1800 X179.000 Y178.675 E408.64363
G0 F12000 X179.500 Y178.675
G1 F1800 X179.500 Y126.325 E410.82009
G0 F12000 X180.000 Y126.325
G1 F1800 X180.000 Y178.675 E412.99655
G0 F12000 X180.500 Y178.675
G1 F1800 X180.500 Y126.325 E415.17301
G0 F12000 X181.000 Y126.325
G1 F1800 X181.000 Y178.675 E417.34947
G0 F12000 X181.500 Y178.675
G1 F1800 X181.500 Y126.325 E419.52593
G0 F12000 X182.000 Y126.325
G1 F1800 X182.000 Y178.675 E421.70239
G0 F12000 X182.500 Y178.675
G1 F1800 X182.500 Y126.325 E423.87885
G0 F12000 X183.000 Y126.325
G1 F1800 X183.000 Y178.675 E426.05531
G0 F12000 X183.500 Y178.675
G1 F1800 X183.500 Y177.383 E426.10903
G0 F12000 X184.000 Y178.037
G1 F1800 X184.250 Y178.675 E426.13552
G1 X184.500 Y178.414 E426.15055
G1 F2100 E425.75055
G0 F12000 X187.000 Y178.495
G1 F2100 E426.15055
G1 F1800 X187.250 Y178.675 E426.15803
G1 X187.500 Y178.178 E426.18116
G0 F12000 X188.000 Y178.675
G1 F1800 X188.000 Y177.655 E426.22356
G1 F2100 E425.82356
G0 F12000 X188.000 Y174.531
G1 F2100 E426.22356
G1 F1800 X188.000 Y130.466 E428.05557
G0 F12000 X187.500 Y130.989
G1 F1800 X187.500 Y174.010 E429.84418
G0 F12000 X187.000 Y173.691
G1 F1800 X187.000 Y131.306 E431.60634
G0 F12000 X186.500 Y131.501
G1 F1800 X186.500 Y173.494 E433.35221
G0 F12000 X186.000 Y173.429
G1 F1800 X186.000 Y131.570 E435.09250
G0 F12000 X185.500 Y131.547
G1 F1800 X185.500 Y173.456 E436.83488
G0 F12000 X185.000 Y173.564
G1 F1800 X185.000 Y131.439 E438.58623
G0 F12000 X184.500 Y131.225
G1 F1800 X184.500 Y173.775 E440.35525
G0 F12000 X184.000 Y174.159
G1 F1800 X184.000 Y130.848 E442.15591
G0 F12000 X183.500 Y130.194
G1 F1800 X183.500 Y174.797 E444.01029
G1 F2100 E443.61029
G0 F12000 X183.500 Y127.608
G1 F2100 E444.01029
G1 F1800 X183.500 Y126.325 E444.06363
G0 F12000 X184.000 Y126.325
G1 F1800 X184.250 Y126.778 E444.09044
G1 X184.500 Y126.325 E444.11195
G1 F2100 E443.71195
G0 F12000 X187.000 Y126.325
G1 F2100 E444.11195
G1 F1800 X187.250 Y126.413 E444.11929
G1 X187.500 Y126.821 E444.13918
G0 F12000 X188.000 Y126.325
G1 F1800 X188.000 Y127.342 E444.18146
G1 F2100 E443.78146
G0 F12000 X118.000 Y178.498
G1 F2100 E444.18146
G1 F1800 X117.750 Y178.675 E444.18882
G1 X117.500 Y178.179 E444.21192
G0 F12000 X117.000 Y178.675
G1 F1800 X117.000 Y177.659 E444.25416
;LAYER:1
M106 S10
G0 F12000 X116.983 Y177.349 Z0.400
;TYPE:WALL-INNER
G1 F2220 X117.381 Y177.869 E444.28138
G1 X117.901 Y178.267 E444.30861
G1 X118.506 Y178.519 E444.33585
G1 X119.155 Y178.603 E444.36306
G1 X119.805 Y178.519 E444.39031
G1 X120.410 Y178.267 E444.41756
G1 X120.930 Y177.869 E444.44478
G1 X121.328 Y177.349 E444.47201
G1 X121.579 Y176.744 E444.49924
G1 X121.665 Y176.095 E444.52646
G1 X121.579 Y175.445 E444.55372
G1 X121.328 Y174.840 E444.58095
G1 X120.930 Y174.320 E444.60817
G1 X120.410 Y173.922 E444.63540
G1 X119.805 Y173.671 E444.66263
G1 X119.155 Y173.585 E444.68989
G1 X118.506 Y173.671 E444.71711
G1 X117.901 Y173.922 E444.74434
G1 X117.381 Y174.320 E444.77156
G1 X116.983 Y174.840 E444.79879
G1 X116.731 Y175.445 E444.82603
G1 X116.647 Y176.095 E444.85328
G1 X116.731 Y176.744 E444.88049
G1 X116.983 Y177.349 E444.90774
G1 F2100 E444.50774
G0 F12000 X116.401 Y178.850
G1 F2100 E444.90774
G1 F2220 X116.401 Y126.150 E447.09875
G1 X188.599 Y126.150 E450.10039
G1 X188.599 Y178.850 E452.29141
G1 X116.401 Y178.850 E455.29305
G1 F2100 E454.89305
G0 F12000 X119.155 Y131.414
G1 F2100 E455.29305
G1 F2220 X119.805 Y131.330 E455.32030
G1 X120.410 Y131.078 E455.34755
G1 X120.930 Y130.680 E455.37477
G1 X121.328 Y130.160 E455.40199
G1 X121.579 Y129.555 E455.42923
G1 X121.665 Y128.906 E455.45644
G1 X121.579 Y128.256 E455.48370
G1 X121.328 Y127.651 E455.51094
G1 X120.930 Y127.131 E455.53816
G1 X120.410 Y126.733 E455.56539
G1 X119.805 Y126.482 E455.59262
G1 X119.155 Y126.396 E455.61988
G1 X118.506 Y126.482 E455.64709
G1 X117.901 Y126.733 E455.67433
G1 X117.381 Y127.131 E455.70155
G1 X116.983 Y127.651 E455.72878
G1 X116.731 Y128.256 E455.75602
G1 X116.647 Y128.906 E455.78327
G1 X116.731 Y129.555 E455.81048
G1 X116.983 Y130.160 E455.83773
G1 X117.381 Y130.680 E455.86495
G1 X117.901 Y131.078 E455.89218
G1 X118.506 Y131.330 E455.91942
G1 X119.155 Y131.414 E455.94663
G1 F2100 E455.54663
G0 F12000 X183.336 Y128.906
G1 F2100 E455.94663
G1 F2220 X183.420 Y129.555 E455.97384
G1 X183.672 Y130.160 E456.00109
G1 X184.070 Y130.680 E456.02831
G1 X184.590 Y131.078 E456.05554
G1 X185.195 Y131.330 E456.08278
G1 X185.844 Y131.414 E456.10999
G1 X186.494 Y131.330 E456.13724
G1 X187.099 Y131.078 E456.16449
G1 X187.619 Y130.680 E456.19171
G1 X188.017 Y130.160 E456.21894
G1 X188.268 Y129.555 E456.24617
G1 X188.354 Y128.906 E456.27339
G1 X188.268 Y128.256 E456.30065
G1 X188.017 Y127.651 E456.32788
G1 X187.619 Y127.131 E456.35510
G1 X187.099 Y126.733 E456.38233
G1 X186.494 Y126.482 E456.40956
G1 X185.844 Y126.396 E456.43682
G1 X185.195 Y126.482 E456.46404
G1 X184.590 Y126.733 E456.49127
G1 X184.070 Y127.131 E456.51849
G1 X183.672 Y127.651 E456.54572
G1 X183.420 Y128.256 E456.57297
G1 X183.336 Y128.906 E456.60021
G1 F2100 E456.20021
G0 F12000 X185.844 Y173.585
G1 F2100 E456.60021
G1 F2220 X185.195 Y173.671 E456.62743
G1 X184.590 Y173.922 E456.65466
G1 X184.070 Y174.320 E456.68189
G1 X183.672 Y174.840 E456.70911
G1 X183.420 Y175.445 E456.73636
G1 X183.336 Y176.095 E456.76361
G1 X183.420 Y176.744 E456.79082
G1 X183.672 Y177.349 E456.81807
G1 X184.070 Y177.869 E456.84529
G1 X184.590 Y178.267 E456.87251
G1 X185.195 Y178.519 E456.89976
G1 X185.844 Y178.603 E456.92697
G1 X186.494 Y178.519 E456.95422
G1 X187.099 Y178.267 E456.98147
G1 X187.619 Y177.869 E457.00869
G1 X188.017 Y177.349 E457.03592
G1 X188.268 Y176.744 E457.06315
G1 X188.354 Y176.095 E457.09037
G1 X188.268 Y175.445 E457.11762
G1 X188.017 Y174.840 E457.14486
G1 X187.619 Y174.320 E457.17208
G1 X187.099 Y173.922 E457.19931
G1 X186.494 Y173.671 E457.22654
G1 X185.844 Y173.585 E457.25380
G0 F12000 X185.844 Y174.090
;TYPE:WALL-OUTER
G1 F2220 X185.326 Y174.158 E457.27552
G1 X184.842 Y174.359 E457.29731
G1 X184.427 Y174.677 E457.31904
G1 X184.109 Y175.092 E457.34078
G1 X183.907 Y175.576 E457.36258
G1 X183.840 Y176.095 E457.38434
G1 X183.907 Y176.613 E457.40606
G1 X184.109 Y177.097 E457.42786
G1 X184.427 Y177.512 E457.44960
G1 X184.842 Y177.830 E457.47133
G1 X185.326 Y178.032 E457.49314
G1 X185.844 Y178.099 E457.51485
G1 X186.363 Y178.032 E457.53661
G1 X186.847 Y177.830 E457.55842
G1 X187.262 Y177.512 E457.58015
G1 X187.580 Y177.097 E457.60189
G1 X187.781 Y176.613 E457.62368
G1 X187.849 Y176.095 E457.64540
G1 X187.781 Y175.576 E457.66716
G1 X187.580 Y175.092 E457.68895
G1 X187.262 Y174.677 E457.71068
G1 X186.847 Y174.359 E457.73242
G1 X186.363 Y174.158 E457.75421
G1 X185.844 Y174.090 E457.77597
G1 F2100 E457.37597
G0 F12000 X189.099 Y179.350
G1 F2100 E457.77597
G1 F2220 X115.901 Y179.350 E460.81919
G1 X115.901 Y125.650 E463.05178
G1 X189.099 Y125.650 E466.09500
G1 X189.099 Y179.350 E468.32758
G1 F2100 E467.92758
G0 F12000 X185.844 Y130.910
G1 F2100 E468.32758
G1 F2220 X186.363 Y130.843 E468.34934
G1 X186.847 Y130.641 E468.37114
G1 X187.262 Y130.323 E468.39288
G1 X187.580 Y129.908 E468.41462
G1 X187.781 Y129.424 E468.43641
G1 X187.849 Y128.906 E468.45813
G1 X187.781 Y128.387 E468.47989
G1 X187.580 Y127.903 E468.50168
G1 X187.262 Y127.488 E468.52341
G1 X186.847 Y127.170 E468.54515
G1 X186.363 Y126.969 E468.56694
G1 X185.844 Y126.901 E468.58870
G1 X185.326 Y126.969 E468.61042
G1 X184.842 Y127.170 E468.63221
G1 X184.427 Y127.488 E468.65395
G1 X184.109 Y127.903 E468.67568
G1 X183.907 Y128.387 E468.69749
G1 X183.840 Y128.906 E468.71925
G1 X183.907 Y129.424 E468.74096
G1 X184.109 Y129.908 E468.76277
G1 X184.427 Y130.323 E468.78450
G1 X184.842 Y130.641 E468.80624
G1 X185.326 Y130.843 E468.82804
G1 X185.844 Y130.910 E468.84976
G1 F2100 E468.44976
G0 F12000 X121.160 Y128.906
G1 F2100 E468.84976
G1 F2220 X121.092 Y128.387 E468.87152
G1 X120.891 Y127.903 E468.89331
G1 X120.573 Y127.488 E468.91505
G1 X120.158 Y127.170 E468.93678
G1 X119.674 Y126.969 E468.95857
G1 X119.155 Y126.901 E468.98033
G1 X118.637 Y126.969 E469.00205
G1 X118.153 Y127.170 E469.02384
G1 X117.738 Y127.488 E469.04558
G1 X117.420 Y127.903 E469.06732
G1 X117.218 Y128.387 E469.08912
G1 X117.151 Y128.906 E469.11088
G1 X117.218 Y129.424 E469.13259
G1 X117.420 Y129.908 E469.15440
G1 X117.738 Y130.323 E469.17613
G1 X118.153 Y130.641 E469.19787
G1 X118.637 Y130.843 E469.21967
G1 X119.155 Y130.910 E469.24139
G1 X119.674 Y130.843 E469.26315
G1 X120.158 Y130.641 E469.28495
G1 X120.573 Y130.323 E469.30669
G1 X120.891 Y129.908 E469.32842
G1 X121.092 Y129.424 E469.35021
G1 X121.160 Y128.906 E469.37193
G1 F2100 E468.97193
G0 F12000 X119.155 Y174.090
G1 F2100 E469.37193
G1 F2220 X118.637 Y174.158 E469.39365
G1 X118.153 Y174.359 E469.41544
G1 X117.738 Y174.677 E469.43718
G1 X117.420 Y175.092 E469.45892
G1 X117.218 Y175.576 E469.48072
G1 X117.151 Y176.095 E469.50248
G1 X117.218 Y176.613 E469.52419
G1 X117.420 Y177.097 E469.54600
G1 X117.738 Y177.512 E469.56773
G1 X118.153 Y177.830 E469.58947
G1 X118.637 Y178.032 E469.61128
G1 X119.155 Y178.099 E469.63299
G1 X119.674 Y178.032 E469.65475
G1 X120.158 Y177.830 E469.67655
G1 X120.573 Y177.512 E469.69829
G1 X120.891 Y177.097 E469.72003
G1 X121.092 Y176.613 E469.74181
G1 X121.160 Y176.095 E469.76353
G1 X121.092 Y175.576 E469.78530
G1 X120.891 Y175.092 E469.80708
G1 X120.573 Y174.677 E469.82882
G1 X120.158 Y174.359 E469.85056
G1 X119.674 Y174.158 E469.87235
G1 X119.155 Y174.090 E469.89411
G0 F12000 X119.851 Y173.500
;TYPE:SKIN
G1 F2220 X185.146 Y173.500 E472.60876
G0 F12000 X184.199 Y174.000
G1 F2220 X120.798 Y174.000 E475.24467
G0 F12000 X121.286 Y174.500
G1 F2220 X183.711 Y174.500 E477.84000
G0 F12000 X183.414 Y175.000
G1 F2220 X121.583 Y175.000 E480.41063
G0 F12000 X121.762 Y175.500
G1 F2220 X183.234 Y175.500 E482.96634
G0 F12000 X183.170 Y176.000
G1 F2220 X121.828 Y176.000 E485.51664
G0 F12000 X121.788 Y176.500
G1 F2220 X183.211 Y176.500 E488.07032
G0 F12000 X183.337 Y177.000
G1 F2220 X121.662 Y177.000 E490.63446
G0 F12000 X121.431 Y177.500
G1 F2220 X183.569 Y177.500 E493.21786
G0 F12000 X183.956 Y178.000
G1 F2220 X121.043 Y178.000 E495.83348
G0 F12000 X120.302 Y178.500
G1 F2220 X184.697 Y178.500 E498.51071
G1 F2100 E498.11071
G0 F12000 X186.991 Y178.500
G1 F2100 E498.51071
G1 F2220 X188.423 Y178.500 E498.57025
G0 F12000 X188.423 Y178.000
G1 F2220 X187.926 Y177.750 E498.59898
G1 X188.423 Y177.500 E498.62211
G1 F2100 E498.22211
G0 F12000 X188.423 Y175.000
G1 F2100 E498.62211
G1 F2220 X188.347 Y174.750 E498.62843
G1 X188.199 Y174.250 E498.64703
G1 X187.487 Y174.000 E498.67840
G0 F12000 X188.423 Y173.500
G1 F2220 X186.540 Y173.500 E498.75669
G1 F2100 E498.35669
G0 F12000 X188.423 Y173.000
G1 F2100 E498.75669
G1 F2220 X116.575 Y173.000 E501.74378
G0 F12000 X116.575 Y173.500
G1 F2220 X118.457 Y173.500 E501.82203
G0 F12000 X117.510 Y174.000
G1 F2220 X116.575 Y174.250 E501.86090
G1 X116.873 Y174.750 E501.87948
G1 X116.575 Y175.000 E501.89565
G1 F2100 E501.49565
G0 F12000 X116.575 Y177.500
G1 F2100 E501.89565
G1 F2220 X116.727 Y177.750 E501.90830
G1 X117.267 Y178.000 E501.93304
G0 F12000 X116.575 Y178.500
G1 F2220 X118.008 Y178.500 E501.99262
G1 F2100 E501.59262
G0 F12000 X116.575 Y172.500
G1 F2100 E501.99262
G1 F2220 X188.423 Y172.500 E504.97971
G0 F12000 X188.423 Y172.000
G1 F2220 X116.575 Y172.000 E507.96681
G0 F12000 X116.575 Y171.500
G1 F2220 X188.423 Y171.500 E510.95390
G0 F12000 X188.423 Y171.000
G1 F2220 X116.575 Y171.000 E513.94099
G0 F12000 X116.575 Y170.500
G1 F2220 X188.423 Y170.500 E516.92808
G0 F12000 X188.423 Y170.000
G1 F2220 X116.575 Y170.000 E519.91518
G0 F12000 X116.575 Y169.500
G1 F2220 X188.423 Y169.500 E522.90227
G0 F12000 X188.423 Y169.000
G1 F2220 X116.575 Y169.000 E525.88936
G0 F12000 X116.575 Y168.500
G1 F2220 X188.423 Y168.500 E528.87646
G0 F12000 X188.423 Y168.000
G1 F2220 X116.575 Y168.000 E531.86355
G0 F12000 X116.575 Y167.500
G1 F2220 X188.423 Y167.500 E534.85064
G0 F12000 X188.423 Y167.000
G1 F2220 X116.575 Y167.000 E537.83773
G0 F12000 X116.575 Y166.500
G1 F2220 X188.423 Y166.500 E540.82483
G0 F12000 X188.423 Y166.000
G1 F2220 X116.575 Y166.000 E543.81192
G0 F12000 X116.575 Y165.500
G1 F2220 X188.423 Y165.500 E546.79901
G0 F12000 X188.423 Y165.000
G1 F2220 X116.575 Y165.000 E549.78610
G0 F12000 X116.575 Y164.500
G1 F2220 X188.423 Y164.500 E552.77320
G0 F12000 X188.423 Y164.000
G1 F2220 X116.575 Y164.000 E555.76029
G0 F12000 X116.575 Y163.500
G1 F2220 X188.423 Y163.500 E558.74738
G0 F12000 X188.423 Y163.000
G1 F2220 X116.575 Y163.000 E561.73448
G0 F12000 X116.575 Y162.500
G1 F2220 X188.423 Y162.500 E564.72157
G0 F12000 X188.423 Y162.000
G1 F2220 X116.575 Y162.000 E567.70866
G0 F12000 X116.575 Y161.500
G1 F2220 X188.423 Y161.500 E570.69575
G0 F12000 X188.423 Y161.000
G1 F2220 X116.575 Y161.000 E573.68285
G0 F12000 X116.575 Y160.500
G1 F2220 X188.423 Y160.500 E576.66994
G0 F12000 X188.423 Y160.000
G1 F2220 X116.575 Y160.000 E579.65703
G0 F12000 X116.575 Y159.500
G1 F2220 X188.423 Y159.500 E582.64412
G0 F12000 X188.423 Y159.000
G1 F2220 X116.575 Y159.000 E585.63122
G0 F12000 X116.575 Y158.500
G1 F2220 X188.423 Y158.500 E588.61831
G0 F12000 X188.423 Y158.000
G1 F2220 X116.575 Y158.000 E591.60540
G0 F12000 X116.575 Y157.500
G1 F2220 X188.423 Y157.500 E594.59250
G0 F12000 X188.423 Y157.000
G1 F2220 X116.575 Y157.000 E597.57959
G0 F12000 X116.575 Y156.500
G1 F2220 X188.423 Y156.500 E600.56668
G0 F12000 X188.423 Y156.000
G1 F2220 X116.575 Y156.000 E603.55377
G0 F12000 X116.575 Y155.500
G1 F2220 X188.423 Y155.500 E606.54087
G0 F12000 X188.423 Y155.000
G1 F2220 X116.575 Y155.000 E609.52796
G0 F12000 X116.575 Y154.500
G1 F2220 X188.423 Y154.500 E612.51505
G0 F12000 X188.423 Y154.000
G1 F2220 X116.575 Y154.000 E615.50214
G0 F12000 X116.575 Y153.500
G1 F2220 X188.423 Y153.500 E618.48924
G0 F12000 X188.423 Y153.000
G1 F2220 X116.575 Y153.000 E621.47633
G0 F12000 X116.575 Y152.500
G1 F2220 X188.423 Y152.500 E624.46342
G0 F12000 X188.423 Y152.000
G1 F2220 X116.575 Y152.000 E627.45052
G0 F12000 X116.575 Y151.500
G1 F2220 X188.423 Y151.500 E630.43761
G0 F12000 X188.423 Y151.000
G1 F2220 X116.575 Y151.000 E633.42470
G0 F12000 X116.575 Y150.500
G1 F2220 X188.423 Y150.500 E636.41179
G0 F12000 X188.423 Y150.000
G1 F2220 X116.575 Y150.000 E639.39889
G0 F12000 X116.575 Y149.500
G1 F2220 X188.423 Y149.500 E642.38598
G0 F12000 X188.423 Y149.000
G1 F2220 X116.575 Y149.000 E645.37307
G0 F12000 X116.575 Y148.500
G1 F2220 X188.423 Y148.500 E648.36016
G0 F12000 X188.423 Y148.000
G1 F2220 X116.575 Y148.000 E651.34726
G0 F12000 X116.575 Y147.500
G1 F2220 X188.423 Y147.500 E654.33435
G0 F12000 X188.423 Y147.000
G1 F2220 X116.575 Y147.000 E657.32144
G0 F12000 X116.575 Y146.500
G1 F2220 X188.423 Y146.500 E660.30854
G0 F12000 X188.423 Y146.000
G1 F2220 X116.575 Y146.000 E663.29563
G0 F12000 X116.575 Y145.500
G1 F2220 X188.423 Y145.500 E666.28272
G0 F12000 X188.423 Y145.000
G1 F2220 X116.575 Y145.000 E669.26981
G0 F12000 X116.575 Y144.500
G1 F2220 X188.423 Y144.500 E672.25691
G0 F12000 X188.423 Y144.000
G1 F2220 X116.575 Y144.000 E675.24400
G0 F12000 X116.575 Y143.500
G1 F2220 X188.423 Y143.500 E678.23109
G0 F12000 X188.423 Y143.000
G1 F2220 X116.575 Y143.000 E681.21818
G0 F12000 X116.575 Y142.500
G1 F2220 X188.423 Y142.500 E684.20528
G0 F12000 X188.423 Y142.000
G1 F2220 X116.575 Y142.000 E687.19237
G0 F12000 X116.575 Y141.500
G1 F2220 X188.423 Y141.500 E690.17946
G0 F12000 X188.423 Y141.000
G1 F2220 X116.575 Y141.000 E693.16656
G0 F12000 X116.575 Y140.500
G1 F2220 X188.423 Y140.500 E696.15365
G0 F12000 X188.423 Y140.000
G1 F2220 X116.575 Y140.000 E699.14074
G0 F12000 X116.575 Y139.500
G1 F2220 X188.423 Y139.500 E702.12783
G0 F12000 X188.423 Y139.000
G1 F2220 X116.575 Y139.000 E705.11493
G0 F12000 X116.575 Y138.500
G1 F2220 X188.423 Y138.500 E708.10202
G0 F12000 X188.423 Y138.000
G1 F2220 X116.575 Y138.000 E711.08911
G0 F12000 X116.575 Y137.500
G1 F2220 X188.423 Y137.500 E714.07620
G0 F12000 X188.423 Y137.000
G1 F2220 X116.575 Y137.000 E717.06330
G0 F12000 X116.575 Y136.500
G1 F2220 X188.423 Y136.500 E720.05039
G0 F12000 X188.423 Y136.000
G1 F2220 X116.575 Y136.000 E723.03748
G0 F12000 X116.575 Y135.500
G1 F2220 X188.423 Y135.500 E726.02458
G0 F12000 X188.423 Y135.000
G1 F2220 X116.575 Y135.000 E729.01167
G0 F12000 X116.575 Y134.500
G1 F2220 X188.423 Y134.500 E731.99876
G0 F12000 X188.423 Y134.000
G1 F2220 X116.575 Y134.000 E734.98585
G0 F12000 X116.575 Y133.500
G1 F2220 X188.423 Y133.500 E737.97295
G0 F12000 X188.423 Y133.000
G1 F2220 X116.575 Y133.000 E740.96004
G0 F12000 X116.575 Y132.500
G1 F2220 X188.423 Y132.500 E743.94713
G0 F12000 X188.423 Y132.000
G1 F2220 X116.575 Y132.000 E746.93422
G0 F12000 X116.575 Y131.500
G1 F2220 X118.460 Y131.500 E747.01259
G0 F12000 X117.514 Y131.000
G1 F2220 X116.575 Y130.750 E747.05162
G1 X116.875 Y130.250 E747.07029
G1 X116.575 Y130.000 E747.08652
G1 F2100 E746.68652
G0 F12000 X116.575 Y127.500
G1 F2100 E747.08652
G1 F2220 X116.726 Y127.250 E747.09908
G1 X117.263 Y127.000 E747.12370
G0 F12000 X116.575 Y126.500
G1 F2220 X118.002 Y126.500 E747.18303
G1 F2100 E746.78303
G0 F12000 X119.849 Y131.500
G1 F2100 E747.18303
G1 F2220 X185.149 Y131.500 E749.89789
G0 F12000 X184.203 Y131.000
G1 F2220 X120.796 Y131.000 E752.53405
G0 F12000 X121.286 Y130.500
G1 F2220 X183.714 Y130.500 E755.12950
G0 F12000 X183.416 Y130.000
G1 F2220 X121.583 Y130.000 E757.70022
G0 F12000 X121.763 Y129.500
G1 F2220 X183.236 Y129.500 E760.25597
G0 F12000 X183.171 Y129.000
G1 F2220 X121.829 Y129.000 E762.80627
G0 F12000 X121.787 Y128.500
G1 F2220 X183.210 Y128.500 E765.35994
G0 F12000 X183.335 Y128.000
G1 F2220 X121.661 Y128.000 E767.92405
G0 F12000 X121.431 Y127.500
G1 F2220 X183.566 Y127.500 E770.50732
G0 F12000 X183.952 Y127.000
G1 F2220 X121.045 Y127.000 E773.12269
G0 F12000 X120.306 Y126.500
G1 F2220 X184.691 Y126.500 E775.79951
G1 F2100 E775.39951
G0 F12000 X186.995 Y126.500
G1 F2100 E775.79951
G1 F2220 X188.423 Y126.500 E775.85888
G0 F12000 X188.423 Y127.000
G1 F2220 X187.927 Y127.250 E775.88751
G1 X188.423 Y127.500 E775.91061
G1 F2100 E775.51061
G0 F12000 X188.423 Y130.000
G1 F2100 E775.91061
G1 F2220 X188.347 Y130.250 E775.91689
G1 X188.199 Y130.750 E775.93549
G1 X187.485 Y131.000 E775.96694
G0 F12000 X188.423 Y131.500
G1 F2220 X186.538 Y131.500 E776.04531
;LAYER:2
M106 S20
G0 F12000 X186.494 Y131.330 Z0.600
;TYPE:WALL-INNER
G1 F2700 X187.099 Y131.078 E776.07256
G1 X187.619 Y130.680 E776.09978
G1 X188.017 Y130.160 E776.12701
G1 X188.268 Y129.555 E776.15424
G1 X188.354 Y128.906 E776.18146
G1 X188.268 Y128.256 E776.20871
G1 X188.017 Y127.651 E776.23595
G1 X187.619 Y127.131 E776.26317
G1 X187.099 Y126.733 E776.29040
G1 X186.494 Y126.482 E776.31763
G1 X185.844 Y126.396 E776.34489
G1 X185.195 Y126.482 E776.37211
G1 X184.590 Y126.733 E776.39934
G1 X184.070 Y127.131 E776.42656
G1 X183.672 Y127.651 E776.45379
G1 X183.420 Y128.256 E776.48103
G1 X183.336 Y128.906 E776.50828
G1 X183.420 Y129.555 E776.53549
G1 X183.672 Y130.160 E776.56274
G1 X184.070 Y130.680 E776.58996
G1 X184.590 Y131.078 E776.61719
G1 X185.195 Y131.330 E776.64443
G1 X185.844 Y131.414 E776.67164
G1 X186.494 Y131.330 E776.69889
G1 F2100 E776.29889
G0 F12000 X188.599 Y126.150
G1 F2100 E776.69889
G1 F2700 X188.599 Y178.850 E778.88990
G1 X116.401 Y178.850 E781.89155
G1 X116.401 Y126.150 E784.08256
G1 X188.599 Y126.150 E787.08420
G1 F2100 E786.68420
G0 F12000 X185.844 Y173.585
G1 F2100 E787.08420
G1 F2700 X185.195 Y173.671 E787.11142
G1 X184.590 Y173.922 E787.13865
G1 X184.070 Y174.320 E787.16588
G1 X183.672 Y174.840 E787.19310
G1 X183.420 Y175.445 E787.22035
G1 X183.336 Y176.095 E787.24760
G1 X183.420 Y176.744 E787.27480
G1 X183.672 Y177.349 E787.30205
G1 X184.070 Y177.869 E787.32928
G1 X184.590 Y178.267 E787.35650
G1 X185.195 Y178.519 E787.38375
G1 X185.844 Y178.603 E787.41096
G1 X186.494 Y178.519 E787.43821
G1 X187.099 Y178.267 E787.46545
G1 X187.619 Y177.869 E787.49268
G1 X188.017 Y177.349 E787.51990
G1 X188.268 Y176.744 E787.54713
G1 X188.354 Y176.095 E787.57435
G1 X188.268 Y175.445 E787.60161
G1 X188.017 Y174.840 E787.62884
G1 X187.619 Y174.320 E787.65607
G1 X187.099 Y173.922 E787.68329
G1 X186.494 Y173.671 E787.71053
G1 X185.844 Y173.585 E787.73778
G1 F2100 E787.33778
G0 F12000 X121.665 Y176.095
G1 F2100 E787.73778
G1 F2700 X121.579 Y175.445 E787.76504
G1 X121.328 Y174.840 E787.79228
G1 X120.930 Y174.320 E787.81950
G1 X120.410 Y173.922 E787.84672
G1 X119.805 Y173.671 E787.87396
G1 X119.155 Y173.585 E787.90122
G1 X118.506 Y173.671 E787.92843
G1 X117.901 Y173.922 E787.95567
G1 X117.381 Y174.320 E787.98289
G1 X116.983 Y174.840 E788.01012
G1 X116.731 Y175.445 E788.03736
G1 X116.647 Y176.095 E788.06461
G1 X116.731 Y176.744 E788.09182
G1 X116.983 Y177.349 E788.11907
G1 X117.381 Y177.869 E788.14629
G1 X117.901 Y178.267 E788.17352
G1 X118.506 Y178.519 E788.20076
G1 X119.155 Y178.603 E788.22797
G1 X119.805 Y178.519 E788.25522
G1 X120.410 Y178.267 E788.28247
G1 X120.930 Y177.869 E788.30969
G1 X121.328 Y177.349 E788.33692
G1 X121.579 Y176.744 E788.36415
G1 X121.665 Y176.095 E788.39137
G1 F2100 E787.99137
G0 F12000 X119.155 Y131.414
G1 F2100 E788.39137
G1 F2700 X119.805 Y131.330 E788.41862
G1 X120.410 Y131.078 E788.44586
G1 X120.930 Y130.680 E788.47309
G1 X121.328 Y130.160 E788.50031
G1 X121.579 Y129.555 E788.52754
G1 X121.665 Y128.906 E788.55476
G1 X121.579 Y128.256 E788.58202
G1 X121.328 Y127.651 E788.60925
G1 X120.930 Y127.131 E788.63648
G1 X120.410 Y126.733 E788.66370
G1 X119.805 Y126.482 E788.69094
G1 X119.155 Y126.396 E788.71819
G1 X118.506 Y126.482 E788.74541
G1 X117.901 Y126.733 E788.77264
G1 X117.381 Y127.131 E788.79987
G1 X116.983 Y127.651 E788.82709
G1 X116.731 Y128.256 E788.85434
G1 X116.647 Y128.906 E788.88159
G1 X116.731 Y129.555 E788.90880
G1 X116.983 Y130.160 E788.93605
G1 X117.381 Y130.680 E788.96327
G1 X117.901 Y131.078 E788.99049
G1 X118.506 Y131.330 E789.01774
G1 X119.155 Y131.414 E789.04495
G0 F12000 X119.155 Y130.910
;TYPE:WALL-OUTER
G1 F2700 X119.674 Y130.843 E789.06671
G1 X120.158 Y130.641 E789.08851
G1 X120.573 Y130.323 E789.11025
G1 X120.891 Y129.908 E789.13198
G1 X121.092 Y129.424 E789.15377
G1 X121.160 Y128.906 E789.17549
G1 X121.092 Y128.387 E789.19726
G1 X120.891 Y127.903 E789.21904
G1 X120.573 Y127.488 E789.24078
G1 X120.158 Y127.170 E789.26252
G1 X119.674 Y126.969 E789.28431
G1 X119.155 Y126.901 E789.30607
G1 X118.637 Y126.969 E789.32779
G1 X118.153 Y127.170 E789.34958
G1 X117.738 Y127.488 E789.37131
G1 X117.420 Y127.903 E789.39305
G1 X117.218 Y128.387 E789.41486
G1 X117.151 Y128.906 E789.43661
G1 X117.218 Y129.424 E789.45833
G1 X117.420 Y129.908 E789.48013
G1 X117.738 Y130.323 E789.50187
G1 X118.153 Y130.641 E789.52360
G1 X118.637 Y130.843 E789.54541
G1 X119.155 Y130.910 E789.56712
G1 F2100 E789.16712
G0 F12000 X115.901 Y125.650
G1 F2100 E789.56712
G1 F2700 X189.099 Y125.650 E792.61034
G1 X189.099 Y179.350 E794.84293
G1 X115.901 Y179.350 E797.88615
G1 X115.901 Y125.650 E800.11874
G1 F2100 E799.71874
G0 F12000 X119.155 Y174.090
G1 F2100 E800.11874
G1 F2700 X118.637 Y174.158 E800.14046
G1 X118.153 Y174.359 E800.16225
G1 X117.738 Y174.677 E800.18398
G1 X117.420 Y175.092 E800.20572
G1 X117.218 Y175.576 E800.22752
G1 X117.151 Y176.095 E800.24928
G1 X117.218 Y176.613 E800.27100
G1 X117.420 Y177.097 E800.29280
G1 X117.738 Y177.512 E800.31454
G1 X118.153 Y177.830 E800.33627
G1 X118.637 Y178.032 E800.35808
G1 X119.155 Y178.099 E800.37979
G1 X119.674 Y178.032 E800.40155
G1 X120.158 Y177.830 E800.42335
G1 X120.573 Y177.512 E800.44509
G1 X120.891 Y177.097 E800.46683
G1 X121.092 Y176.613 E800.48862
G1 X121.160 Y176.095 E800.51034
G1 X121.092 Y175.576 E800.53210
G1 X120.891 Y175.092 E800.55389
G1 X120.573 Y174.677 E800.57562
G1 X120.158 Y174.359 E800.59736
G1 X119.674 Y174.158 E800.61915
G1 X119.155 Y174.090 E800.64091
G1 F2100 E800.24091
G0 F12000 X183.840 Y176.095
G1 F2100 E800.64091
G1 F2700 X183.907 Y176.613 E800.66263
G1 X184.109 Y177.097 E800.68443
G1 X184.427 Y177.512 E800.70617
G1 X184.842 Y177.830 E800.72790
G1 X185.326 Y178.032 E800.74971
G1 X185.844 Y178.099 E800.77142
G1 X186.363 Y178.032 E800.79318
G1 X186.847 Y177.830 E800.81499
G1 X187.262 Y177.512 E800.83672
G1 X187.580 Y177.097 E800.85846
G1 X187.781 Y176.613 E800.88025
G1 X187.849 Y176.095 E800.90197
G1 X187.781 Y175.576 E800.92373
G1 X187.580 Y175.092 E800.94552
G1 X187.262 Y174.677 E800.96726
G1 X186.847 Y174.359 E800.98899
G1 X186.363 Y174.158 E801.01078
G1 X185.844 Y174.090 E801.03254
G1 X185.326 Y174.158 E801.05426
G1 X184.842 Y174.359 E801.07605
G1 X184.427 Y174.677 E801.09779
G1 X184.109 Y175.092 E801.11953
G1 X183.907 Y175.576 E801.14133
G1 X183.840 Y176.095 E801.16309
G1 F2100 E800.76309
G0 F12000 X185.844 Y130.910
G1 F2100 E801.16309
G1 F2700 X186.363 Y130.843 E801.18484
G1 X186.847 Y130.641 E801.20665
G1 X187.262 Y130.323 E801.22838
G1 X187.580 Y129.908 E801.25012
G1 X187.781 Y129.424 E801.27191
G1 X187.849 Y128.906 E801.29363
G1 X187.781 Y128.387 E801.31539
G1 X187.580 Y127.903 E801.33718
G1 X187.262 Y127.488 E801.35892
G1 X186.847 Y127.170 E801.38065
G1 X186.363 Y126.969 E801.40244
G1 X185.844 Y126.901 E801.42420
G1 X185.326 Y126.969 E801.44593
G1 X184.842 Y127.170 E801.46771
G1 X184.427 Y127.488 E801.48945
G1 X184.109 Y127.903 E801.51119
G1 X183.907 Y128.387 E801.53299
G1 X183.840 Y128.906 E801.55475
G1 X183.907 Y129.424 E801.57646
G1 X184.109 Y129.908 E801.59827
G1 X184.427 Y130.323 E801.62000
G1 X184.842 Y130.641 E801.64174
G1 X185.326 Y130.843 E801.66355
G1 X185.844 Y130.910 E801.68526
G0 F12000 X186.000 Y131.570
;TYPE:SKIN
G1 F2700 X186.000 Y173.428 E803.42551
G0 F12000 X185.500 Y173.454
G1 F2700 X185.500 Y131.547 E805.16781
G0 F12000 X185.000 Y131.439
G1 F2700 X185.000 Y173.563 E806.91912
G0 F12000 X184.500 Y173.772
G1 F2700 X184.500 Y131.229 E808.68785
G0 F12000 X184.000 Y130.846
G1 F2700 X184.000 Y174.155 E810.48843
G0 F12000 X183.500 Y174.799
G1 F2700 X183.500 Y130.202 E812.34256
G1 F2100 E811.94256
G0 F12000 X183.500 Y127.610
G1 F2100 E812.34256
G1 F2700 X183.500 Y126.325 E812.39598
G0 F12000 X183.000 Y126.325
G1 F2700 X183.000 Y178.675 E814.57244
G0 F12000 X182.500 Y178.675
G1 F2700 X182.500 Y126.325 E816.74890
G0 F12000 X182.000 Y126.325
G1 F2700 X182.000 Y178.675 E818.92536
G0 F12000 X181.500 Y178.675
G1 F2700 X181.500 Y126.325 E821.10182
G0 F12000 X181.000 Y126.325
G1 F2700 X181.000 Y178.675 E823.27828
G0 F12000 X180.500 Y178.675
G1 F2700 X180.500 Y126.325 E825.45474
G0 F12000 X180.000 Y126.325
G1 F2700 X180.000 Y178.675 E827.63120
G1 F2100 E827.23120
G0 F12000 X183.500 Y178.675
G1 F2100 E827.63120
G1 F2700 X183.500 Y177.391 E827.68458
G0 F12000 X184.000 Y178.035
G1 F2700 X184.250 Y178.675 E827.71115
G1 X184.500 Y178.418 E827.72606
G1 F2100 E827.32606
G0 F12000 X187.000 Y178.497
G1 F2100 E827.72606
G1 F2700 X187.250 Y178.675 E827.73346
G1 X187.500 Y178.179 E827.75655
G0 F12000 X188.000 Y178.675
G1 F2700 X188.000 Y177.657 E827.79887
G1 F2100 E827.39887
G0 F12000 X188.000 Y174.531
G1 F2100 E827.79887
G1 F2700 X188.000 Y130.468 E829.63080
G0 F12000 X187.500 Y130.990
G1 F2700 X187.500 Y174.009 E831.41932
G0 F12000 X187.000 Y173.691
G1 F2700 X187.000 Y131.308 E833.18140
G0 F12000 X186.500 Y131.506
G1 F2700 X186.500 Y173.494 E834.92706
G1 F2100 E834.52706
G0 F12000 X179.500 Y178.675
G1 F2100 E834.92706
G1 F2700 X179.500 Y126.325 E837.10352
G0 F12000 X179.000 Y126.325
G1 F2700 X179.000 Y178.675 E839.27998
G0 F12000 X178.500 Y178.675
G1 F2700 X178.500 Y126.325 E841.45644
G0 F12000 X178.000 Y126.325
G1 F2700 X178.000 Y178.675 E843.63290
G0 F12000 X177.500 Y178.675
G1 F2700 X177.500 Y126.325 E845.80936
G0 F12000 X177.000 Y126.325
G1 F2700 X177.000 Y178.675 E847.98582
G0 F12000 X176.500 Y178.675
G1 F2700 X176.500 Y126.325 E850.16228
G0 F12000 X176.000 Y126.325
G1 F2700 X176.000 Y178.675 E852.33874
G0 F12000 X175.500 Y178.675
G1 F2700 X175.500 Y126.325 E854.51520
G0 F12000 X175.000 Y126.325
G1 F2700 X175.000 Y178.675 E856.69166
G0 F12000 X174.500 Y178.675
G1 F2700 X174.500 Y126.325 E858.86812
G0 F12000 X174.000 Y126.325
G1 F2700 X174.000 Y178.675 E861.04458
G0 F12000 X173.500 Y178.675
G1 F2700 X173.500 Y126.325 E863.22104
G0 F12000 X173.000 Y126.325
G1 F2700 X173.000 Y178.675 E865.39750
G0 F12000 X172.500 Y178.675
G1 F2700 X172.500 Y126.325 E867.57396
G0 F12000 X172.000 Y126.325
G1 F2700 X172.000 Y178.675 E869.75042
G0 F12000 X171.500 Y178.675
G1 F2700 X171.500 Y126.325 E871.92688
G0 F12000 X171.000 Y126.325
G1 F2700 X171.000 Y178.675 E874.10334
G0 F12000 X170.500 Y178.675
G1 F2700 X170.500 Y126.325 E876.27980
G0 F12000 X170.000 Y126.325
G1 F2700 X170.000 Y178.675 E878.45626
G0 F12000 X169.500 Y178.675
G1 F2700 X169.500 Y126.325 E880.63272
G0 F12000 X169.000 Y126.325
G1 F2700 X169.000 Y178.675 E882.80918
G0 F12000 X168.500 Y178.675
G1 F2700 X168.500 Y126.325 E884.98564
G0 F12000 X168.000 Y126.325
G1 F2700 X168.000 Y178.675 E887.16210
G0 F12000 X167.500 Y178.675
G1 F2700 X167.500 Y126.325 E889.33856
G0 F12000 X167.000 Y126.325
G1 F2700 X167.000 Y178.675 E891.51502
G0 F12000 X166.500 Y178.675
G1 F2700 X166.500 Y126.325 E893.69148
G0 F12000 X166.000 Y126.325
G1 F2700 X166.000 Y178.675 E895.86794
G0 F12000 X165.500 Y178.675
G1 F2700 X165.500 Y126.325 E898.04440
G0 F12000 X165.000 Y126.325
G1 F2700 X165.000 Y178.675 E900.22086
G0 F12000 X164.500 Y178.675
G1 F2700 X164.500 Y126.325 E902.39732
G0 F12000 X164.000 Y126.325
G1 F2700 X164.000 Y178.675 E904.57378
G0 F12000 X163.500 Y178.675
G1 F2700 X163.500 Y126.325 E906.75024
G0 F12000 X163.000 Y126.325
G1 F2700 X163.000 Y178.675 E908.92670
G0 F12000 X162.500 Y178.675
G1 F2700 X162.500 Y126.325 E911.10316
G0 F12000 X162.000 Y126.325
G1 F2700 X162.000 Y178.675 E913.27962
G0 F12000 X161.500 Y178.675
G1 F2700 X161.500 Y126.325 E915.45608
G0 F12000 X161.000 Y126.325
G1 F2700 X161.000 Y178.675 E917.63254
G0 F12000 X160.500 Y178.675
G1 F2700 X160.500 Y126.325 E919.80900
G0 F12000 X160.000 Y126.325
G1 F2700 X160.000 Y178.675 E921.98546
G0 F12000 X159.500 Y178.675
G1 F2700 X159.500 Y126.325 E924.16192
G0 F12000 X159.000 Y126.325
G1 F2700 X159.000 Y178.675 E926.33838
G0 F12000 X158.500 Y178.675
G1 F2700 X158.500 Y126.325 E928.51484
G0 F12000 X158.000 Y126.325
G1 F2700 X158.000 Y178.675 E930.69130
G0 F12000 X157.500 Y178.675
G1 F2700 X157.500 Y126.325 E932.86776
G0 F12000 X157.000 Y126.325
G1 F2700 X157.000 Y178.675 E935.04422
G0 F12000 X156.500 Y178.675
G1 F2700 X156.500 Y126.325 E937.22069
G0 F12000 X156.000 Y126.325
G1 F2700 X156.000 Y178.675 E939.39715
G0 F12000 X155.500 Y178.675
G1 F2700 X155.500 Y126.325 E941.57361
G0 F12000 X155.000 Y126.325
G1 F2700 X155.000 Y178.675 E943.75007
G0 F12000 X154.500 Y178.675
G1 F2700 X154.500 Y126.325 E945.92653
G0 F12000 X154.000 Y126.325
G1 F2700 X154.000 Y178.675 E948.10299
G0 F12000 X153.500 Y178.675
G1 F2700 X153.500 Y126.325 E950.27945
G0 F12000 X153.000 Y126.325
G1 F2700 X153.000 Y178.675 E952.45591
G0 F12000 X152.500 Y178.675
G1 F2700 X152.500 Y126.325 E954.63237
G0 F12000 X152.000 Y126.325
G1 F2700 X152.000 Y178.675 E956.80883
G0 F12000 X151.500 Y178.675
G1 F2700 X151.500 Y126.325 E958.98529
G0 F12000 X151.000 Y126.325
G1 F2700 X151.000 Y178.675 E961.16175
G0 F12000 X150.500 Y178.675
G1 F2700 X150.500 Y126.325 E963.33821
G0 F12000 X150.000 Y126.325
G1 F2700 X150.000 Y178.675 E965.51467
G0 F12000 X149.500 Y178.675
G1 F2700 X149.500 Y126.325 E967.69113
G0 F12000 X149.000 Y126.325
G1 F2700 X149.000 Y178.675 E969.86759
G0 F12000 X148.500 Y178.675
G1 F2700 X148.500 Y126.325 E972.04405
G0 F12000 X148.000 Y126.325
G1 F2700 X148.000 Y178.675 E974.22051
G0 F12000 X147.500 Y178.675
G1 F2700 X147.500 Y126.325 E976.39697
G0 F12000 X147.000 Y126.325
G1 F2700 X147.000 Y178.675 E978.57343
G0 F12000 X146.500 Y178.675
G1 F2700 X146.500 Y126.325 E980.74989
G0 F12000 X146.000 Y126.325
G1 F2700 X146.000 Y178.675 E982.92635
G0 F12000 X145.500 Y178.675
G1 F2700 X145.500 Y126.325 E985.10281
G0 F12000 X145.000 Y126.325
G1 F2700 X145.000 Y178.675 E987.27927
G0 F12000 X144.500 Y178.675
G1 F2700 X144.500 Y126.325 E989.45573
G0 F12000 X144.000 Y126.325
G1 F2700 X144.000 Y178.675 E991.63219
G0 F12000 X143.500 Y178.675
G1 F2700 X143.500 Y126.325 E993.80865
G0 F12000 X143.000 Y126.325
G1 F2700 X143.000 Y178.675 E995.98511
G0 F12000 X142.500 Y178.675
G1 F2700 X142.500 Y126.325 E998.16157
G0 F12000 X142.000 Y126.325
G1 F2700 X142.000 Y178.675 E1000.33803
G0 F12000 X141.500 Y178.675
G1 F2700 X141.500 Y126.325 E1002.51449
G0 F12000 X141.000 Y126.325
G1 F2700 X141.000 Y178.675 E1004.69095
G0 F12000 X140.500 Y178.675
G1 F2700 X140.500 Y126.325 E1006.86741
G0 F12000 X140.000 Y126.325
G1 F2700 X140.000 Y178.675 E1009.04387
G0 F12000 X139.500 Y178.675
G1 F2700 X139.500 Y126.325 E1011.22033
G0 F12000 X139.000 Y126.325
G1 F2700 X139.000 Y178.675 E1013.39679
G0 F12000 X138.500 Y178.675
G1 F2700 X138.500 Y126.325 E1015.57325
G0 F12000 X138.000 Y126.325
G1 F2700 X138.000 Y178.675 E1017.74971
G0 F12000 X137.500 Y178.675
G1 F2700 X137.500 Y126.325 E1019.92617
G0 F12000 X137.000 Y126.325
G1 F2700 X137.000 Y178.675 E1022.10263
G0 F12000 X136.500 Y178.675
G1 F2700 X136.500 Y126.325 E1024.27909
G0 F12000 X136.000 Y126.325
G1 F2700 X136.000 Y178.675 E1026.45555
G0 F12000 X135.500 Y178.675
G1 F2700 X135.500 Y126.325 E1028.63201
G0 F12000 X135.000 Y126.325
G1 F2700 X135.000 Y178.675 E1030.80847
G0 F12000 X134.500 Y178.675
G1 F2700 X134.500 Y126.325 E1032.98493
G0 F12000 X134.000 Y126.325
G1 F2700 X134.000 Y178.675 E1035.16139
G0 F12000 X133.500 Y178.675
G1 F2700 X133.500 Y126.325 E1037.33785
G0 F12000 X133.000 Y126.325
G1 F2700 X133.000 Y178.675 E1039.51431
G0 F12000 X132.500 Y178.675
G1 F2700 X132.500 Y126.325 E1041.69077
G0 F12000 X132.000 Y126.325
G1 F2700 X132.000 Y178.675 E1043.86723
G0 F12000 X131.500 Y178.675
G1 F2700 X131.500 Y126.325 E1046.04369
G0 F12000 X131.000 Y126.325
G1 F2700 X131.000 Y178.675 E1048.22015
G0 F12000 X130.500 Y178.675
G1 F2700 X130.500 Y126.325 E1050.39661
G0 F12000 X130.000 Y126.325
G1 F2700 X130.000 Y178.675 E1052.57307
G0 F12000 X129.500 Y178.675
G1 F2700 X129.500 Y126.325 E1054.74953
G0 F12000 X129.000 Y126.325
G1 F2700 X129.000 Y178.675 E1056.92599
G0 F12000 X128.500 Y178.675
G1 F2700 X128.500 Y126.325 E1059.10245
G0 F12000 X128.000 Y126.325
G1 F2700 X128.000 Y178.675 E1061.27891
G0 F12000 X127.500 Y178.675
G1 F2700 X127.500 Y126.325 E1063.45537
G0 F12000 X127.000 Y126.325
G1 F2700 X127.000 Y178.675 E1065.63183
G0 F12000 X126.500 Y178.675
G1 F2700 X126.500 Y126.325 E1067.80829
G0 F12000 X126.000 Y126.325
G1 F2700 X126.000 Y178.675 E1069.98475
G0 F12000 X125.500 Y178.675
G1 F2700 X125.500 Y126.325 E1072.16121
G0 F12000 X125.000 Y126.325
G1 F2700 X125.000 Y178.675 E1074.33767
G0 F12000 X124.500 Y178.675
G1 F2700 X124.500 Y126.325 E1076.51413
G0 F12000 X124.000 Y126.325
G1 F2700 X124.000 Y178.675 E1078.69059
G0 F12000 X123.500 Y178.675
G1 F2700 X123.500 Y126.325 E1080.86705
G0 F12000 X123.000 Y126.325
G1 F2700 X123.000 Y178.675 E1083.04351
G0 F12000 X122.500 Y178.675
G1 F2700 X122.500 Y126.325 E1085.21997
G0 F12000 X122.000 Y126.325
G1 F2700 X122.000 Y178.675 E1087.39643
G0 F12000 X121.500 Y178.675
G1 F2700 X121.500 Y177.391 E1087.44981
G0 F12000 X121.000 Y178.034
G1 F2700 X120.750 Y178.675 E1087.47642
G1 X120.500 Y178.417 E1087.49135
G1 F2100 E1087.09135
G0 F12000 X121.500 Y174.797
G1 F2100 E1087.49135
G1 F2700 X121.500 Y130.202 E1089.34540
G0 F12000 X121.000 Y130.845
G1 F2700 X121.000 Y174.154 E1091.14598
G0 F12000 X120.500 Y173.771
G1 F2700 X120.500 Y131.228 E1092.91471
G0 F12000 X120.000 Y131.438
G1 F2700 X120.000 Y173.562 E1094.66602
G0 F12000 X119.500 Y173.453
G1 F2700 X119.500 Y131.546 E1096.40831
G0 F12000 X119.000 Y131.571
G1 F2700 X119.000 Y173.429 E1098.14856
G0 F12000 X118.500 Y173.495
G1 F2700 X118.500 Y131.507 E1099.89422
G0 F12000 X118.000 Y131.309
G1 F2700 X118.000 Y173.692 E1101.65630
G0 F12000 X117.500 Y174.010
G1 F2700 X117.500 Y130.991 E1103.44483
G0 F12000 X117.000 Y130.469
G1 F2700 X117.000 Y174.532 E1105.27675
G1 F2100 E1104.87675
G0 F12000 X117.000 Y177.658
G1 F2100 E1105.27675
G1 F2700 X117.000 Y178.675 E1105.31903
G0 F12000 X117.500 Y178.675
G1 F2700 X117.750 Y178.339 E1105.33965
G1 X118.000 Y178.675 E1105.35706
G1 F2100 E1104.95706
G0 F12000 X121.500 Y127.608
G1 F2100 E1105.35706
G1 F2700 X121.500 Y126.325 E1105.41040
G0 F12000 X121.000 Y126.325
G1 F2700 X120.750 Y126.773 E1105.43698
G1 X120.500 Y126.325 E1105.45831
G1 F2100 E1105.05831
G0 F12000 X118.000 Y126.325
G1 F2100 E1105.45831
G1 F2700 X117.750 Y126.414 E1105.46570
G1 X117.500 Y126.821 E1105.48556
G0 F12000 X117.000 Y126.325
G1 F2700 X117.000 Y127.343 E1105.52788
G1 F2100 E1105.12788
G0 F12000 X184.000 Y126.966
G1 F2100 E1105.52788
G1 F2700 X184.250 Y126.325 E1105.55448
G1 X184.500 Y126.583 E1105.56942
G1 F2100 E1105.16942
G0 F12000 X187.000 Y126.502
G1 F2100 E1105.56942
G1 F2700 X187.250 Y126.325 E1105.57678
G1 X187.500 Y126.820 E1105.59984
G0 F12000 X188.000 Y126.325
G1 F2700 X188.000 Y127.342 E1105.64212
;LAYER:3
M106 S30
G0 F12000 X188.017 Y127.651 Z0.800
;TYPE:WALL-INNER
G1 F3120 X187.619 Y127.131 E1105.66934
G1 X187.099 Y126.733 E1105.69657
G1 X186.494 Y126.482 E1105.72380
G1 X185.844 Y126.396 E1105.75106
G1 X185.195 Y126.482 E1105.77828
G1 X184.590 Y126.733 E1105.80551
G1 X184.070 Y127.131 E1105.83273
G1 X183.672 Y127.651 E1105.85996
G1 X183.420 Y128.256 E1105.88721
G1 X183.336 Y128.906 E1105.91446
G1 X183.420 Y129.555 E1105.94166
G1 X183.672 Y130.160 E1105.96891
G1 X184.070 Y130.680 E1105.99614
G1 X184.590 Y131.078 E1106.02336
G1 X185.195 Y131.330 E1106.05061
G1 X185.844 Y131.414 E1106.07781
G1 X186.494 Y131.330 E1106.10506
G1 X187.099 Y131.078 E1106.13231
G1 X187.619 Y130.680 E1106.15954
G1 X188.017 Y130.160 E1106.18676
G1 X188.268 Y129.555 E1106.21399
G1 X188.354 Y128.906 E1106.24121
G1 X188.268 Y128.256 E1106.26847
G1 X188.017 Y127.651 E1106.29570
G1 F2100 E1105.89570
G0 F12000 X188.599 Y126.150
G1 F2100 E1106.29570
G1 F3120 X188.599 Y178.850 E1108.48671
G1 X116.401 Y178.850 E1111.48836
G1 X116.401 Y126.150 E1113.67937
G1 X188.599 Y126.150 E1116.68101
G1 F2100 E1116.28101
G0 F12000 X185.844 Y173.585
G1 F2100 E1116.68101
G1 F3120 X185.195 Y173.671 E1116.70823
G1 X184.590 Y173.922 E1116.73546
G1 X184.070 Y174.320 E1116.76269
G1 X183.672 Y174.840 E1116.78991
G1 X183.420 Y175.445 E1116.81716
G1 X183.336 Y176.095 E1116.84441
G1 X183.420 Y176.744 E1116.87162
G1 X183.672 Y177.349 E1116.89886
G1 X184.070 Y177.869 E1116.92609
G1 X184.590 Y178.267 E1116.95331
G1 X185.195 Y178.519 E1116.98056
G1 X185.844 Y178.603 E1117.00777
G1 X186.494 Y178.519 E1117.03502
G1 X187.099 Y178.267 E1117.06226
G1 X187.619 Y177.869 E1117.08949
G1 X188.017 Y177.349 E1117.11671
G1 X188.268 Y176.744 E1117.14395
G1 X188.354 Y176.095 E1117.17116
G1 X188.268 Y175.445 E1117.19842
G1 X188.017 Y174.840 E1117.22565
G1 X187.619 Y174.320 E1117.25288
G1 X187.099 Y173.922 E1117.28010
G1 X186.494 Y173.671 E1117.30734
G1 X185.844 Y173.585 E1117.33460
G1 F2100 E1116.93460
G0 F12000 X121.665 Y176.095
G1 F2100 E1117.33460
G1 F3120 X121.579 Y175.445 E1117.36185
G1 X121.328 Y174.840 E1117.38909
G1 X120.930 Y174.320 E1117.41631
G1 X120.410 Y173.922 E1117.44354
G1 X119.805 Y173.671 E1117.47077
G1 X119.155 Y173.585 E1117.49803
G1 X118.506 Y173.671 E1117.52525
G1 X117.901 Y173.922 E1117.55248
G1 X117.381 Y174.320 E1117.57970
G1 X116.983 Y174.840 E1117.60693
G1 X116.731 Y175.445 E1117.63417
G1 X116.647 Y176.095 E1117.66142
G1 X116.731 Y176.744 E1117.68863
G1 X116.983 Y177.349 E1117.71588
G1 X117.381 Y177.869 E1117.74310
G1 X117.901 Y178.267 E1117.77033
G1 X118.506 Y178.519 E1117.79757
G1 X119.155 Y178.603 E1117.82478
G1 X119.805 Y178.519 E1117.85203
G1 X120.410 Y178.267 E1117.87928
G1 X120.930 Y177.869 E1117.90650
G1 X121.328 Y177.349 E1117.93373
G1 X121.579 Y176.744 E1117.96096
G1 X121.665 Y176.095 E1117.98818
G1 F2100 E1117.58818
G0 F12000 X119.155 Y131.414
G1 F2100 E1117.98818
G1 F3120 X119.805 Y131.330 E1118.01543
G1 X120.410 Y131.078 E1118.04267
G1 X120.930 Y130.680 E1118.06990
G1 X121.328 Y130.160 E1118.09712
G1 X121.579 Y129.555 E1118.12436
G1 X121.665 Y128.906 E1118.15157
G1 X121.579 Y128.256 E1118.17883
G1 X121.328 Y127.651 E1118.20606
G1 X120.930 Y127.131 E1118.23329
G1 X120.410 Y126.733 E1118.26051
G1 X119.805 Y126.482 E1118.28775
G1 X119.155 Y126.396 E1118.31501
G1 X118.506 Y126.482 E1118.34222
G1 X117.901 Y126.733 E1118.36946
G1 X117.381 Y127.131 E1118.39668
G1 X116.983 Y127.651 E1118.42390
G1 X116.731 Y128.256 E1118.45115
G1 X116.647 Y128.906 E1118.47840
G1 X116.731 Y129.555 E1118.50561
G1 X116.983 Y130.160 E1118.53286
G1 X117.381 Y130.680 E1118.56008
G1 X117.901 Y131.078 E1118.58731
G1 X118.506 Y131.330 E1118.61455
G1 X119.155 Y131.414 E1118.64176
G0 F12000 X119.155 Y130.910
;TYPE:WALL-OUTER
G1 F3120 X119.674 Y130.843 E1118.66352
G1 X120.158 Y130.641 E1118.68532
G1 X120.573 Y130.323 E1118.70706
G1 X120.891 Y129.908 E1118.72879
G1 X121.092 Y129.424 E1118.75058
G1 X121.160 Y128.906 E1118.77230
G1 X121.092 Y128.387 E1118.79407
G1 X120.891 Y127.903 E1118.81585
G1 X120.573 Y127.488 E1118.83759
G1 X120.158 Y127.170 E1118.85933
G1 X119.674 Y126.969 E1118.88112
G1 X119.155 Y126.901 E1118.90288
G1 X118.637 Y126.969 E1118.92460
G1 X118.153 Y127.170 E1118.94639
G1 X117.738 Y127.488 E1118.96812
G1 X117.420 Y127.903 E1118.98986
G1 X117.218 Y128.387 E1119.01167
G1 X117.151 Y128.906 E1119.03342
G1 X117.218 Y129.424 E1119.05514
G1 X117.420 Y129.908 E1119.07694
G1 X117.738 Y130.323 E1119.09868
G1 X118.153 Y130.641 E1119.12042
G1 X118.637 Y130.843 E1119.14222
G1 X119.155 Y130.910 E1119.16394
G1 F2100 E1118.76394
G0 F12000 X115.901 Y125.650
G1 F2100 E1119.16394
G1 F3120 X189.099 Y125.650 E1122.20715
G1 X189.099 Y179.350 E1124.43974
G1 X115.901 Y179.350 E1127.48296
G1 X115.901 Y125.650 E1129.71555
G1 F2100 E1129.31555
G0 F12000 X119.155 Y174.090
G1 F2100 E1129.71555
G1 F3120 X118.637 Y174.158 E1129.73727
G1 X118.153 Y174.359 E1129.75906
G1 X117.738 Y174.677 E1129.78079
G1 X117.420 Y175.092 E1129.80253
G1 X117.218 Y175.576 E1129.82433
G1 X117.151 Y176.095 E1129.84609
G1 X117.218 Y176.613 E1129.86781
G1 X117.420 Y177.097 E1129.88961
G1 X117.738 Y177.512 E1129.91135
G1 X118.153 Y177.830 E1129.93308
G1 X118.637 Y178.032 E1129.95489
G1 X119.155 Y178.099 E1129.97660
G1 X119.674 Y178.032 E1129.99836
G1 X120.158 Y177.830 E1130.02017
G1 X120.573 Y177.512 E1130.04190
G1 X120.891 Y177.097 E1130.06364
G1 X121.092 Y176.613 E1130.08543
G1 X121.160 Y176.095 E1130.10715
G1 X121.092 Y175.576 E1130.12891
G1 X120.891 Y175.092 E1130.15070
G1 X120.573 Y174.677 E1130.17243
G1 X120.158 Y174.359 E1130.19417
G1 X119.674 Y174.158 E1130.21596
G1 X119.155 Y174.090 E1130.23772
G1 F2100 E1129.83772
G0 F12000 X183.840 Y176.095
G1 F2100 E1130.23772
G1 F3120 X183.907 Y176.613 E1130.25944
G1 X184.109 Y177.097 E1130.28124
G1 X184.427 Y177.512 E1130.30298
G1 X184.842 Y177.830 E1130.32472
G1 X185.326 Y178.032 E1130.34652
G1 X185.844 Y178.099 E1130.36824
G1 X186.363 Y178.032 E1130.38999
G1 X186.847 Y177.830 E1130.41180
G1 X187.262 Y177.512 E1130.43353
G1 X187.580 Y177.097 E1130.45527
G1 X187.781 Y176.613 E1130.47706
G1 X187.849 Y176.095 E1130.49878
G1 X187.781 Y175.576 E1130.52054
G1 X187.580 Y175.092 E1130.54233
G1 X187.262 Y174.677 E1130.56407
G1 X186.847 Y174.359 E1130.58580
G1 X186.363 Y174.158 E1130.60759
G1 X185.844 Y174.090 E1130.62935
G1 X185.326 Y174.158 E1130.65107
G1 X184.842 Y174.359 E1130.67286
G1 X184.427 Y174.677 E1130.69460
G1 X184.109 Y175.092 E1130.71634
G1 X183.907 Y175.576 E1130.73814
G1 X183.840 Y176.095 E1130.75990
G1 F2100 E1130.35990
G0 F12000 X185.844 Y130.910
G1 F2100 E1130.75990
G1 F3120 X186.363 Y130.843 E1130.78165
G1 X186.847 Y130.641 E1130.80346
G1 X187.262 Y130.323 E1130.82520
G1 X187.580 Y129.908 E1130.84693
G1 X187.781 Y129.424 E1130.86872
G1 X187.849 Y128.906 E1130.89044
G1 X187.781 Y128.387 E1130.91220
G1 X187.580 Y127.903 E1130.93399
G1 X187.262 Y127.488 E1130.95573
G1 X186.847 Y127.170 E1130.97746
G1 X186.363 Y126.969 E1130.99925
G1 X185.844 Y126.901 E1131.02102
G1 X185.326 Y126.969 E1131.04274
G1 X184.842 Y127.170 E1131.06452
G1 X184.427 Y127.488 E1131.08626
G1 X184.109 Y127.903 E1131.10800
G1 X183.907 Y128.387 E1131.12980
G1 X183.840 Y128.906 E1131.15156
G1 X183.907 Y129.424 E1131.17327
G1 X184.109 Y129.908 E1131.19508
G1 X184.427 Y130.323 E1131.21682
G1 X184.842 Y130.641 E1131.23855
G1 X185.326 Y130.843 E1131.26036
G1 X185.844 Y130.910 E1131.28207
G0 F12000 X186.538 Y131.500
;TYPE:SKIN
G1 F3120 X188.423 Y131.500 E1131.36044
G0 F12000 X188.423 Y132.000
G1 F3120 X116.575 Y132.000 E1134.34753
G0 F12000 X116.575 Y132.500
G1 F3120 X188.423 Y132.500 E1137.33463
G0 F12000 X188.423 Y133.000
G1 F3120 X116.575 Y133.000 E1140.32172
G0 F12000 X116.575 Y133.500
G1 F3120 X188.423 Y133.500 E1143.30881
G0 F12000 X188.423 Y134.000
G1 F3120 X116.575 Y134.000 E1146.29591
G0 F12000 X116.575 Y134.500
G1 F3120 X188.423 Y134.500 E1149.28300
G0 F12000 X188.423 Y135.000
G1 F3120 X116.575 Y135.000 E1152.27009
G0 F12000 X116.575 Y135.500
G1 F3120 X188.423 Y135.500 E1155.25718
G0 F12000 X188.423 Y136.000
G1 F3120 X116.575 Y136.000 E1158.24428
G0 F12000 X116.575 Y136.500
G1 F3120 X188.423 Y136.500 E1161.23137
G0 F12000 X188.423 Y137.000
G1 F3120 X116.575 Y137.000 E1164.21846
G0 F12000 X116.575 Y137.500
G1 F3120 X188.423 Y137.500 E1167.20555
G0 F12000 X188.423 Y138.000
G1 F3120 X116.575 Y138.000 E1170.19265
G0 F12000 X116.575 Y138.500
G1 F3120 X188.423 Y138.500 E1173.17974
G0 F12000 X188.423 Y139.000
G1 F3120 X116.575 Y139.000 E1176.16683
G0 F12000 X116.575 Y139.500
G1 F3120 X188.423 Y139.500 E1179.15393
G1 F2100 E1178.75393
G0 F12000 X188.423 Y131.000
G1 F2100 E1179.15393
G1 F3120 X187.730 Y130.750 E1179.19295
G1 X188.423 Y130.250 E1179.21156
G1 X188.272 Y130.000 E1179.22371
G1 F2100 E1178.82371
G0 F12000 X188.423 Y127.500
G1 F2100 E1179.22371
G1 F3120 X188.271 Y127.250 E1179.23631
G1 X187.734 Y127.000 E1179.26093
G0 F12000 X188.423 Y126.500
G1 F3120 X186.995 Y126.500 E1179.32030
G1 F2100 E1178.92030
G0 F12000 X184.691 Y126.500
G1 F2100 E1179.32030
G1 F3120 X120.306 Y126.500 E1181.99712
G0 F12000 X121.045 Y127.000
G1 F3120 X183.952 Y127.000 E1184.61249
G0 F12000 X183.566 Y127.500
G1 F3120 X121.431 Y127.500 E1187.19576
G0 F12000 X121.661 Y128.000
G1 F3120 X183.335 Y128.000 E1189.75987
G0 F12000 X183.210 Y128.500
G1 F3120 X121.787 Y128.500 E1192.31354
G0 F12000 X121.829 Y129.000
G1 F3120 X183.171 Y129.000 E1194.86385
G0 F12000 X183.236 Y129.500
G1 F3120 X121.763 Y129.500 E1197.41960
G0 F12000 X121.583 Y130.000
G1 F3120 X183.416 Y130.000 E1199.99031
G0 F12000 X183.714 Y130.500
G1 F3120 X121.286 Y130.500 E1202.58577
G0 F12000 X120.796 Y131.000
G1 F3120 X184.203 Y131.000 E1205.22193
G0 F12000 X185.149 Y131.500
G1 F3120 X119.849 Y131.500 E1207.93678
G0 F12000 X118.460 Y131.500
G1 F3120 X116.575 Y131.500 E1208.01515
G0 F12000 X116.575 Y131.000
G1 F3120 X117.269 Y130.750 E1208.05422
G1 X116.575 Y130.250 E1208.07286
G1 X116.727 Y130.000 E1208.08502
G1 F2100 E1207.68502
G0 F12000 X116.877 Y127.500
G1 F2100 E1208.08502
G1 F3120 X116.575 Y127.250 E1208.09757
G1 X117.263 Y127.000 E1208.12801
G0 F12000 X116.575 Y126.500
G1 F3120 X118.002 Y126.500 E1208.18733
G1 F2100 E1207.78733
G0 F12000 X116.575 Y140.000
G1 F2100 E1208.18733
G1 F3120 X188.423 Y140.000 E1211.17443
G0 F12000 X188.423 Y140.500
G1 F3120 X116.575 Y140.500 E1214.16152
G0 F12000 X116.575 Y141.000
G1 F3120 X188.423 Y141.000 E1217.14861
G0 F12000 X188.423 Y141.500
G1 F3120 X116.575 Y141.500 E1220.13571
G0 F12000 X116.575 Y142.000
G1 F3120 X188.423 Y142.000 E1223.12280
G0 F12000 X188.423 Y142.500
G1 F3120 X116.575 Y142.500 E1226.10989
G0 F12000 X116.575 Y143.000
G1 F3120 X188.423 Y143.000 E1229.09698
G0 F12000 X188.423 Y143.500
G1 F3120 X116.575 Y143.500 E1232.08408
G0 F12000 X116.575 Y144.000
G1 F3120 X188.423 Y144.000 E1235.07117
G0 F12000 X188.423 Y144.500
G1 F3120 X116.575 Y144.500 E1238.05826
G0 F12000 X116.575 Y145.000
G1 F3120 X188.423 Y145.000 E1241.04535
G0 F12000 X188.423 Y145.500
G1 F3120 X116.575 Y145.500 E1244.03245
G0 F12000 X116.575 Y146.000
G1 F3120 X188.423 Y146.000 E1247.01954
G0 F12000 X188.423 Y146.500
G1 F3120 X116.575 Y146.500 E1250.00663
G0 F12000 X116.575 Y147.000
G1 F3120 X188.423 Y147.000 E1252.99373
G0 F12000 X188.423 Y147.500
G1 F3120 X116.575 Y147.500 E1255.98082
G0 F12000 X116.575 Y148.000
G1 F3120 X188.423 Y148.000 E1258.96791
G0 F12000 X188.423 Y148.500
G1 F3120 X116.575 Y148.500 E1261.95500
G0 F12000 X116.575 Y149.000
G1 F3120 X188.423 Y149.000 E1264.94210
G0 F12000 X188.423 Y149.500
G1 F3120 X116.575 Y149.500 E1267.92919
G0 F12000 X116.575 Y150.000
G1 F3120 X188.423 Y150.000 E1270.91628
G0 F12000 X188.423 Y150.500
G1 F3120 X116.575 Y150.500 E1273.90337
G0 F12000 X116.575 Y151.000
G1 F3120 X188.423 Y151.000 E1276.89047
G0 F12000 X188.423 Y151.500
G1 F3120 X116.575 Y151.500 E1279.87756
G0 F12000 X116.575 Y152.000
G1 F3120 X188.423 Y152.000 E1282.86465
G0 F12000 X188.423 Y152.500
G1 F3120 X116.575 Y152.500 E1285.85175
G0 F12000 X116.575 Y153.000
G1 F3120 X188.423 Y153.000 E1288.83884
G0 F12000 X188.423 Y153.500
G1 F3120 X116.575 Y153.500 E1291.82593
G0 F12000 X116.575 Y154.000
G1 F3120 X188.423 Y154.000 E1294.81302
G0 F12000 X188.423 Y154.500
G1 F3120 X116.575 Y154.500 E1297.80012
G0 F12000 X116.575 Y155.000
G1 F3120 X188.423 Y155.000 E1300.78721
G0 F12000 X188.423 Y155.500
G1 F3120 X116.575 Y155.500 E1303.77430
G0 F12000 X116.575 Y156.000
G1 F3120 X188.423 Y156.000 E1306.76139
G0 F12000 X188.423 Y156.500
G1 F3120 X116.575 Y156.500 E1309.74849
G0 F12000 X116.575 Y157.000
G1 F3120 X188.423 Y157.000 E1312.73558
G0 F12000 X188.423 Y157.500
G1 F3120 X116.575 Y157.500 E1315.72267
G0 F12000 X116.575 Y158.000
G1 F3120 X188.423 Y158.000 E1318.70977
G0 F12000 X188.423 Y158.500
G1 F3120 X116.575 Y158.500 E1321.69686
G0 F12000 X116.575 Y159.000
G1 F3120 X188.423 Y159.000 E1324.68395
G0 F12000 X188.423 Y159.500
G1 F3120 X116.575 Y159.500 E1327.67104
G0 F12000 X116.575 Y160.000
G1 F3120 X188.423 Y160.000 E1330.65814
G0 F12000 X188.423 Y160.500
G1 F3120 X116.575 Y160.500 E1333.64523
G0 F12000 X116.575 Y161.000
G1 F3120 X188.423 Y161.000 E1336.63232
G0 F12000 X188.423 Y161.500
G1 F3120 X116.575 Y161.500 E1339.61941
G0 F12000 X116.575 Y162.000
G1 F3120 X188.423 Y162.000 E1342.60651
G0 F12000 X188.423 Y162.500
G1 F3120 X116.575 Y162.500 E1345.59360
G0 F12000 X116.575 Y163.000
G1 F3120 X188.423 Y163.000 E1348.58069
G0 F12000 X188.423 Y163.500
G1 F3120 X116.575 Y163.500 E1351.56779
G0 F12000 X116.575 Y164.000
G1 F3120 X188.423 Y164.000 E1354.55488
G0 F12000 X188.423 Y164.500
G1 F3120 X116.575 Y164.500 E1357.54197
G0 F12000 X116.575 Y165.000
G1 F3120 X188.423 Y165.000 E1360.52906
G0 F12000 X188.423 Y165.500
G1 F3120 X116.575 Y165.500 E1363.51616
G0 F12000 X116.575 Y166.000
G1 F3120 X188.423 Y166.000 E1366.50325
G0 F12000 X188.423 Y166.500
G1 F3120 X116.575 Y166.500 E1369.49034
G0 F12000 X116.575 Y167.000
G1 F3120 X188.423 Y167.000 E1372.47743
G0 F12000 X188.423 Y167.500
G1 F3120 X116.575 Y167.500 E1375.46453
G0 F12000 X116.575 Y168.000
G1 F3120 X188.423 Y168.000 E1378.45162
G0 F12000 X188.423 Y168.500
G1 F3120 X116.575 Y168.500 E1381.43871
G0 F12000 X116.575 Y169.000
G1 F3120 X188.423 Y169.000 E1384.42581
G0 F12000 X188.423 Y169.500
G1 F3120 X116.575 Y169.500 E1387.41290
G0 F12000 X116.575 Y170.000
G1 F3120 X188.423 Y170.000 E1390.39999
G0 F12000 X188.423 Y170.500
G1 F3120 X116.575 Y170.500 E1393.38708
G0 F12000 X116.575 Y171.000
G1 F3120 X188.423 Y171.000 E1396.37418
G0 F12000 X188.423 Y171.500
G1 F3120 X116.575 Y171.500 E1399.36127
G0 F12000 X116.575 Y172.000
G1 F3120 X188.423 Y172.000 E1402.34836
G0 F12000 X188.423 Y172.500
G1 F3120 X116.575 Y172.500 E1405.33545
G0 F12000 X116.575 Y173.000
G1 F3120 X188.423 Y173.000 E1408.32255
G0 F12000 X188.423 Y173.500
G1 F3120 X186.540 Y173.500 E1408.40083
G0 F12000 X187.487 Y174.000
G1 F3120 X188.423 Y174.250 E1408.43974
G1 X188.123 Y174.750 E1408.45836
G1 X188.423 Y175.000 E1408.47460
G1 F2100 E1408.07460
G0 F12000 X188.423 Y177.500
G1 F2100 E1408.47460
G1 F3120 X188.271 Y177.750 E1408.48720
G1 X187.732 Y178.000 E1408.51190
G0 F12000 X188.423 Y178.500
G1 F3120 X186.991 Y178.500 E1408.57144
G1 F2100 E1408.17144
G0 F12000 X184.697 Y178.500
G1 F2100 E1408.57144
G1 F3120 X120.302 Y178.500 E1411.24867
G0 F12000 X121.043 Y178.000
G1 F3120 X183.956 Y178.000 E1413.86429
G0 F12000 X183.569 Y177.500
G1 F3120 X121.431 Y177.500 E1416.44769
G0 F12000 X121.662 Y177.000
G1 F3120 X183.337 Y177.000 E1419.01183
G0 F12000 X183.211 Y176.500
G1 F3120 X121.788 Y176.500 E1421.56551
G0 F12000 X121.828 Y176.000
G1 F3120 X183.170 Y176.000 E1424.11581
G0 F12000 X183.234 Y175.500
G1 F3120 X121.762 Y175.500 E1426.67152
G0 F12000 X121.583 Y175.000
G1 F3120 X183.414 Y175.000 E1429.24215
G0 F12000 X183.711 Y174.500
G1 F3120 X121.286 Y174.500 E1431.83748
G0 F12000 X120.798 Y174.000
G1 F3120 X184.199 Y174.000 E1434.47339
G0 F12000 X185.146 Y173.500
G1 F3120 X119.851 Y173.500 E1437.18804
G0 F12000 X118.457 Y173.500
G1 F3120 X116.575 Y173.500 E1437.26628
G0 F12000 X116.575 Y174.000
G1 F3120 X117.266 Y174.250 E1437.30515
G1 X116.575 Y174.750 E1437.32373
G1 X116.725 Y175.000 E1437.33585
G1 F2100 E1436.93585
G0 F12000 X116.575 Y177.500
G1 F2100 E1437.33585
G1 F3120 X116.727 Y177.750 E1437.34850
G1 X117.267 Y178.000 E1437.37324
G0 F12000 X116.575 Y178.500
G1 F3120 X118.008 Y178.500 E1437.43282
;LAYER:4
M106 S40
G0 F12000 X117.901 Y178.267 Z1.000
;TYPE:WALL-INNER
G1 F3600 X118.506 Y178.519 E1437.46006
G1 X119.155 Y178.603 E1437.48727
G1 X119.805 Y178.519 E1437.51452
G1 X120.410 Y178.267 E1437.54177
G1 X120.930 Y177.869 E1437.56899
G1 X121.328 Y177.349 E1437.59622
G1 X121.579 Y176.744 E1437.62345
G1 X121.665 Y176.095 E1437.65067
G1 X121.579 Y175.445 E1437.67793
G1 X121.328 Y174.840 E1437.70516
G1 X120.930 Y174.320 E1437.73238
G1 X120.410 Y173.922 E1437.75961
G1 X119.805 Y173.671 E1437.78684
G1 X119.155 Y173.585 E1437.81410
G1 X118.506 Y173.671 E1437.84132
G1 X117.901 Y173.922 E1437.86855
G1 X117.381 Y174.320 E1437.89577
G1 X116.983 Y174.840 E1437.92300
G1 X116.731 Y175.445 E1437.95025
G1 X116.647 Y176.095 E1437.97749
G1 X116.731 Y176.744 E1438.00470
G1 X116.983 Y177.349 E1438.03195
G1 X117.381 Y177.869 E1438.05917
G1 X117.901 Y178.267 E1438.08640
G1 F2100 E1437.68640
G0 F12000 X116.401 Y178.850
G1 F2100 E1438.08640
G1 F3600 X116.401 Y126.150 E1440.27741
G1 X188.599 Y126.150 E1443.27905
G1 X188.599 Y178.850 E1445.47007
G1 X116.401 Y178.850 E1448.47171
G1 F2100 E1448.07171
G0 F12000 X119.155 Y131.414
G1 F2100 E1448.47171
G1 F3600 X119.805 Y131.330 E1448.49896
G1 X120.410 Y131.078 E1448.52621
G1 X120.930 Y130.680 E1448.55343
G1 X121.328 Y130.160 E1448.58065
G1 X121.579 Y129.555 E1448.60789
G1 X121.665 Y128.906 E1448.63510
G1 X121.579 Y128.256 E1448.66236
G1 X121.328 Y127.651 E1448.68960
G1 X120.930 Y127.131 E1448.71682
G1 X120.410 Y126.733 E1448.74405
G1 X119.805 Y126.482 E1448.77128
G1 X119.155 Y126.396 E1448.79854
G1 X118.506 Y126.482 E1448.82575
G1 X117.901 Y126.733 E1448.85299
G1 X117.381 Y127.131 E1448.88021
G1 X116.983 Y127.651 E1448.90744
G1 X116.731 Y128.256 E1448.93468
G1 X116.647 Y128.906 E1448.96193
G1 X116.731 Y129.555 E1448.98914
G1 X116.983 Y130.160 E1449.01639
G1 X117.381 Y130.680 E1449.04361
G1 X117.901 Y131.078 E1449.07084
G1 X118.506 Y131.330 E1449.09808
G1 X119.155 Y131.414 E1449.12529
G1 F2100 E1448.72529
G0 F12000 X183.336 Y128.906
G1 F2100 E1449.12529
G1 F3600 X183.420 Y129.555 E1449.15250
G1 X183.672 Y130.160 E1449.17975
G1 X184.070 Y130.680 E1449.20697
G1 X184.590 Y131.078 E1449.23420
G1 X185.195 Y131.330 E1449.26144
G1 X185.844 Y131.414 E1449.28865
G1 X186.494 Y131.330 E1449.31590
G1 X187.099 Y131.078 E1449.34315
G1 X187.619 Y130.680 E1449.37037
G1 X188.017 Y130.160 E1449.39760
G1 X188.268 Y129.555 E1449.42483
G1 X188.354 Y128.906 E1449.45205
G1 X188.268 Y128.256 E1449.47931
G1 X188.017 Y127.651 E1449.50654
G1 X187.619 Y127.131 E1449.53376
G1 X187.099 Y126.733 E1449.56099
G1 X186.494 Y126.482 E1449.58822
G1 X185.844 Y126.396 E1449.61548
G1 X185.195 Y126.482 E1449.64270
G1 X184.590 Y126.733 E1449.66993
G1 X184.070 Y127.131 E1449.69715
G1 X183.672 Y127.651 E1449.72438
G1 X183.420 Y128.256 E1449.75163
G1 X183.336 Y128.906 E1449.77887
G1 F2100 E1449.37887
G0 F12000 X185.844 Y173.585
G1 F2100 E1449.77887
G1 F3600 X185.195 Y173.671 E1449.80609
G1 X184.590 Y173.922 E1449.83332
G1 X184.070 Y174.320 E1449.86055
G1 X183.672 Y174.840 E1449.88777
G1 X183.420 Y175.445 E1449.91502
G1 X183.336 Y176.095 E1449.94227
G1 X183.420 Y176.744 E1449.96948
G1 X183.672 Y177.349 E1449.99673
G1 X184.070 Y177.869 E1450.02395
G1 X184.590 Y178.267 E1450.05117
G1 X185.195 Y178.519 E1450.07842
G1 X185.844 Y178.603 E1450.10563
G1 X186.494 Y178.519 E1450.13288
G1 X187.099 Y178.267 E1450.16013
G1 X187.619 Y177.869 E1450.18735
G1 X188.017 Y177.349 E1450.21458
G1 X188.268 Y176.744 E1450.24181
G1 X188.354 Y176.095 E1450.26903
G1 X188.268 Y175.445 E1450.29628
G1 X188.017 Y174.840 E1450.32352
G1 X187.619 Y174.320 E1450.35074
G1 X187.099 Y173.922 E1450.37797
G1 X186.494 Y173.671 E1450.40520
G1 X185.844 Y173.585 E1450.43246
G0 F12000 X185.844 Y174.090
;TYPE:WALL-OUTER
G1 F3600 X185.326 Y174.158 E1450.45418
G1 X184.842 Y174.359 E1450.47597
G1 X184.427 Y174.677 E1450.49770
G1 X184.109 Y175.092 E1450.51944
G1 X183.907 Y175.576 E1450.54124
G1 X183.840 Y176.095 E1450.56300
G1 X183.907 Y176.613 E1450.58472
G1 X184.109 Y177.097 E1450.60652
G1 X184.427 Y177.512 E1450.62826
G1 X184.842 Y177.830 E1450.64999
G1 X185.326 Y178.032 E1450.67180
G1 X185.844 Y178.099 E1450.69351
G1 X186.363 Y178.032 E1450.71527
G1 X186.847 Y177.830 E1450.73708
G1 X187.262 Y177.512 E1450.75881
G1 X187.580 Y177.097 E1450.78055
G1 X187.781 Y176.613 E1450.80234
G1 X187.849 Y176.095 E1450.82406
G1 X187.781 Y175.576 E1450.84582
G1 X187.580 Y175.092 E1450.86761
G1 X187.262 Y174.677 E1450.88934
G1 X186.847 Y174.359 E1450.91108
G1 X186.363 Y174.158 E1450.93287
G1 X185.844 Y174.090 E1450.95463
G1 F2100 E1450.55463
G0 F12000 X189.099 Y179.350
G1 F2100 E1450.95463
G1 F3600 X115.901 Y179.350 E1453.99785
G1 X115.901 Y125.650 E1456.23044
G1 X189.099 Y125.650 E1459.27366
G1 X189.099 Y179.350 E1461.50624
G1 F2100 E1461.10624
G0 F12000 X185.844 Y130.910
G1 F2100 E1461.50624
G1 F3600 X186.363 Y130.843 E1461.52800
G1 X186.847 Y130.641 E1461.54980
G1 X187.262 Y130.323 E1461.57154
G1 X187.580 Y129.908 E1461.59328
G1 X187.781 Y129.424 E1461.61507
G1 X187.849 Y128.906 E1461.63679
G1 X187.781 Y128.387 E1461.65855
G1 X187.580 Y127.903 E1461.68034
G1 X187.262 Y127.488 E1461.70207
G1 X186.847 Y127.170 E1461.72381
G1 X186.363 Y126.969 E1461.74560
G1 X185.844 Y126.901 E1461.76736
G1 X185.326 Y126.969 E1461.78908
G1 X184.842 Y127.170 E1461.81087
G1 X184.427 Y127.488 E1461.83261
G1 X184.109 Y127.903 E1461.85434
G1 X183.907 Y128.387 E1461.87615
G1 X183.840 Y128.906 E1461.89791
G1 X183.907 Y129.424 E1461.91962
G1 X184.109 Y129.908 E1461.94143
G1 X184.427 Y130.323 E1461.96316
G1 X184.842 Y130.641 E1461.98490
G1 X185.326 Y130.843 E1462.00670
G1 X185.844 Y130.910 E1462.02842
G1 F2100 E1461.62842
G0 F12000 X121.160 Y128.906
G1 F2100 E1462.02842
G1 F3600 X121.092 Y128.387 E1462.05018
G1 X120.891 Y127.903 E1462.07197
G1 X120.573 Y127.488 E1462.09371
G1 X120.158 Y127.170 E1462.11544
G1 X119.674 Y126.969 E1462.13723
G1 X119.155 Y126.901 E1462.15899
G1 X118.637 Y126.969 E1462.18071
G1 X118.153 Y127.170 E1462.20250
G1 X117.738 Y127.488 E1462.22424
G1 X117.420 Y127.903 E1462.24598
G1 X117.218 Y128.387 E1462.26778
G1 X117.151 Y128.906 E1462.28954
G1 X117.218 Y129.424 E1462.31125
G1 X117.420 Y129.908 E1462.33306
G1 X117.738 Y130.323 E1462.35479
G1 X118.153 Y130.641 E1462.37653
G1 X118.637 Y130.843 E1462.39833
G1 X119.155 Y130.910 E1462.42005
G1 X119.674 Y130.843 E1462.44181
G1 X120.158 Y130.641 E1462.46361
G1 X120.573 Y130.323 E1462.48535
G1 X120.891 Y129.908 E1462.50708
G1 X121.092 Y129.424 E1462.52887
G1 X121.160 Y128.906 E1462.55059
G1 F2100 E1462.15059
G0 F12000 X119.155 Y174.090
G1 F2100 E1462.55059
G1 F3600 X118.637 Y174.158 E1462.57231
G1 X118.153 Y174.359 E1462.59410
G1 X117.738 Y174.677 E1462.61584
G1 X117.420 Y175.092 E1462.63758
G1 X117.218 Y175.576 E1462.65938
G1 X117.151 Y176.095 E1462.68114
G1 X117.218 Y176.613 E1462.70285
G1 X117.420 Y177.097 E1462.72466
G1 X117.738 Y177.512 E1462.74639
G1 X118.153 Y177.830 E1462.76813
G1 X118.637 Y178.032 E1462.78994
G1 X119.155 Y178.099 E1462.81165
G1 X119.674 Y178.032 E1462.83341
G1 X120.158 Y177.830 E1462.85521
G1 X120.573 Y177.512 E1462.87695
G1 X120.891 Y177.097 E1462.89869
G1 X121.092 Y176.613 E1462.92047
G1 X121.160 Y176.095 E1462.94219
G1 X121.092 Y175.576 E1462.96396
G1 X120.891 Y175.092 E1462.98575
G1 X120.573 Y174.677 E1463.00748
G1 X120.158 Y174.359 E1463.02922
G1 X119.674 Y174.158 E1463.05101
G1 X119.155 Y174.090 E1463.07277
G1 F2100 E1462.67277
G0 F12000 X116.846 Y174.728
;TYPE:FILL
G1 F2100 E1463.07277
G1 F3600 X116.575 Y174.571 E1463.08579
G0 F12000 X116.575 Y164.382
G1 F3600 X182.492 Y126.324 E1466.25028
G1 F2100 E1465.85028
G0 F12000 X184.481 Y126.325
G1 F2100 E1466.25028
G1 F3600 X184.481 Y126.597 E1466.26158
G0 F12000 X184.481 Y131.214
G1 F3600 X184.481 Y173.786 E1468.03152
G1 F2100 E1467.63152
G0 F12000 X184.481 Y178.404
G1 F2100 E1468.03152
G1 F3600 X184.481 Y178.675 E1468.04279
G0 F12000 X182.492 Y178.673
G1 F3600 X116.574 Y140.616 E1471.20729
G0 F12000 X116.575 Y141.745
G1 F3600 X143.284 Y126.324 E1472.48952
G1 F2100 E1472.08952
G0 F12000 X145.273 Y126.325
G1 F2100 E1472.48952
G1 F3600 X145.273 Y178.675 E1474.66598
G1 F2100 E1474.26598
G0 F12000 X143.284 Y178.674
G1 F2100 E1474.66598
G1 F3600 X116.575 Y163.253 E1475.94820
G1 F2100 E1475.54820
G0 F12000 X116.575 Y153.064
G1 F2100 E1475.94820
G1 F3600 X162.888 Y126.325 E1478.17155
G1 F2100 E1477.77155
G0 F12000 X164.877 Y126.325
G1 F2100 E1478.17155
G1 F3600 X164.877 Y178.675 E1480.34801
G1 F2100 E1479.94801
G0 F12000 X162.887 Y178.673
G1 F2100 E1480.34801
G1 F3600 X116.574 Y151.934 E1482.57136
G1 F2100 E1482.17136
G0 F12000 X120.162 Y131.369
G1 F2100 E1482.57136
G1 F3600 X188.423 Y170.780 E1485.84836
G1 F2100 E1485.44836
G0 F12000 X188.422 Y168.175
G1 F2100 E1485.84836
G1 F3600 X170.235 Y178.675 E1486.72146
G1 F2100 E1486.32146
G0 F12000 X174.679 Y178.675
G1 F2100 E1486.72146
G1 F3600 X174.679 Y126.325 E1488.89792
G1 F2100 E1488.49792
G0 F12000 X170.237 Y126.324
G1 F2100 E1488.89792
G1 F3600 X188.423 Y136.824 E1489.77098
G1 F2100 E1489.37098
G0 F12000 X188.422 Y134.219
G1 F2100 E1489.77098
G1 F3600 X120.161 Y173.630 E1493.04798
G1 F2100 E1492.64798
G0 F12000 X121.490 Y177.409
G1 F2100 E1493.04798
G1 F3600 X123.680 Y178.673 E1493.15311
G1 F2100 E1492.75311
G0 F12000 X125.669 Y178.675
G1 F2100 E1493.15311
G1 F3600 X125.669 Y126.325 E1495.32957
G1 F2100 E1494.92957
G0 F12000 X123.680 Y126.325
G1 F2100 E1495.32957
G1 F3600 X121.491 Y127.589 E1495.43466
G1 F2100 E1495.03466
G0 F12000 X131.029 Y126.324
G1 F2100 E1495.43466
G1 F3600 X188.424 Y159.461 E1498.19002
G1 F2100 E1497.79002
G0 F12000 X188.422 Y156.856
G1 F2100 E1498.19002
G1 F3600 X150.631 Y178.675 E1500.00425
G1 F2100 E1499.60425
G0 F12000 X155.075 Y178.675
G1 F2100 E1500.00425
G1 F3600 X155.075 Y126.325 E1502.18071
G1 F2100 E1501.78071
G0 F12000 X150.632 Y126.324
G1 F2100 E1502.18071
G1 F3600 X188.423 Y148.143 E1503.99495
G1 F2100 E1503.59495
G0 F12000 X188.422 Y145.537
G1 F2100 E1503.99495
G1 F3600 X131.027 Y178.674 E1506.75030
G1 F2100 E1506.35030
G0 F12000 X135.471 Y178.675
G1 F2100 E1506.75030
G1 F3600 X135.471 Y126.325 E1508.92676
G1 F2100 E1508.52676
G0 F12000 X116.847 Y130.270
G1 F2100 E1508.92676
G1 F3600 X116.575 Y130.427 E1508.93982
;LAYER:5
M106 S51
G0 F12000 X116.983 Y130.160 Z1.200
;TYPE:WALL-INNER
G1 F3600 X117.381 Y130.680 E1508.96704
G1 X117.901 Y131.078 E1508.99427
G1 X118.506 Y131.330 E1509.02151
G1 X119.155 Y131.414 E1509.04872
G1 X119.805 Y131.330 E1509.07597
G1 X120.410 Y131.078 E1509.10322
G1 X120.930 Y130.680 E1509.13044
G1 X121.328 Y130.160 E1509.15767
G1 X121.579 Y129.555 E1509.18490
G1 X121.665 Y128.906 E1509.21212
G1 X121.579 Y128.256 E1509.23938
G1 X121.328 Y127.651 E1509.26661
G1 X120.930 Y127.131 E1509.29383
G1 X120.410 Y126.733 E1509.32106
G1 X119.805 Y126.482 E1509.34829
G1 X119.155 Y126.396 E1509.37555
G1 X118.506 Y126.482 E1509.40277
G1 X117.901 Y126.733 E1509.43000
G1 X117.381 Y127.131 E1509.45722
G1 X116.983 Y127.651 E1509.48445
G1 X116.731 Y128.256 E1509.51170
G1 X116.647 Y128.906 E1509.53894
G1 X116.731 Y129.555 E1509.56615
G1 X116.983 Y130.160 E1509.59340
G1 F2100 E1509.19340
G0 F12000 X116.401 Y126.150
G1 F2100 E1509.59340
G1 F3600 X188.599 Y126.150 E1512.59504
G1 X188.599 Y178.850 E1514.78606
G1 X116.401 Y178.850 E1517.78770
G1 X116.401 Y126.150 E1519.97871
G1 F2100 E1519.57871
G0 F12000 X119.155 Y173.585
G1 F2100 E1519.97871
G1 F3600 X118.506 Y173.671 E1520.00593
G1 X117.901 Y173.922 E1520.03316
G1 X117.381 Y174.320 E1520.06039
G1 X116.983 Y174.840 E1520.08761
G1 X116.731 Y175.445 E1520.11486
G1 X116.647 Y176.095 E1520.14211
G1 X116.731 Y176.744 E1520.16931
G1 X116.983 Y177.349 E1520.19656
G1 X117.381 Y177.869 E1520.22379
G1 X117.901 Y178.267 E1520.25101
G1 X118.506 Y178.519 E1520.27826
G1 X119.155 Y178.603 E1520.30547
G1 X119.805 Y178.519 E1520.33271
G1 X120.410 Y178.267 E1520.35996
G1 X120.930 Y177.869 E1520.38719
G1 X121.328 Y177.349 E1520.41441
G1 X121.579 Y176.744 E1520.44164
G1 X121.665 Y176.095 E1520.46886
G1 X121.579 Y175.445 E1520.49612
G1 X121.328 Y174.840 E1520.52335
G1 X120.930 Y174.320 E1520.55058
G1 X120.410 Y173.922 E1520.57780
G1 X119.805 Y173.671 E1520.60503
G1 X119.155 Y173.585 E1520.63229
G1 F2100 E1520.23229
G0 F12000 X183.336 Y176.095
G1 F2100 E1520.63229
G1 F3600 X183.420 Y176.744 E1520.65950
G1 X183.672 Y177.349 E1520.68675
G1 X184.070 Y177.869 E1520.71397
G1 X184.590 Y178.267 E1520.74120
G1 X185.195 Y178.519 E1520.76845
G1 X185.844 Y178.603 E1520.79565
G1 X186.494 Y178.519 E1520.82290
G1 X187.099 Y178.267 E1520.85015
G1 X187.619 Y177.869 E1520.87737
G1 X188.017 Y177.349 E1520.90460
G1 X188.268 Y176.744 E1520.93183
G1 X188.354 Y176.095 E1520.95905
G1 X188.268 Y175.445 E1520.98631
G1 X188.017 Y174.840 E1521.01354
G1 X187.619 Y174.320 E1521.04076
G1 X187.099 Y173.922 E1521.06799
G1 X186.494 Y173.671 E1521.09522
G1 X185.844 Y173.585 E1521.12248
G1 X185.195 Y173.671 E1521.14970
G1 X184.590 Y173.922 E1521.17693
G1 X184.070 Y174.320 E1521.20415
G1 X183.672 Y174.840 E1521.23138
G1 X183.420 Y175.445 E1521.25863
G1 X183.336 Y176.095 E1521.28588
G1 F2100 E1520.88588
G0 F12000 X185.844 Y131.414
G1 F2100 E1521.28588
G1 F3600 X186.494 Y131.330 E1521.31312
G1 X187.099 Y131.078 E1521.34037
G1 X187.619 Y130.680 E1521.36760
G1 X188.017 Y130.160 E1521.39482
G1 X188.268 Y129.555 E1521.42205
G1 X188.354 Y128.906 E1521.44927
G1 X188.268 Y128.256 E1521.47653
G1 X188.017 Y127.651 E1521.50376
G1 X187.619 Y127.131 E1521.53099
G1 X187.099 Y126.733 E1521.55821
G1 X186.494 Y126.482 E1521.58544
G1 X185.844 Y126.396 E1521.61270
G1 X185.195 Y126.482 E1521.63992
G1 X184.590 Y126.733 E1521.66715
G1 X184.070 Y127.131 E1521.69438
G1 X183.672 Y127.651 E1521.72160
G1 X183.420 Y128.256 E1521.74885
G1 X183.336 Y128.906 E1521.77610
G1 X183.420 Y129.555 E1521.80331
G1 X183.672 Y130.160 E1521.83055
G1 X184.070 Y130.680 E1521.85778
G1 X184.590 Y131.078 E1521.88500
G1 X185.195 Y131.330 E1521.91225
G1 X185.844 Y131.414 E1521.93946
G0 F12000 X185.844 Y130.910
;TYPE:WALL-OUTER
G1 F3600 X186.363 Y130.843 E1521.96122
G1 X186.847 Y130.641 E1521.98302
G1 X187.262 Y130.323 E1522.00476
G1 X187.580 Y129.908 E1522.02649
G1 X187.781 Y129.424 E1522.04828
G1 X187.849 Y128.906 E1522.07000
G1 X187.781 Y128.387 E1522.09176
G1 X187.580 Y127.903 E1522.11355
G1 X187.262 Y127.488 E1522.13529
G1 X186.847 Y127.170 E1522.15703
G1 X186.363 Y126.969 E1522.17881
G1 X185.844 Y126.901 E1522.20058
G1 X185.326 Y126.969 E1522.22230
G1 X184.842 Y127.170 E1522.24409
G1 X184.427 Y127.488 E1522.26582
G1 X184.109 Y127.903 E1522.28756
G1 X183.907 Y128.387 E1522.30936
G1 X183.840 Y128.906 E1522.33112
G1 X183.907 Y129.424 E1522.35284
G1 X184.109 Y129.908 E1522.37464
G1 X184.427 Y130.323 E1522.39638
G1 X184.842 Y130.641 E1522.41811
G1 X185.326 Y130.843 E1522.43992
G1 X185.844 Y130.910 E1522.46163
G1 F2100 E1522.06163
G0 F12000 X189.099 Y125.650
G1 F2100 E1522.46163
G1 F3600 X189.099 Y179.350 E1524.69422
G1 X115.901 Y179.350 E1527.73744
G1 X115.901 Y125.650 E1529.97003
G1 X189.099 Y125.650 E1533.01325
G1 F2100 E1532.61325
G0 F12000 X185.844 Y174.090
G1 F2100 E1533.01325
G1 F3600 X185.326 Y174.158 E1533.03497
G1 X184.842 Y174.359 E1533.05675
G1 X184.427 Y174.677 E1533.07849
G1 X184.109 Y175.092 E1533.10023
G1 X183.907 Y175.576 E1533.12203
G1 X183.840 Y176.095 E1533.14379
G1 X183.907 Y176.613 E1533.16550
G1 X184.109 Y177.097 E1533.18731
G1 X184.427 Y177.512 E1533.20905
G1 X184.842 Y177.830 E1533.23078
G1 X185.326 Y178.032 E1533.25259
G1 X185.844 Y178.099 E1533.27430
G1 X186.363 Y178.032 E1533.29606
G1 X186.847 Y177.830 E1533.31786
G1 X187.262 Y177.512 E1533.33960
G1 X187.580 Y177.097 E1533.36134
G1 X187.781 Y176.613 E1533.38313
G1 X187.849 Y176.095 E1533.40485
G1 X187.781 Y175.576 E1533.42661
G1 X187.580 Y175.092 E1533.44840
G1 X187.262 Y174.677 E1533.47013
G1 X186.847 Y174.359 E1533.49187
G1 X186.363 Y174.158 E1533.51366
G1 X185.844 Y174.090 E1533.53542
G1 F2100 E1533.13542
G0 F12000 X121.160 Y176.095
G1 F2100 E1533.53542
G1 F3600 X121.092 Y175.576 E1533.55718
G1 X120.891 Y175.092 E1533.57897
G1 X120.573 Y174.677 E1533.60071
G1 X120.158 Y174.359 E1533.62244
G1 X119.674 Y174.158 E1533.64423
G1 X119.155 Y174.090 E1533.66599
G1 X118.637 Y174.158 E1533.68772
G1 X118.153 Y174.359 E1533.70950
G1 X117.738 Y174.677 E1533.73124
G1 X117.420 Y175.092 E1533.75298
G1 X117.218 Y175.576 E1533.77478
G1 X117.151 Y176.095 E1533.79654
G1 X117.218 Y176.613 E1533.81825
G1 X117.420 Y177.097 E1533.84006
G1 X117.738 Y177.512 E1533.86180
G1 X118.153 Y177.830 E1533.88353
G1 X118.637 Y178.032 E1533.90534
G1 X119.155 Y178.099 E1533.92705
G1 X119.674 Y178.032 E1533.94881
G1 X120.158 Y177.830 E1533.97061
G1 X120.573 Y177.512 E1533.99235
G1 X120.891 Y177.097 E1534.01409
G1 X121.092 Y176.613 E1534.03587
G1 X121.160 Y176.095 E1534.05760
G1 F2100 E1533.65760
G0 F12000 X119.155 Y130.910
G1 F2100 E1534.05760
G1 F3600 X119.674 Y130.843 E1534.07935
G1 X120.158 Y130.641 E1534.10116
G1 X120.573 Y130.323 E1534.12289
G1 X120.891 Y129.908 E1534.14463
G1 X121.092 Y129.424 E1534.16642
G1 X121.160 Y128.906 E1534.18814
G1 X121.092 Y128.387 E1534.20990
G1 X120.891 Y127.903 E1534.23169
G1 X120.573 Y127.488 E1534.25343
G1 X120.158 Y127.170 E1534.27516
G1 X119.674 Y126.969 E1534.29695
G1 X119.155 Y126.901 E1534.31871
G1 X118.637 Y126.969 E1534.34043
G1 X118.153 Y127.170 E1534.36222
G1 X117.738 Y127.488 E1534.38396
G1 X117.420 Y127.903 E1534.40570
G1 X117.218 Y128.387 E1534.42750
G1 X117.151 Y128.906 E1534.44926
G1 X117.218 Y129.424 E1534.47097
G1 X117.420 Y129.908 E1534.49278
G1 X117.738 Y130.323 E1534.51451
G1 X118.153 Y130.641 E1534.53625
G1 X118.637 Y130.843 E1534.55806
G1 X119.155 Y130.910 E1534.57977
G1 F2100 E1534.17977
G0 F12000 X116.933 Y130.383
;TYPE:FILL
G1 F2100 E1534.57977
G1 F3600 X116.575 Y130.590 E1534.59696
G0 F12000 X120.326 Y131.301
G1 F3600 X188.424 Y170.617 E1537.86613
G1 F2100 E1537.46613
G0 F12000 X188.422 Y168.337
G1 F2100 E1537.86613
G1 F3600 X170.517 Y178.675 E1538.72570
G1 F2100 E1538.32570
G0 F12000 X174.538 Y178.675
G1 F2100 E1538.72570
G1 F3600 X174.538 Y126.325 E1540.90216
G1 F2100 E1540.50216
G0 F12000 X170.518 Y126.324
G1 F2100 E1540.90216
G1 F3600 X188.423 Y136.662 E1541.76174
G1 F2100 E1541.36174
G0 F12000 X188.423 Y134.382
G1 F2100 E1541.76174
G1 F3600 X120.325 Y173.698 E1545.03090
G1 F2100 E1544.63090
G0 F12000 X121.545 Y177.278
G1 F2100 E1545.03090
G1 F3600 X123.961 Y178.673 E1545.14689
G1 F2100 E1544.74689
G0 F12000 X125.528 Y178.675
G1 F2100 E1545.14689
G1 F3600 X125.528 Y126.325 E1547.32335
G1 F2100 E1546.92335
G0 F12000 X123.962 Y126.325
G1 F2100 E1547.32335
G1 F3600 X121.546 Y127.720 E1547.43933
G1 F2100 E1547.03933
G0 F12000 X131.310 Y126.324
G1 F2100 E1547.43933
G1 F3600 X188.423 Y159.298 E1550.18115
G1 F2100 E1549.78115
G0 F12000 X188.422 Y157.019
G1 F2100 E1550.18115
G1 F3600 X150.913 Y178.675 E1551.98184
G1 F2100 E1551.58184
G0 F12000 X154.934 Y178.675
G1 F2100 E1551.98184
G1 F3600 X154.934 Y126.325 E1554.15830
G1 F2100 E1553.75830
G0 F12000 X150.914 Y126.324
G1 F2100 E1554.15830
G1 F3600 X188.423 Y147.980 E1555.95899
G1 F2100 E1555.55899
G0 F12000 X188.422 Y145.701
G1 F2100 E1555.95899
G1 F3600 X131.309 Y178.675 E1558.70080
G1 F2100 E1558.30080
G0 F12000 X135.330 Y178.675
G1 F2100 E1558.70080
G1 F3600 X135.330 Y126.325 E1560.87726
G1 F2100 E1560.47726
G0 F12000 X143.566 Y126.324
G1 F2100 E1560.87726
G1 F3600 X116.575 Y141.908 E1562.17303
G0 F12000 X116.575 Y140.453
G1 F3600 X182.774 Y178.673 E1565.35104
G1 F2100 E1564.95104
G0 F12000 X184.340 Y178.675
G1 F2100 E1565.35104
G1 F3600 X184.340 Y178.296 E1565.36680
G0 F12000 X184.340 Y173.894
G1 F3600 X184.340 Y131.106 E1567.14571
G1 F2100 E1566.74571
G0 F12000 X184.340 Y126.705
G1 F2100 E1567.14571
G1 F3600 X184.340 Y126.325 E1567.16151
G0 F12000 X182.774 Y126.325
G1 F3600 X116.575 Y164.545 E1570.33952
G0 F12000 X116.574 Y163.090
G1 F3600 X143.566 Y178.673 E1571.63530
G1 F2100 E1571.23530
G0 F12000 X145.132 Y178.675
G1 F2100 E1571.63530
G1 F3600 X145.132 Y126.325 E1573.81176
G1 F2100 E1573.41176
G0 F12000 X163.170 Y126.325
G1 F2100 E1573.81176
G1 F3600 X116.575 Y153.226 E1576.04863
G0 F12000 X116.575 Y151.772
G1 F3600 X163.169 Y178.673 E1578.28546
G1 F2100 E1577.88546
G0 F12000 X164.736 Y178.675
G1 F2100 E1578.28546
G1 F3600 X164.736 Y126.325 E1580.46192
G1 F2100 E1580.06192
G0 F12000 X116.933 Y174.615
G1 F2100 E1580.46192
G1 F3600 X116.574 Y174.408 E1580.47915
;LAYER:6
M106 S63
G0 F12000 X116.983 Y174.840 Z1.400
;TYPE:WALL-INNER
G1 F3600 X116.731 Y175.445 E1580.50640
G1 X116.647 Y176.095 E1580.53365
G1 X116.731 Y176.744 E1580.56085
G1 X116.983 Y177.349 E1580.58810
G1 X117.381 Y177.869 E1580.61533
G1 X117.901 Y178.267 E1580.64255
G1 X118.506 Y178.519 E1580.66980
G1 X119.155 Y178.603 E1580.69701
G1 X119.805 Y178.519 E1580.72426
G1 X120.410 Y178.267 E1580.75150
G1 X120.930 Y177.869 E1580.77873
G1 X121.328 Y177.349 E1580.80595
G1 X121.579 Y176.744 E1580.83318
G1 X121.665 Y176.095 E1580.86040
G1 X121.579 Y175.445 E1580.88766
G1 X121.328 Y174.840 E1580.91489
G1 X120.930 Y174.320 E1580.94212
G1 X120.410 Y173.922 E1580.96934
G1 X119.805 Y173.671 E1580.99657
G1 X119.155 Y173.585 E1581.02383
G1 X118.506 Y173.671 E1581.05105
G1 X117.901 Y173.922 E1581.07828
G1 X117.381 Y174.320 E1581.10551
G1 X116.983 Y174.840 E1581.13273
G1 F2100 E1580.73273
G0 F12000 X116.401 Y178.850
G1 F2100 E1581.13273
G1 F3600 X116.401 Y126.150 E1583.32374
G1 X188.599 Y126.150 E1586.32539
G1 X188.599 Y178.850 E1588.51640
G1 X116.401 Y178.850 E1591.51804
G1 F2100 E1591.11804
G0 F12000 X119.155 Y131.414
G1 F2100 E1591.51804
G1 F3600 X119.805 Y131.330 E1591.54529
G1 X120.410 Y131.078 E1591.57254
G1 X120.930 Y130.680 E1591.59977
G1 X121.328 Y130.160 E1591.62699
G1 X121.579 Y129.555 E1591.65422
G1 X121.665 Y128.906 E1591.68144
G1 X121.579 Y128.256 E1591.70870
G1 X121.328 Y127.651 E1591.73593
G1 X120.930 Y127.131 E1591.76316
G1 X120.410 Y126.733 E1591.79038
G1 X119.805 Y126.482 E1591.81761
G1 X119.155 Y126.396 E1591.84487
G1 X118.506 Y126.482 E1591.87209
G1 X117.901 Y126.733 E1591.89932
G1 X117.381 Y127.131 E1591.92655
G1 X116.983 Y127.651 E1591.95377
G1 X116.731 Y128.256 E1591.98102
G1 X116.647 Y128.906 E1592.00827
G1 X116.731 Y129.555 E1592.03547
G1 X116.983 Y130.160 E1592.06272
G1 X117.381 Y130.680 E1592.08995
G1 X117.901 Y131.078 E1592.11717
G1 X118.506 Y131.330 E1592.14442
G1 X119.155 Y131.414 E1592.17163
G1 F2100 E1591.77163
G0 F12000 X183.336 Y128.906
G1 F2100 E1592.17163
G1 F3600 X183.420 Y129.555 E1592.19883
G1 X183.672 Y130.160 E1592.22608
G1 X184.070 Y130.680 E1592.25331
G1 X184.590 Y131.078 E1592.28053
G1 X185.195 Y131.330 E1592.30778
G1 X185.844 Y131.414 E1592.33499
G1 X186.494 Y131.330 E1592.36224
G1 X187.099 Y131.078 E1592.38948
G1 X187.619 Y130.680 E1592.41671
G1 X188.017 Y130.160 E1592.44393
G1 X188.268 Y129.555 E1592.47116
G1 X188.354 Y128.906 E1592.49838
G1 X188.268 Y128.256 E1592.52564
G1 X188.017 Y127.651 E1592.55287
G1 X187.619 Y127.131 E1592.58010
G1 X187.099 Y126.733 E1592.60732
G1 X186.494 Y126.482 E1592.63455
G1 X185.844 Y126.396 E1592.66181
G1 X185.195 Y126.482 E1592.68903
G1 X184.590 Y126.733 E1592.71626
G1 X184.070 Y127.131 E1592.74349
G1 X183.672 Y127.651 E1592.77071
G1 X183.420 Y128.256 E1592.79796
G1 X183.336 Y128.906 E1592.82521
G1 F2100 E1592.42521
G0 F12000 X185.844 Y173.585
G1 F2100 E1592.82521
G1 F3600 X185.195 Y173.671 E1592.85243
G1 X184.590 Y173.922 E1592.87966
G1 X184.070 Y174.320 E1592.90688
G1 X183.672 Y174.840 E1592.93411
G1 X183.420 Y175.445 E1592.96136
G1 X183.336 Y176.095 E1592.98861
G1 X183.420 Y176.744 E1593.01581
G1 X183.672 Y177.349 E1593.04306
G1 X184.070 Y177.869 E1593.07028
G1 X184.590 Y178.267 E1593.09751
G1 X185.195 Y178.519 E1593.12476
G1 X185.844 Y178.603 E1593.15196
G1 X186.494 Y178.519 E1593.17921
G1 X187.099 Y178.267 E1593.20646
G1 X187.619 Y177.869 E1593.23369
G1 X188.017 Y177.349 E1593.26091
G1 X188.268 Y176.744 E1593.28814
G1 X188.354 Y176.095 E1593.31536
G1 X188.268 Y175.445 E1593.34262
G1 X188.017 Y174.840 E1593.36985
G1 X187.619 Y174.320 E1593.39708
G1 X187.099 Y173.922 E1593.42430
G1 X186.494 Y173.671 E1593.45153
G1 X185.844 Y173.585 E1593.47879
G0 F12000 X185.844 Y174.090
;TYPE:WALL-OUTER
G1 F3600 X185.326 Y174.158 E1593.50051
G1 X184.842 Y174.359 E1593.52230
G1 X184.427 Y174.677 E1593.54404
G1 X184.109 Y175.092 E1593.56577
G1 X183.907 Y175.576 E1593.58758
G1 X183.840 Y176.095 E1593.60934
G1 X183.907 Y176.613 E1593.63105
G1 X184.109 Y177.097 E1593.65286
G1 X184.427 Y177.512 E1593.67459
G1 X184.842 Y177.830 E1593.69633
G1 X185.326 Y178.032 E1593.71813
G1 X185.844 Y178.099 E1593.73985
G1 X186.363 Y178.032 E1593.76161
G1 X186.847 Y177.830 E1593.78341
G1 X187.262 Y177.512 E1593.80515
G1 X187.580 Y177.097 E1593.82688
G1 X187.781 Y176.613 E1593.84867
G1 X187.849 Y176.095 E1593.87039
G1 X187.781 Y175.576 E1593.89215
G1 X187.580 Y175.092 E1593.91394
G1 X187.262 Y174.677 E1593.93568
G1 X186.847 Y174.359 E1593.95742
G1 X186.363 Y174.158 E1593.97921
G1 X185.844 Y174.090 E1594.00097
G1 F2100 E1593.60097
G0 F12000 X189.099 Y179.350
G1 F2100 E1594.00097
G1 F3600 X115.901 Y179.350 E1597.04419
G1 X115.901 Y125.650 E1599.27677
G1 X189.099 Y125.650 E1602.31999
G1 X189.099 Y179.350 E1604.55258
G1 F2100 E1604.15258
G0 F12000 X185.844 Y130.910
G1 F2100 E1604.55258
G1 F3600 X186.363 Y130.843 E1604.57434
G1 X186.847 Y130.641 E1604.59614
G1 X187.262 Y130.323 E1604.61788
G1 X187.580 Y129.908 E1604.63961
G1 X187.781 Y129.424 E1604.66140
G1 X187.849 Y128.906 E1604.68312
G1 X187.781 Y128.387 E1604.70488
G1 X187.580 Y127.903 E1604.72667
G1 X187.262 Y127.488 E1604.74841
G1 X186.847 Y127.170 E1604.77015
G1 X186.363 Y126.969 E1604.79194
G1 X185.844 Y126.901 E1604.81370
G1 X185.326 Y126.969 E1604.83542
G1 X184.842 Y127.170 E1604.85721
G1 X184.427 Y127.488 E1604.87894
G1 X184.109 Y127.903 E1604.90068
G1 X183.907 Y128.387 E1604.92248
G1 X183.840 Y128.906 E1604.94424
G1 X183.907 Y129.424 E1604.96596
G1 X184.109 Y129.908 E1604.98776
G1 X184.427 Y130.323 E1605.00950
G1 X184.842 Y130.641 E1605.03123
G1 X185.326 Y130.843 E1605.05304
G1 X185.844 Y130.910 E1605.07475
G1 F2100 E1604.67475
G0 F12000 X121.160 Y128.906
