;-- START GCODE --
;Sliced for Type A Machines Series 1
;Sliced at: Tue 06-12-2016 15:12:47
;Basic settings:
; Layer height: 0.2
; Walls: 1
; Fill: 8
; Print Speed: 60
; Support: 0
; Retraction Speed: 35
; Retraction Distance: 0.4
;Print time: 49 minutes
;Filament used: 4.215m 12.0g
;Settings based on: Type A Machines Everyday PLA
G21        ;metric values
G90        ;absolute positioning
G28     ;move to endstops
G29		;allows for auto-levelling
G1 Z15.0 F12000 ;move the platform down 15mm
G1 X150 Y5 F12000 ;center
M140 S50 ;Prep Heat Bed
M109 S220 ;Heat To temp
M190 S50 ;Heat Bed to temp
G1 X150 Y5 Z0.3 ;move the platform to purge extrusion
G92 E0 ;zero the extruded length
G1 F200 X250 E30 ;extrude 30mm of feed stock
G92 E0 ;zero the extruded length again
G1 X150 Y150  Z25 F12000 ;recenter and begin
G1 F12000

;Layer count: 63
;LAYER:0
M107
G0 F12000 X190.085 Y75.361 Z0.200
;TYPE:SKIRT
G1 F1800 X194.059 Y82.246 E0.33051
G1 X194.417 Y82.409 E0.34686
G1 X195.730 Y82.663 E0.40246
G1 X197.066 Y82.600 E0.45807
G1 X198.335 Y82.228 E0.51304
G1 X199.497 Y81.560 E0.56877
G1 X200.478 Y80.627 E0.62505
G1 X201.198 Y79.506 E0.68045
G1 X201.635 Y78.241 E0.73609
G1 X201.671 Y77.854 E0.75225
G1 X197.692 Y70.962 E1.08311
G1 X193.167 Y73.575 E1.30035
G1 X190.787 Y74.949 E1.41460
G1 X190.085 Y75.361 E1.44844
G0 F12000 X189.403 Y75.180
G1 F1800 X193.706 Y82.634 E1.80628
G1 X194.264 Y82.889 E1.83178
G1 X195.694 Y83.166 E1.89234
G1 X197.147 Y83.097 E1.95282
G1 X198.530 Y82.691 E2.01274
G1 X199.798 Y81.963 E2.07353
G1 X200.867 Y80.946 E2.13487
G1 X201.651 Y79.725 E2.19520
G1 X202.127 Y78.347 E2.25581
G1 X202.184 Y77.743 E2.28104
G1 X197.875 Y70.279 E2.63935
G1 X192.482 Y73.393 E2.89826
G1 X190.438 Y74.573 E2.99638
G1 X189.403 Y75.180 E3.04627
G0 F12000 X188.722 Y75.000
G1 F1800 X193.353 Y83.023 E3.43141
G1 X194.111 Y83.369 E3.46605
G1 X195.655 Y83.668 E3.53143
G1 X197.233 Y83.593 E3.59711
G1 X198.728 Y83.154 E3.66189
G1 X200.100 Y82.366 E3.72767
G1 X201.255 Y81.268 E3.79393
G1 X202.103 Y79.946 E3.85922
G1 X202.620 Y78.452 E3.92495
G1 X202.697 Y77.631 E3.95923
G1 X198.058 Y69.596 E4.34497
G1 X191.797 Y73.211 E4.64554
G1 X190.238 Y74.111 E4.72039
G1 X188.722 Y75.000 E4.79345
G0 F12000 X188.041 Y74.820
G1 F1800 X193.001 Y83.412 E5.20591
G1 X193.954 Y83.848 E5.24948
G1 X195.622 Y84.170 E5.32011
G1 X197.312 Y84.091 E5.39045
G1 X198.927 Y83.617 E5.46043
G1 X200.401 Y82.769 E5.53113
G1 X201.642 Y81.590 E5.60229
G1 X202.557 Y80.164 E5.67273
G1 X203.111 Y78.563 E5.74317
G1 X203.209 Y77.519 E5.78676
G1 X198.241 Y68.913 E6.19990
G1 X191.112 Y73.029 E6.54214
G1 X191.112 Y73.030 E6.54218
G1 X190.017 Y73.662 E6.59474
G1 X188.041 Y74.820 E6.68996
G0 F12000 X187.392 Y74.620
G1 F1800 X187.383 Y74.605 E6.69069
G1 X187.350 Y74.624 E6.69228
G1 X192.647 Y83.800 E7.13277
G1 X193.803 Y84.328 E7.18561
G1 X195.583 Y84.672 E7.26098
G1 X197.398 Y84.587 E7.33652
G1 X199.127 Y84.079 E7.41144
G1 X200.702 Y83.174 E7.48696
G1 X202.030 Y81.911 E7.56316
G1 X203.011 Y80.384 E7.63862
G1 X203.603 Y78.669 E7.71405
G1 X203.722 Y77.407 E7.76675
G1 X198.424 Y68.230 E8.20730
G1 X190.426 Y72.848 E8.59127
G1 X189.734 Y73.248 E8.62450
G1 X187.392 Y74.620 E8.73734
G0 F12000 X187.574 Y73.935
G1 F1800 X187.566 Y73.922 E8.73798
G1 X186.667 Y74.441 E8.78113
G1 X192.294 Y84.188 E9.24905
G1 X193.650 Y84.808 E9.31104
G1 X195.551 Y85.175 E9.39153
G1 X197.480 Y85.084 E9.47182
G1 X199.321 Y84.544 E9.55158
G1 X201.002 Y83.577 E9.63221
G1 X202.420 Y82.230 E9.71352
G1 X203.463 Y80.605 E9.79380
G1 X204.095 Y78.774 E9.87433
G1 X204.235 Y77.296 E9.93606
G1 X198.608 Y67.547 E10.40404
G1 X189.602 Y72.746 E10.83638
G1 X189.534 Y72.786 E10.83966
G1 X187.574 Y73.935 E10.93412
G0 F12000 X187.755 Y73.249
G1 F1800 X187.749 Y73.239 E10.93460
G1 X185.984 Y74.258 E11.01933
G1 X191.941 Y84.576 E11.51467
G1 X193.497 Y85.287 E11.58579
G1 X195.512 Y85.677 E11.67112
G1 X197.565 Y85.580 E11.75657
G1 X199.521 Y85.006 E11.84132
G1 X201.300 Y83.983 E11.92664
G1 X202.806 Y82.553 E12.01298
G1 X203.917 Y80.823 E12.09846
G1 X204.588 Y78.881 E12.18388
G1 X204.748 Y77.184 E12.25475
G1 X198.791 Y66.864 E12.75015
G1 X189.352 Y72.313 E13.20328
G1 X187.755 Y73.249 E13.28023
G0 F12000 X187.233 Y71.345
G1 F1800 X187.686 Y72.121 E13.31759
G1 X184.618 Y73.892 E13.46487
G1 X191.235 Y85.353 E14.01508
G1 X193.192 Y86.247 E14.10453
G1 X195.441 Y86.682 E14.19976
G1 X197.730 Y86.573 E14.29504
G1 X199.917 Y85.932 E14.38979
G1 X201.903 Y84.790 E14.48503
G1 X203.584 Y83.194 E14.58140
G1 X204.822 Y81.266 E14.67666
G1 X205.571 Y79.096 E14.77210
G1 X205.773 Y76.960 E14.86130
G1 X199.157 Y65.498 E15.41152
G1 X188.852 Y71.447 E15.90622
G1 X188.118 Y71.877 E15.94159
G1 X182.098 Y61.449 E16.44219
G1 X181.647 Y60.676 E16.47940
G1 X203.075 Y48.306 E17.50806
G1 X203.075 Y48.307 E17.50810
G1 X203.888 Y47.833 E17.54723
G1 X208.670 Y56.115 E17.94483
G1 X241.684 Y56.115 E19.31739
G1 X242.095 Y56.959 E19.35642
G1 X239.153 Y60.703 E19.55439
G1 X237.049 Y64.391 E19.73091
G1 X235.510 Y68.352 E19.90758
G1 X234.574 Y72.486 E20.08381
G1 X234.254 Y76.755 E20.26179
G1 X234.254 Y76.763 E20.26212
G1 X234.564 Y80.954 E20.43684
G1 X235.494 Y85.095 E20.61329
G1 X237.038 Y89.093 E20.79147
G1 X237.041 Y89.101 E20.79183
G1 X239.139 Y92.784 E20.96805
G1 X239.145 Y92.793 E20.96850
G1 X241.781 Y96.149 E21.14592
G1 X242.098 Y96.511 E21.16593
G1 X241.698 Y97.391 E21.20611
G1 X183.255 Y97.391 E23.63589
G1 X167.411 Y69.946 E24.95341
G1 X167.410 Y69.947 E24.95347
G1 X166.954 Y69.161 E24.99125
G1 X180.466 Y61.358 E25.63996
G1 X181.219 Y60.927 E25.67603
G1 X187.233 Y71.345 E26.17615
G0 F12000 X186.801 Y71.597
G1 F1800 X187.001 Y71.939 E26.19262
G1 X183.935 Y73.709 E26.33980
G1 X190.882 Y85.743 E26.91750
G1 X193.040 Y86.727 E27.01611
G1 X195.401 Y87.184 E27.11609
G1 X197.816 Y87.069 E27.21661
G1 X200.111 Y86.396 E27.31604
G1 X202.209 Y85.190 E27.41665
G1 X203.972 Y83.515 E27.51775
G1 X205.275 Y81.485 E27.61804
G1 X206.064 Y79.202 E27.71846
G1 X206.286 Y76.848 E27.81677
G1 X199.339 Y64.815 E28.39443
G1 X188.602 Y71.014 E28.90988
G1 X188.299 Y71.191 E28.92447
G1 X182.531 Y61.199 E29.40413
G1 X182.332 Y60.858 E29.42055
G1 X203.707 Y48.519 E30.44665
G1 X208.381 Y56.615 E30.83531
G1 X241.371 Y56.615 E32.20688
G1 X241.508 Y56.896 E32.21988
G1 X238.738 Y60.423 E32.40633
G1 X236.596 Y64.176 E32.58598
G1 X235.032 Y68.202 E32.76555
G1 X234.077 Y72.418 E32.94527
G1 X233.754 Y76.725 E33.12484
G1 X233.753 Y76.781 E33.12717
G1 X234.067 Y81.025 E33.30410
G1 X235.015 Y85.243 E33.48384
G1 X236.573 Y89.278 E33.66366
G1 X236.594 Y89.327 E33.66588
G1 X238.705 Y93.033 E33.84320
G1 X238.732 Y93.077 E33.84535
G1 X241.389 Y96.460 E34.02419
G1 X241.509 Y96.598 E34.03179
G1 X241.376 Y96.891 E34.04517
G1 X183.544 Y96.891 E36.44954
G1 X167.638 Y69.343 E37.77206
G1 X181.035 Y61.607 E38.41524
G1 X186.801 Y71.597 E38.89479
G0 F12000 X187.937 Y72.563
G1 F1800 X187.933 Y72.555 E38.89516
G1 X185.301 Y74.075 E39.02152
G1 X191.588 Y84.965 E39.54431
G1 X193.344 Y85.767 E39.62457
G1 X195.472 Y86.179 E39.71469
G1 X197.652 Y86.076 E39.80542
G1 X199.715 Y85.471 E39.89480
G1 X201.606 Y84.384 E39.98548
G1 X203.195 Y82.873 E40.07665
G1 X204.369 Y81.045 E40.16697
G1 X205.080 Y78.986 E40.25753
G1 X205.261 Y77.073 E40.33742
G1 X198.974 Y66.181 E40.86028
G1 X189.102 Y71.880 E41.33419
G1 X189.102 Y71.879 E41.33423
G1 X187.937 Y72.563 E41.39040
G0 F12000 X180.963 Y60.497
G1 F1800 X180.962 Y60.495 E41.39049
G1 X202.825 Y47.873 E42.44005
G1 X202.825 Y47.874 E42.44010
G1 X204.070 Y47.149 E42.49999
G1 X208.958 Y55.615 E42.90642
G1 X241.997 Y55.615 E44.28003
G1 X242.681 Y57.022 E44.34507
G1 X239.572 Y60.978 E44.55425
G1 X237.499 Y64.611 E44.72815
G1 X235.990 Y68.496 E44.90143
G1 X235.069 Y72.566 E45.07492
G1 X234.755 Y76.754 E45.24952
G1 X235.060 Y80.881 E45.42157
G1 X235.975 Y84.954 E45.59513
G1 X237.492 Y88.882 E45.77019
G1 X239.559 Y92.511 E45.94383
G1 X242.161 Y95.824 E46.11897
G1 X242.686 Y96.424 E46.15211
G1 X242.020 Y97.891 E46.21910
G1 X182.966 Y97.891 E48.67428
G1 X166.979 Y70.198 E50.00370
G1 X166.978 Y70.198 E50.00374
G1 X166.270 Y68.978 E50.06238
G1 X180.217 Y60.924 E50.73197
G1 X180.963 Y60.497 E50.76771
G0 F12000 X180.277 Y60.314
G1 F1800 X180.277 Y60.313 E50.76775
G1 X202.575 Y47.440 E51.83819
G1 X204.253 Y46.464 E51.91890
G1 X209.247 Y55.115 E52.33419
G1 X242.310 Y55.115 E53.70879
G1 X243.268 Y57.085 E53.79986
G1 X239.986 Y61.261 E54.02068
G1 X237.953 Y64.824 E54.19123
G1 X236.471 Y68.640 E54.36143
G1 X235.565 Y72.639 E54.53190
G1 X235.256 Y76.761 E54.70375
G1 X235.556 Y80.810 E54.87255
G1 X236.451 Y84.799 E55.04252
G1 X237.946 Y88.669 E55.21500
G1 X239.976 Y92.233 E55.38553
G1 X242.549 Y95.509 E55.55872
G1 X243.275 Y96.337 E55.60450
G1 X242.343 Y98.391 E55.69827
G1 X182.678 Y98.391 E58.17886
G1 X166.546 Y70.449 E59.52026
G1 X165.586 Y68.796 E59.59973
G1 X179.968 Y60.491 E60.29020
G1 X180.277 Y60.314 E60.30500
G0 F12000 X179.776 Y60.025
G1 F1800 X202.325 Y47.007 E61.38749
G1 X204.435 Y45.780 E61.48897
G1 X209.536 Y54.615 E61.91312
G1 X242.623 Y54.615 E63.28871
G1 X243.854 Y57.148 E63.40580
G1 X240.402 Y61.542 E63.63811
G1 X238.406 Y65.039 E63.80552
G1 X236.949 Y68.790 E63.97282
G1 X236.062 Y72.708 E64.13983
G1 X235.758 Y76.761 E64.30881
G1 X236.052 Y80.737 E64.47456
G1 X236.932 Y84.655 E64.64151
G1 X238.399 Y88.454 E64.81082
G1 X240.392 Y91.953 E64.97824
G1 X242.930 Y95.185 E65.14909
G1 X243.863 Y96.250 E65.20795
G1 X242.665 Y98.891 E65.32852
G1 X182.389 Y98.891 E67.83451
G1 X166.114 Y70.700 E69.18785
G1 X166.113 Y70.700 E69.18789
G1 X164.901 Y68.614 E69.28819
G1 X179.718 Y60.058 E69.99954
G1 X179.776 Y60.025 E70.00231
G0 F12000 X179.469 Y59.624
G1 F1800 X202.075 Y46.574 E71.08752
G1 X204.617 Y45.095 E71.20979
G1 X209.825 Y54.115 E71.64282
G1 X242.936 Y54.115 E73.01942
G1 X244.441 Y57.211 E73.16253
G1 X240.817 Y61.822 E73.40636
G1 X238.859 Y65.254 E73.57063
G1 X237.429 Y68.934 E73.73478
G1 X236.557 Y72.787 E73.89902
G1 X236.258 Y76.762 E74.06475
G1 X236.547 Y80.659 E74.22721
G1 X237.412 Y84.513 E74.39143
G1 X238.852 Y88.240 E74.55754
G1 X240.803 Y91.665 E74.72142
G1 X243.321 Y94.871 E74.89090
G1 X244.451 Y96.164 E74.96229
G1 X242.987 Y99.391 E75.10962
G1 X182.101 Y99.391 E77.64096
G1 X165.678 Y70.945 E79.00656
G1 X164.217 Y68.431 E79.12745
G1 X179.469 Y59.624 E79.85968
G0 F12000 X178.970 Y58.757
G1 F1800 X179.221 Y58.613 E79.87171
G1 X201.575 Y45.708 E80.94483
G1 X204.981 Y43.726 E81.10867
G1 X210.402 Y53.115 E81.55941
G1 X243.562 Y53.115 E82.93804
G1 X245.614 Y57.337 E83.13320
G1 X241.649 Y62.382 E83.39998
G1 X239.765 Y65.684 E83.55803
G1 X238.386 Y69.234 E83.71637
G1 X237.548 Y72.935 E83.87413
G1 X237.261 Y76.756 E84.03344
G1 X237.540 Y80.513 E84.19007
G1 X238.373 Y84.224 E84.34819
G1 X239.758 Y87.810 E84.50801
G1 X241.638 Y91.111 E84.66595
G1 X244.090 Y94.232 E84.83096
G1 X245.628 Y95.990 E84.92807
G1 X243.631 Y100.391 E85.12900
G1 X181.523 Y100.391 E87.71115
G1 X164.817 Y71.453 E89.10035
G1 X164.816 Y71.454 E89.10041
G1 X162.849 Y68.067 E89.26324
G1 X178.970 Y58.757 E90.03722
G0 F12000 X178.818 Y58.269
G1 F1800 X201.325 Y45.275 E91.11770
G1 X201.325 Y45.276 E91.11774
G1 X205.164 Y43.042 E91.30240
G1 X210.691 Y52.615 E91.76197
G1 X243.875 Y52.615 E93.14160
G1 X246.200 Y57.399 E93.36275
G1 X242.063 Y62.665 E93.64116
G1 X240.219 Y65.896 E93.79583
G1 X238.867 Y69.378 E93.95112
G1 X238.045 Y73.009 E94.10590
G1 X237.763 Y76.763 E94.26241
G1 X238.035 Y80.435 E94.41550
G1 X238.852 Y84.076 E94.57064
G1 X240.210 Y87.593 E94.72738
G1 X242.058 Y90.835 E94.88252
G1 X244.470 Y93.908 E95.04494
G1 X246.217 Y95.903 E95.15519
G1 X243.954 Y100.891 E95.38291
G1 X181.235 Y100.891 E97.99046
G1 X164.385 Y71.705 E99.39158
G1 X164.384 Y71.705 E99.39162
G1 X162.165 Y67.884 E99.57533
G1 X178.721 Y58.324 E100.37016
G1 X178.818 Y58.269 E100.37479
G0 F12000 X178.636 Y57.796
G1 F1800 X201.075 Y44.842 E101.45199
G1 X205.346 Y42.358 E101.65741
G1 X210.979 Y52.115 E102.12581
G1 X244.188 Y52.115 E103.50648
G1 X246.787 Y57.462 E103.75365
G1 X242.482 Y62.941 E104.04334
G1 X240.670 Y66.117 E104.19537
G1 X239.347 Y69.521 E104.34720
G1 X238.541 Y73.084 E104.49908
G1 X238.265 Y76.764 E104.65250
G1 X238.531 Y80.362 E104.80250
G1 X239.333 Y83.934 E104.95470
G1 X240.663 Y87.380 E105.10827
G1 X242.469 Y90.548 E105.25988
G1 X244.861 Y93.594 E105.42090
G1 X246.805 Y95.817 E105.54367
G1 X244.276 Y101.391 E105.79815
G1 X180.946 Y101.391 E108.43111
G1 X163.946 Y71.946 E109.84467
G1 X161.481 Y67.702 E110.04871
G1 X178.472 Y57.890 E110.86445
G1 X178.636 Y57.796 E110.87230
G0 F12000 X178.221 Y59.768
G1 F1800 X178.221 Y59.767 E110.87235
G1 X201.825 Y46.141 E112.00546
G1 X201.825 Y46.142 E112.00551
G1 X204.799 Y44.411 E112.14857
G1 X210.113 Y53.615 E112.59043
G1 X243.249 Y53.615 E113.96806
G1 X245.027 Y57.274 E114.13719
G1 X241.236 Y62.097 E114.39224
G1 X239.309 Y65.475 E114.55392
G1 X237.910 Y69.077 E114.71458
G1 X237.053 Y72.862 E114.87592
G1 X236.760 Y76.762 E115.03852
G1 X237.043 Y80.586 E115.19794
G1 X237.892 Y84.365 E115.35897
G1 X239.305 Y88.024 E115.52204
G1 X241.224 Y91.394 E115.68327
G1 X243.701 Y94.547 E115.84997
G1 X245.040 Y96.077 E115.93450
G1 X243.309 Y99.891 E116.10864
G1 X181.812 Y99.891 E118.66539
G1 X165.245 Y71.195 E120.04298
G1 X163.533 Y68.249 E120.18464
G1 X178.221 Y59.768 E120.88978
G0 F12000 X212.862 Y69.843
G1 F1800 X212.787 Y70.403 E120.91327
G1 X212.862 Y70.962 E120.93672
G1 X213.078 Y71.485 E120.96024
G1 X213.420 Y71.931 E120.98361
G1 X213.866 Y72.274 E121.00700
G1 X214.389 Y72.490 E121.03053
G1 X214.966 Y72.566 E121.05472
G1 X218.693 Y72.566 E121.20968
G1 X218.748 Y72.565 E121.21196
G1 X219.318 Y72.490 E121.23586
G1 X219.841 Y72.274 E121.25939
G1 X220.287 Y71.931 E121.28278
G1 X220.629 Y71.485 E121.30615
G1 X220.845 Y70.962 E121.32967
G1 X220.919 Y70.403 E121.35312
G1 X220.845 Y69.843 E121.37660
G1 X220.629 Y69.320 E121.40013
G1 X220.287 Y68.875 E121.42346
G1 X219.841 Y68.532 E121.44685
G1 X219.318 Y68.316 E121.47038
G1 X218.740 Y68.240 E121.49461
G1 X215.013 Y68.240 E121.64957
G1 X214.958 Y68.241 E121.65185
G1 X214.389 Y68.316 E121.67571
G1 X213.866 Y68.532 E121.69924
G1 X213.420 Y68.875 E121.72263
G1 X213.078 Y69.320 E121.74596
G1 X212.862 Y69.843 E121.76949
G0 F12000 X224.217 Y70.403
G1 F1800 X224.292 Y70.962 E121.79294
G1 X224.508 Y71.485 E121.81646
G1 X224.850 Y71.931 E121.83983
G1 X225.296 Y72.274 E121.86322
G1 X225.819 Y72.490 E121.88675
G1 X226.396 Y72.566 E121.91094
G1 X230.123 Y72.566 E122.06589
G1 X230.178 Y72.565 E122.06818
G1 X230.748 Y72.490 E122.09208
G1 X231.271 Y72.274 E122.11561
G1 X231.717 Y71.931 E122.13900
G1 X232.059 Y71.485 E122.16237
G1 X232.275 Y70.962 E122.18589
G1 X232.349 Y70.403 E122.20933
G1 X232.275 Y69.843 E122.23282
G1 X232.059 Y69.320 E122.25634
G1 X231.717 Y68.875 E122.27968
G1 X231.271 Y68.532 E122.30307
G1 X230.748 Y68.316 E122.32660
G1 X230.170 Y68.240 E122.35083
G1 X226.443 Y68.240 E122.50578
G1 X226.388 Y68.241 E122.50807
G1 X225.819 Y68.316 E122.53193
G1 X225.296 Y68.532 E122.55546
G1 X224.850 Y68.875 E122.57885
G1 X224.508 Y69.320 E122.60218
G1 X224.292 Y69.843 E122.62571
G1 X224.217 Y70.403 E122.64920
G0 F12000 X226.443 Y80.940
G1 F1800 X226.388 Y80.941 E122.65148
G1 X225.819 Y81.016 E122.67535
G1 X225.296 Y81.232 E122.69887
G1 X224.850 Y81.575 E122.72226
G1 X224.508 Y82.020 E122.74560
G1 X224.292 Y82.543 E122.76912
G1 X224.217 Y83.103 E122.79261
G1 X224.292 Y83.662 E122.81606
G1 X224.508 Y84.185 E122.83959
G1 X224.850 Y84.631 E122.86295
G1 X225.296 Y84.974 E122.88634
G1 X225.819 Y85.190 E122.90987
G1 X226.396 Y85.266 E122.93406
G1 X230.123 Y85.266 E123.08902
G1 X230.178 Y85.265 E123.09130
G1 X230.748 Y85.190 E123.11520
G1 X231.271 Y84.974 E123.13873
G1 X231.717 Y84.631 E123.16212
G1 X232.059 Y84.185 E123.18549
G1 X232.275 Y83.662 E123.20901
G1 X232.349 Y83.103 E123.23246
G1 X232.275 Y82.543 E123.25594
G1 X232.059 Y82.020 E123.27947
G1 X231.717 Y81.575 E123.30280
G1 X231.271 Y81.232 E123.32619
G1 X230.748 Y81.016 E123.34972
G1 X230.170 Y80.940 E123.37395
G1 X226.443 Y80.940 E123.52891
G0 F12000 X220.845 Y82.543
G1 F1800 X220.629 Y82.020 E123.55243
G1 X220.287 Y81.575 E123.57576
G1 X219.841 Y81.232 E123.59916
G1 X219.318 Y81.016 E123.62268
G1 X218.740 Y80.940 E123.64692
G1 X215.013 Y80.940 E123.80187
G1 X214.958 Y80.941 E123.80416
G1 X214.389 Y81.016 E123.82802
G1 X213.866 Y81.232 E123.85154
G1 X213.420 Y81.575 E123.87493
G1 X213.078 Y82.020 E123.89827
G1 X212.862 Y82.543 E123.92179
G1 X212.787 Y83.103 E123.94528
G1 X212.862 Y83.662 E123.96873
G1 X213.078 Y84.185 E123.99226
G1 X213.420 Y84.631 E124.01562
G1 X213.866 Y84.974 E124.03902
G1 X214.389 Y85.190 E124.06254
G1 X214.966 Y85.266 E124.08674
G1 X218.693 Y85.266 E124.24169
G1 X218.748 Y85.265 E124.24397
G1 X219.318 Y85.190 E124.26788
G1 X219.841 Y84.974 E124.29140
G1 X220.287 Y84.631 E124.31479
G1 X220.629 Y84.185 E124.33816
G1 X220.845 Y83.662 E124.36169
G1 X220.919 Y83.103 E124.38513
G1 X220.845 Y82.543 E124.40861
G0 F12000 X221.820 Y82.282
;TYPE:WALL-INNER
G1 F1800 X221.503 Y81.518 E124.44300
G1 X221.000 Y80.862 E124.47737
G1 X220.343 Y80.358 E124.51180
G1 X219.579 Y80.041 E124.54619
G1 X218.807 Y79.940 E124.57856
G1 X215.004 Y79.940 E124.73667
G1 X214.884 Y79.942 E124.74166
G1 X214.128 Y80.041 E124.77335
G1 X213.364 Y80.358 E124.80774
G1 X212.707 Y80.862 E124.84217
G1 X212.204 Y81.518 E124.87654
G1 X211.887 Y82.282 E124.91093
G1 X211.778 Y83.103 E124.94536
G1 X211.887 Y83.923 E124.97975
G1 X212.204 Y84.687 E125.01414
G1 X212.707 Y85.344 E125.04854
G1 X213.364 Y85.848 E125.08297
G1 X214.128 Y86.165 E125.11736
G1 X214.899 Y86.266 E125.14969
G1 X218.702 Y86.266 E125.30780
G1 X218.821 Y86.264 E125.31274
G1 X219.579 Y86.165 E125.34453
G1 X220.343 Y85.848 E125.37891
G1 X221.000 Y85.344 E125.41334
G1 X221.503 Y84.687 E125.44774
G1 X221.820 Y83.923 E125.48213
G1 X221.927 Y83.103 E125.51651
G1 X221.820 Y82.282 E125.55093
G0 F12000 X223.317 Y82.282
G1 F1800 X223.208 Y83.103 E125.58537
G1 X223.317 Y83.923 E125.61976
G1 X223.634 Y84.687 E125.65415
G1 X224.137 Y85.344 E125.68855
G1 X224.794 Y85.848 E125.72297
G1 X225.558 Y86.165 E125.75736
G1 X226.329 Y86.266 E125.78969
G1 X230.132 Y86.266 E125.94780
G1 X230.251 Y86.264 E125.95275
G1 X231.009 Y86.165 E125.98453
G1 X231.773 Y85.848 E126.01892
G1 X232.430 Y85.344 E126.05335
G1 X232.933 Y84.687 E126.08775
G1 X233.250 Y83.923 E126.12214
G1 X233.357 Y83.103 E126.15652
G1 X233.250 Y82.282 E126.19094
G1 X232.933 Y81.518 E126.22533
G1 X232.430 Y80.862 E126.25970
G1 X231.773 Y80.358 E126.29412
G1 X231.009 Y80.041 E126.32851
G1 X230.237 Y79.940 E126.36088
G1 X226.434 Y79.940 E126.51899
G1 X226.314 Y79.942 E126.52398
G1 X225.558 Y80.041 E126.55568
G1 X224.794 Y80.358 E126.59007
G1 X224.137 Y80.862 E126.62450
G1 X223.634 Y81.518 E126.65886
G1 X223.317 Y82.282 E126.69325
G1 F2100 E126.29325
G0 F12000 X233.076 Y81.175
G1 F2100 E126.69325
G1 F1800 X234.054 Y85.532 E126.87890
G1 X235.649 Y89.661 E127.06293
G1 X235.696 Y89.770 E127.06787
G1 X237.848 Y93.549 E127.24867
G1 X237.914 Y93.654 E127.25382
G1 X239.671 Y95.891 E127.37208
G1 X184.121 Y95.891 E129.68158
G1 X169.005 Y69.708 E130.93853
G1 X180.668 Y62.973 E131.49847
G1 X185.632 Y71.574 E131.91134
G1 X183.243 Y72.953 E132.02602
G1 X182.564 Y73.334 E132.05839
G1 X189.999 Y86.214 E132.67669
G1 X190.177 Y86.519 E132.69137
G1 X192.614 Y87.633 E132.80277
G1 X192.713 Y87.682 E132.80737
G1 X195.218 Y88.166 E132.91344
G1 X195.328 Y88.189 E132.91811
G1 X197.873 Y88.068 E133.02404
G1 X197.983 Y88.063 E133.02862
G1 X200.509 Y87.322 E133.13806
G1 X202.809 Y85.999 E133.24838
G1 X204.667 Y84.234 E133.35492
G1 X204.745 Y84.160 E133.35939
G1 X206.121 Y82.018 E133.46524
G1 X206.181 Y81.925 E133.46984
G1 X207.007 Y79.533 E133.57505
G1 X207.047 Y79.423 E133.57991
G1 X207.312 Y76.624 E133.69680
G1 X200.137 Y64.195 E134.29346
G1 X199.703 Y63.450 E134.32931
G1 X188.665 Y69.823 E134.85921
G1 X183.701 Y61.223 E135.27205
G1 X203.340 Y49.885 E136.21484
G1 X207.536 Y57.153 E136.56375
G1 X207.807 Y57.615 E136.58602
G1 X239.672 Y57.615 E137.91081
G1 X237.906 Y59.862 E138.02963
G1 X235.690 Y63.746 E138.21554
G1 X234.073 Y67.909 E138.40122
G1 X233.086 Y72.267 E138.58699
G1 X232.754 Y76.687 E138.77127
G1 X232.753 Y76.806 E138.77622
G1 X233.076 Y81.175 E138.95836
G1 F2100 E138.55836
G0 F12000 X231.009 Y73.465
G1 F2100 E138.95836
G1 F1800 X231.773 Y73.148 E138.99274
G1 X232.430 Y72.644 E139.02717
G1 X232.933 Y71.987 E139.06157
G1 X233.250 Y71.223 E139.09596
G1 X233.357 Y70.403 E139.13034
G1 X233.250 Y69.582 E139.16476
G1 X232.933 Y68.818 E139.19915
G1 X232.430 Y68.162 E139.23352
G1 X231.773 Y67.658 E139.26795
G1 X231.009 Y67.341 E139.30234
G1 X230.237 Y67.240 E139.33471
G1 X226.434 Y67.240 E139.49282
G1 X226.314 Y67.242 E139.49781
G1 X225.558 Y67.341 E139.52950
G1 X224.794 Y67.658 E139.56389
G1 X224.137 Y68.162 E139.59832
G1 X223.634 Y68.818 E139.63269
G1 X223.317 Y69.582 E139.66708
G1 X223.208 Y70.403 E139.70151
G1 X223.317 Y71.223 E139.73590
G1 X223.634 Y71.987 E139.77029
G1 X224.137 Y72.644 E139.80469
G1 X224.794 Y73.148 E139.83912
G1 X225.558 Y73.465 E139.87351
G1 X226.329 Y73.566 E139.90584
G1 X230.132 Y73.566 E140.06395
G1 X230.251 Y73.564 E140.06889
G1 X231.009 Y73.465 E140.10068
G1 F2100 E139.70068
G0 F12000 X221.820 Y71.223
G1 F2100 E140.10068
G1 F1800 X221.927 Y70.403 E140.13506
G1 X221.820 Y69.582 E140.16948
G1 X221.503 Y68.818 E140.20387
G1 X221.000 Y68.162 E140.23823
G1 X220.343 Y67.658 E140.27266
G1 X219.579 Y67.341 E140.30705
G1 X218.807 Y67.240 E140.33942
G1 X215.004 Y67.240 E140.49753
G1 X214.884 Y67.242 E140.50252
G1 X214.128 Y67.341 E140.53422
G1 X213.364 Y67.658 E140.56861
G1 X212.707 Y68.162 E140.60303
G1 X212.204 Y68.818 E140.63740
G1 X211.887 Y69.582 E140.67179
G1 X211.778 Y70.403 E140.70622
G1 X211.887 Y71.223 E140.74062
G1 X212.204 Y71.987 E140.77500
G1 X212.707 Y72.644 E140.80941
G1 X213.364 Y73.148 E140.84383
G1 X214.128 Y73.465 E140.87822
G1 X214.899 Y73.566 E140.91055
G1 X218.702 Y73.566 E141.06866
G1 X218.821 Y73.564 E141.07361
G1 X219.579 Y73.465 E141.10539
G1 X220.343 Y73.148 E141.13978
G1 X221.000 Y72.644 E141.17421
G1 X221.503 Y71.987 E141.20861
G1 X221.820 Y71.223 E141.24300
G0 F12000 X221.333 Y71.092
;TYPE:WALL-OUTER
G1 F1800 X221.423 Y70.403 E141.27188
G1 X221.333 Y69.713 E141.30081
G1 X221.066 Y69.070 E141.32976
G1 X220.643 Y68.519 E141.35864
G1 X220.091 Y68.095 E141.38758
G1 X219.448 Y67.828 E141.41652
G1 X218.774 Y67.740 E141.44478
G1 X215.007 Y67.740 E141.60140
G1 X214.921 Y67.741 E141.60497
G1 X214.259 Y67.828 E141.63273
G1 X213.616 Y68.095 E141.66168
G1 X213.064 Y68.519 E141.69062
G1 X212.641 Y69.070 E141.71950
G1 X212.374 Y69.713 E141.74844
G1 X212.283 Y70.403 E141.77738
G1 X212.374 Y71.092 E141.80627
G1 X212.641 Y71.735 E141.83522
G1 X213.064 Y72.287 E141.86413
G1 X213.616 Y72.711 E141.89307
G1 X214.259 Y72.978 E141.92201
G1 X214.932 Y73.066 E141.95023
G1 X218.699 Y73.066 E142.10685
G1 X218.785 Y73.065 E142.11042
G1 X219.448 Y72.978 E142.13822
G1 X220.091 Y72.711 E142.16717
G1 X220.643 Y72.287 E142.19611
G1 X221.066 Y71.735 E142.22502
G1 X221.333 Y71.092 E142.25397
G1 F2100 E141.85397
G0 F12000 X223.804 Y71.092
G1 F2100 E142.25397
G1 F1800 X224.071 Y71.735 E142.28291
G1 X224.494 Y72.287 E142.31182
G1 X225.046 Y72.711 E142.34076
G1 X225.689 Y72.978 E142.36971
G1 X226.362 Y73.066 E142.39793
G1 X230.129 Y73.066 E142.55454
G1 X230.215 Y73.065 E142.55812
G1 X230.878 Y72.978 E142.58592
G1 X231.521 Y72.711 E142.61486
G1 X232.073 Y72.287 E142.64380
G1 X232.496 Y71.735 E142.67271
G1 X232.763 Y71.092 E142.70166
G1 X232.853 Y70.403 E142.73055
G1 X232.763 Y69.713 E142.75948
G1 X232.496 Y69.070 E142.78842
G1 X232.073 Y68.519 E142.81730
G1 X231.521 Y68.095 E142.84624
G1 X230.878 Y67.828 E142.87519
G1 X230.204 Y67.740 E142.90345
G1 X226.437 Y67.740 E143.06006
G1 X226.351 Y67.741 E143.06364
G1 X225.689 Y67.828 E143.09140
G1 X225.046 Y68.095 E143.12034
G1 X224.494 Y68.519 E143.14928
G1 X224.071 Y69.070 E143.17816
G1 X223.804 Y69.713 E143.20711
G1 X223.713 Y70.403 E143.23604
G1 X223.804 Y71.092 E143.26494
G1 F2100 E142.86494
G0 F12000 X225.689 Y80.528
G1 F2100 E143.26494
G1 F1800 X225.046 Y80.795 E143.29388
G1 X224.494 Y81.219 E143.32282
G1 X224.071 Y81.770 E143.35170
G1 X223.804 Y82.413 E143.38065
G1 X223.713 Y83.103 E143.40958
G1 X223.804 Y83.792 E143.43848
G1 X224.071 Y84.435 E143.46742
G1 X224.494 Y84.987 E143.49633
G1 X225.046 Y85.411 E143.52527
G1 X225.689 Y85.678 E143.55422
G1 X226.362 Y85.766 E143.58244
G1 X230.129 Y85.766 E143.73905
G1 X230.215 Y85.765 E143.74263
G1 X230.878 Y85.678 E143.77043
G1 X231.521 Y85.411 E143.79937
G1 X232.073 Y84.987 E143.82831
G1 X232.496 Y84.435 E143.85722
G1 X232.763 Y83.792 E143.88617
G1 X232.853 Y83.103 E143.91506
G1 X232.763 Y82.413 E143.94399
G1 X232.496 Y81.770 E143.97293
G1 X232.073 Y81.219 E144.00181
G1 X231.521 Y80.795 E144.03075
G1 X230.878 Y80.528 E144.05970
G1 X230.204 Y80.440 E144.08796
G1 X226.437 Y80.440 E144.24457
G1 X226.351 Y80.441 E144.24815
G1 X225.689 Y80.528 E144.27591
G1 F2100 E143.87591
G0 F12000 X221.333 Y82.413
G1 F2100 E144.27591
G1 F1800 X221.066 Y81.770 E144.30485
G1 X220.643 Y81.219 E144.33373
G1 X220.091 Y80.795 E144.36267
G1 X219.448 Y80.528 E144.39162
G1 X218.774 Y80.440 E144.41988
G1 X215.007 Y80.440 E144.57649
G1 X214.921 Y80.441 E144.58007
G1 X214.259 Y80.528 E144.60782
G1 X213.616 Y80.795 E144.63677
G1 X213.064 Y81.219 E144.66571
G1 X212.641 Y81.770 E144.69459
G1 X212.374 Y82.413 E144.72353
G1 X212.283 Y83.103 E144.75247
G1 X212.374 Y83.792 E144.78136
G1 X212.641 Y84.435 E144.81031
G1 X213.064 Y84.987 E144.83922
G1 X213.616 Y85.411 E144.86816
G1 X214.259 Y85.678 E144.89711
G1 X214.932 Y85.766 E144.92533
G1 X218.699 Y85.766 E145.08194
G1 X218.785 Y85.765 E145.08551
G1 X219.448 Y85.678 E145.11332
G1 X220.091 Y85.411 E145.14226
G1 X220.643 Y84.987 E145.17120
G1 X221.066 Y84.435 E145.20011
G1 X221.333 Y83.792 E145.22906
G1 X221.423 Y83.103 E145.25795
G1 X221.333 Y82.413 E145.28688
G1 F2100 E144.88688
G0 F12000 X233.572 Y81.102
G1 F2100 E145.28688
G1 F1800 X234.534 Y85.387 E145.46946
G1 X236.112 Y89.472 E145.65153
G1 X238.278 Y93.293 E145.83413
G1 X238.324 Y93.367 E145.83776
G1 X240.699 Y96.391 E145.99762
G1 X183.832 Y96.391 E148.36187
G1 X168.321 Y69.525 E149.65163
G1 X180.851 Y62.290 E150.25317
G1 X186.316 Y71.757 E150.70763
G1 X183.493 Y73.386 E150.84314
G1 X183.250 Y73.523 E150.85474
G1 X190.528 Y86.130 E151.45995
G1 X192.826 Y87.179 E151.56497
G1 X192.875 Y87.204 E151.56726
G1 X195.316 Y87.676 E151.67062
G1 X195.366 Y87.686 E151.67274
G1 X197.899 Y87.566 E151.77817
G1 X200.311 Y86.859 E151.88267
G1 X202.508 Y85.596 E151.98802
G1 X204.320 Y83.872 E152.09201
G1 X204.358 Y83.837 E152.09416
G1 X205.729 Y81.704 E152.19957
G1 X206.538 Y79.360 E152.30267
G1 X206.556 Y79.311 E152.30484
G1 X206.799 Y76.736 E152.41237
G1 X199.523 Y64.131 E153.01747
G1 X188.482 Y70.506 E153.54752
G1 X183.017 Y61.040 E154.00195
G1 X203.523 Y49.202 E154.98635
G1 X207.969 Y56.902 E155.35601
G1 X208.094 Y57.115 E155.36628
G1 X240.701 Y57.115 E156.72192
G1 X238.322 Y60.142 E156.88199
G1 X236.143 Y63.961 E157.06479
G1 X234.552 Y68.056 E157.24744
G1 X233.582 Y72.341 E157.43010
G1 X233.254 Y76.710 E157.61225
G1 X233.253 Y76.791 E157.61562
G1 X233.572 Y81.102 E157.79534
G0 F12000 X232.500 Y80.696
;TYPE:SKIN
G1 F1800 X232.500 Y72.809 E158.12324
G0 F12000 X232.000 Y73.193
G1 F1800 X232.000 Y80.312 E158.41921
G0 F12000 X231.500 Y80.055
G1 F1800 X231.500 Y73.450 E158.69382
G0 F12000 X231.000 Y73.643
G1 F1800 X231.000 Y79.862 E158.95237
G0 F12000 X230.500 Y79.797
G1 F1800 X230.500 Y73.708 E159.20552
G0 F12000 X230.000 Y73.741
G1 F1800 X230.000 Y79.765 E159.45597
G0 F12000 X229.500 Y79.765
G1 F1800 X229.500 Y73.741 E159.70642
G0 F12000 X229.000 Y73.741
G1 F1800 X229.000 Y79.765 E159.95687
G0 F12000 X228.500 Y79.765
G1 F1800 X228.500 Y73.741 E160.20732
G0 F12000 X228.000 Y73.741
G1 F1800 X228.000 Y79.765 E160.45777
G0 F12000 X227.500 Y79.765
G1 F1800 X227.500 Y73.741 E160.70822
G0 F12000 X227.000 Y73.741
G1 F1800 X227.000 Y79.765 E160.95867
G0 F12000 X226.500 Y79.765
G1 F1800 X226.500 Y73.741 E161.20912
G0 F12000 X226.000 Y73.700
G1 F1800 X226.000 Y79.807 E161.46302
G0 F12000 X225.500 Y79.876
G1 F1800 X225.500 Y73.631 E161.72265
G0 F12000 X225.000 Y73.423
G1 F1800 X225.000 Y80.084 E161.99958
G0 F12000 X224.500 Y80.365
G1 F1800 X224.500 Y73.142 E162.29988
G0 F12000 X224.000 Y72.752
G1 F1800 X224.000 Y80.755 E162.63261
G0 F12000 X223.500 Y81.406
G1 F1800 X223.500 Y72.100 E163.01951
G1 F2100 E162.61951
G0 F12000 X222.000 Y71.199
G1 F2100 E163.01951
G1 F1800 X222.000 Y82.305 E163.48124
G0 F12000 X221.500 Y81.227
G1 F1800 X221.500 Y72.277 E163.85334
G0 F12000 X221.000 Y72.863
G1 F1800 X221.000 Y80.642 E164.17675
G0 F12000 X220.500 Y80.259
G1 F1800 X220.500 Y73.246 E164.46832
G0 F12000 X220.000 Y73.479
G1 F1800 X220.000 Y80.026 E164.74051
G1 F2100 E164.34051
G0 F12000 X222.000 Y83.899
G1 F2100 E164.74051
G1 F1800 X222.000 Y95.716 E165.23180
G0 F12000 X221.500 Y95.716
G1 F1800 X221.500 Y84.977 E165.67828
G0 F12000 X221.000 Y85.563
G1 F1800 X221.000 Y95.716 E166.10039
G0 F12000 X220.500 Y95.716
G1 F1800 X220.500 Y85.946 E166.50658
G0 F12000 X220.000 Y86.179
G1 F1800 X220.000 Y95.716 E166.90308
G1 F2100 E166.50308
G0 F12000 X222.500 Y95.716
G1 F2100 E166.90308
G1 F1800 X222.500 Y57.790 E168.47986
G0 F12000 X222.000 Y57.790
G1 F1800 X222.000 Y69.605 E168.97107
G0 F12000 X221.500 Y68.527
G1 F1800 X221.500 Y57.790 E169.41747
G0 F12000 X221.000 Y57.790
G1 F1800 X221.000 Y67.942 E169.83954
G0 F12000 X220.500 Y67.559
G1 F1800 X220.500 Y57.790 E170.24569
G0 F12000 X220.000 Y57.790
G1 F1800 X220.000 Y67.326 E170.64215
G1 F2100 E170.24215
G0 F12000 X223.500 Y68.706
G1 F2100 E170.64215
G1 F1800 X223.500 Y57.790 E171.09598
G0 F12000 X223.000 Y57.790
G1 F1800 X223.000 Y95.716 E172.67276
G0 F12000 X223.500 Y95.716
G1 F1800 X223.500 Y84.800 E173.12660
G0 F12000 X224.000 Y85.452
G1 F1800 X224.000 Y95.716 E173.55332
G0 F12000 X224.500 Y95.716
G1 F1800 X224.500 Y85.842 E173.96384
G0 F12000 X225.000 Y86.123
G1 F1800 X225.000 Y95.716 E174.36267
G0 F12000 X225.500 Y95.716
G1 F1800 X225.500 Y86.331 E174.75285
G0 F12000 X226.000 Y86.400
G1 F1800 X226.000 Y95.716 E175.14016
G0 F12000 X226.500 Y95.716
G1 F1800 X226.500 Y86.441 E175.52577
G0 F12000 X227.000 Y86.441
G1 F1800 X227.000 Y95.716 E175.91138
G0 F12000 X227.500 Y95.716
G1 F1800 X227.500 Y86.441 E176.29699
G0 F12000 X228.000 Y86.441
G1 F1800 X228.000 Y95.716 E176.68260
G0 F12000 X228.500 Y95.716
G1 F1800 X228.500 Y86.441 E177.06821
G0 F12000 X229.000 Y86.441
G1 F1800 X229.000 Y95.716 E177.45382
G0 F12000 X229.500 Y95.716
G1 F1800 X229.500 Y86.441 E177.83943
G0 F12000 X230.000 Y86.441
G1 F1800 X230.000 Y95.716 E178.22504
G0 F12000 X230.500 Y95.716
G1 F1800 X230.500 Y86.408 E178.61202
G0 F12000 X231.000 Y86.343
G1 F1800 X231.000 Y95.716 E179.00171
G0 F12000 X231.500 Y95.716
G1 F1800 X231.500 Y86.150 E179.39942
G0 F12000 X232.000 Y85.893
G1 F1800 X232.000 Y95.716 E179.80781
G0 F12000 X232.500 Y95.716
G1 F1800 X232.500 Y85.509 E180.23217
G0 F12000 X233.000 Y84.886
G1 F1800 X233.000 Y95.716 E180.68243
G0 F12000 X233.500 Y95.716
G1 F1800 X233.500 Y83.983 E181.17023
G1 F2100 E180.77023
G0 F12000 X234.000 Y85.879
G1 F2100 E181.17023
G1 F1800 X234.000 Y95.716 E181.57920
G0 F12000 X234.500 Y95.716
G1 F1800 X234.500 Y87.173 E181.93438
G0 F12000 X235.000 Y88.466
G1 F1800 X235.000 Y95.716 E182.23580
G0 F12000 X235.500 Y95.716
G1 F1800 X235.500 Y89.757 E182.48355
G0 F12000 X236.000 Y90.659
G1 F1800 X236.000 Y95.716 E182.69379
G0 F12000 X236.500 Y95.716
G1 F1800 X236.500 Y91.537 E182.86753
G0 F12000 X237.000 Y92.415
G1 F1800 X237.000 Y95.716 E183.00477
G0 F12000 X237.500 Y95.716
G1 F1800 X237.500 Y93.293 E183.10551
G0 F12000 X238.000 Y94.047
G1 F1800 X238.000 Y95.716 E183.17490
G0 F12000 X238.500 Y95.716
G1 F1800 X238.500 Y94.684 E183.21780
G0 F12000 X239.000 Y95.321
G1 F1800 X239.000 Y95.716 E183.23423
G1 F2100 E182.83423
G0 F12000 X219.500 Y95.716
G1 F2100 E183.23423
G1 F1800 X219.500 Y86.352 E183.62354
G0 F12000 X219.000 Y86.417
G1 F1800 X219.000 Y95.716 E184.01014
G0 F12000 X218.500 Y95.716
G1 F1800 X218.500 Y86.441 E184.39575
G0 F12000 X218.000 Y86.441
G1 F1800 X218.000 Y95.716 E184.78136
G0 F12000 X217.500 Y95.716
G1 F1800 X217.500 Y86.441 E185.16697
G0 F12000 X217.000 Y86.441
G1 F1800 X217.000 Y95.716 E185.55258
G0 F12000 X216.500 Y95.716
G1 F1800 X216.500 Y86.441 E185.93819
G0 F12000 X216.000 Y86.441
G1 F1800 X216.000 Y95.716 E186.32380
G0 F12000 X215.500 Y95.716
G1 F1800 X215.500 Y86.441 E186.70941
G0 F12000 X215.000 Y86.441
G1 F1800 X215.000 Y95.716 E187.09502
G0 F12000 X214.500 Y95.716
G1 F1800 X214.500 Y86.391 E187.48271
G0 F12000 X214.000 Y86.302
G1 F1800 X214.000 Y95.716 E187.87410
G0 F12000 X213.500 Y95.716
G1 F1800 X213.500 Y86.094 E188.27413
G0 F12000 X213.000 Y85.788
G1 F1800 X213.000 Y95.716 E188.68689
G0 F12000 X212.500 Y95.716
G1 F1800 X212.500 Y85.360 E189.11745
G0 F12000 X212.000 Y84.653
G1 F1800 X212.000 Y95.716 E189.57739
G0 F12000 X211.500 Y95.716
G1 F1800 X211.500 Y57.790 E191.15417
G0 F12000 X211.000 Y57.790
G1 F1800 X211.000 Y95.716 E192.73095
G0 F12000 X210.500 Y95.716
G1 F1800 X210.500 Y57.790 E194.30773
G0 F12000 X210.000 Y57.790
G1 F1800 X210.000 Y95.716 E195.88451
G0 F12000 X209.500 Y95.716
G1 F1800 X209.500 Y57.790 E197.46129
G0 F12000 X209.000 Y57.790
G1 F1800 X209.000 Y95.716 E199.03807
G0 F12000 X208.500 Y95.716
G1 F1800 X208.500 Y57.790 E200.61485
G0 F12000 X208.000 Y57.790
G1 F1800 X208.000 Y95.716 E202.19163
G0 F12000 X207.500 Y95.716
G1 F1800 X207.500 Y57.431 E203.78334
G0 F12000 X207.000 Y56.566
G1 F1800 X207.000 Y75.734 E204.58025
G0 F12000 X206.500 Y74.869
G1 F1800 X206.500 Y55.702 E205.37712
G0 F12000 X206.000 Y54.837
G1 F1800 X206.000 Y74.003 E206.17395
G0 F12000 X205.500 Y73.137
G1 F1800 X205.500 Y53.973 E206.97070
G0 F12000 X205.000 Y53.108
G1 F1800 X205.000 Y72.271 E207.76740
G0 F12000 X204.500 Y71.406
G1 F1800 X204.500 Y52.244 E208.56406
G0 F12000 X204.000 Y51.379
G1 F1800 X204.000 Y70.540 E209.36069
G0 F12000 X203.500 Y69.674
G1 F1800 X203.500 Y50.515 E210.15722
G0 F12000 X203.000 Y50.283
G1 F1800 X203.000 Y68.808 E210.92740
G0 F12000 X202.500 Y67.943
G1 F1800 X202.500 Y50.572 E211.64961
G0 F12000 X202.000 Y50.861
G1 F1800 X202.000 Y67.077 E212.32379
G0 F12000 X201.500 Y66.211
G1 F1800 X201.500 Y51.149 E212.95000
G0 F12000 X201.000 Y51.438
G1 F1800 X201.000 Y65.345 E213.52818
G0 F12000 X200.500 Y64.480
G1 F1800 X200.500 Y51.727 E214.05839
G0 F12000 X200.000 Y52.015
G1 F1800 X200.000 Y63.614 E214.54062
G1 F2100 E214.14062
G0 F12000 X212.000 Y68.853
G1 F2100 E214.54062
G1 F1800 X212.000 Y57.790 E215.00057
G0 F12000 X212.500 Y57.790
G1 F1800 X212.500 Y68.147 E215.43116
G0 F12000 X213.000 Y67.719
G1 F1800 X213.000 Y57.790 E215.84396
G0 F12000 X213.500 Y57.790
G1 F1800 X213.500 Y67.413 E216.24404
G0 F12000 X214.000 Y67.205
G1 F1800 X214.000 Y57.790 E216.63547
G0 F12000 X214.500 Y57.790
G1 F1800 X214.500 Y67.116 E217.02320
G0 F12000 X215.000 Y67.066
G1 F1800 X215.000 Y57.790 E217.40885
G0 F12000 X215.500 Y57.790
G1 F1800 X215.500 Y67.065 E217.79446
G0 F12000 X216.000 Y67.065
G1 F1800 X216.000 Y57.790 E218.18007
G0 F12000 X216.500 Y57.790
G1 F1800 X216.500 Y67.065 E218.56568
G0 F12000 X217.000 Y67.065
G1 F1800 X217.000 Y57.790 E218.95129
G0 F12000 X217.500 Y57.790
G1 F1800 X217.500 Y67.065 E219.33690
G0 F12000 X218.000 Y67.065
G1 F1800 X218.000 Y57.790 E219.72251
G0 F12000 X218.500 Y57.790
G1 F1800 X218.500 Y67.065 E220.10812
G0 F12000 X219.000 Y67.088
G1 F1800 X219.000 Y57.790 E220.49468
G0 F12000 X219.500 Y57.790
G1 F1800 X219.500 Y67.153 E220.88395
G1 F2100 E220.48395
G0 F12000 X219.500 Y73.652
G1 F2100 E220.88395
G1 F1800 X219.500 Y79.853 E221.14176
G0 F12000 X219.000 Y79.788
G1 F1800 X219.000 Y73.717 E221.39416
G0 F12000 X218.500 Y73.741
G1 F1800 X218.500 Y79.765 E221.64461
G0 F12000 X218.000 Y79.765
G1 F1800 X218.000 Y73.741 E221.89506
G0 F12000 X217.500 Y73.741
G1 F1800 X217.500 Y79.765 E222.14551
G0 F12000 X217.000 Y79.765
G1 F1800 X217.000 Y73.741 E222.39596
G0 F12000 X216.500 Y73.741
G1 F1800 X216.500 Y79.765 E222.64641
G0 F12000 X216.000 Y79.765
G1 F1800 X216.000 Y73.741 E222.89685
G0 F12000 X215.500 Y73.741
G1 F1800 X215.500 Y79.765 E223.14730
G0 F12000 X215.000 Y79.766
G1 F1800 X215.000 Y73.741 E223.39779
G0 F12000 X214.500 Y73.691
G1 F1800 X214.500 Y79.816 E223.65244
G0 F12000 X214.000 Y79.905
G1 F1800 X214.000 Y73.602 E223.91449
G0 F12000 X213.500 Y73.394
G1 F1800 X213.500 Y80.113 E224.19383
G0 F12000 X213.000 Y80.419
G1 F1800 X213.000 Y73.088 E224.49862
G0 F12000 X212.500 Y72.660
G1 F1800 X212.500 Y80.847 E224.83900
G0 F12000 X212.000 Y81.553
G1 F1800 X212.000 Y71.953 E225.23812
G1 F2100 E224.83812
G0 F12000 X207.000 Y80.088
G1 F2100 E225.23812
G1 F1800 X207.000 Y95.716 E225.88786
G0 F12000 X206.500 Y95.716
G1 F1800 X206.500 Y81.537 E226.47735
G0 F12000 X206.000 Y82.529
G1 F1800 X206.000 Y95.716 E227.02560
G0 F12000 X205.500 Y95.716
G1 F1800 X205.500 Y83.307 E227.54151
G0 F12000 X205.000 Y84.085
G1 F1800 X205.000 Y95.716 E228.02507
G0 F12000 X204.500 Y95.716
G1 F1800 X204.500 Y84.633 E228.48585
G0 F12000 X204.000 Y85.108
G1 F1800 X204.000 Y95.716 E228.92688
G0 F12000 X203.500 Y95.716
G1 F1800 X203.500 Y85.583 E229.34816
G0 F12000 X203.000 Y86.059
G1 F1800 X203.000 Y95.716 E229.74965
G0 F12000 X202.500 Y95.716
G1 F1800 X202.500 Y86.379 E230.13784
G0 F12000 X202.000 Y86.666
G1 F1800 X202.000 Y95.716 E230.51409
G0 F12000 X201.500 Y95.716
G1 F1800 X201.500 Y86.954 E230.87837
G0 F12000 X201.000 Y87.241
G1 F1800 X201.000 Y95.716 E231.23072
G0 F12000 X200.500 Y95.716
G1 F1800 X200.500 Y87.507 E231.57201
G0 F12000 X200.000 Y87.653
G1 F1800 X200.000 Y95.716 E231.90723
G0 F12000 X199.500 Y95.716
G1 F1800 X199.500 Y87.800 E232.23634
G0 F12000 X199.000 Y87.946
G1 F1800 X199.000 Y95.716 E232.55938
G0 F12000 X198.500 Y95.716
G1 F1800 X198.500 Y88.093 E232.87631
G0 F12000 X198.000 Y88.236
G1 F1800 X198.000 Y95.716 E233.18729
G0 F12000 X197.500 Y95.716
G1 F1800 X197.500 Y88.260 E233.49728
G0 F12000 X197.000 Y88.284
G1 F1800 X197.000 Y95.716 E233.80626
G0 F12000 X196.500 Y95.716
G1 F1800 X196.500 Y88.308 E234.11425
G0 F12000 X196.000 Y88.332
G1 F1800 X196.000 Y95.716 E234.42124
G0 F12000 X195.500 Y95.716
G1 F1800 X195.500 Y88.356 E234.72723
G0 F12000 X195.000 Y88.302
G1 F1800 X195.000 Y95.716 E235.03547
G0 F12000 X194.500 Y95.716
G1 F1800 X194.500 Y88.205 E235.34774
G0 F12000 X194.000 Y88.109
G1 F1800 X194.000 Y95.716 E235.66401
G0 F12000 X193.500 Y95.716
G1 F1800 X193.500 Y88.013 E235.98426
G0 F12000 X193.000 Y87.916
G1 F1800 X193.000 Y95.716 E236.30855
G0 F12000 X192.500 Y95.716
G1 F1800 X192.500 Y87.774 E236.63874
G0 F12000 X192.000 Y87.545
G1 F1800 X192.000 Y95.716 E236.97845
G0 F12000 X191.500 Y95.716
G1 F1800 X191.500 Y87.316 E237.32768
G0 F12000 X191.000 Y87.088
G1 F1800 X191.000 Y95.716 E237.68639
G0 F12000 X190.500 Y95.716
G1 F1800 X190.500 Y86.859 E238.05462
G0 F12000 X190.000 Y86.562
G1 F1800 X190.000 Y95.716 E238.43520
G0 F12000 X189.500 Y95.716
G1 F1800 X189.500 Y85.696 E238.85178
G0 F12000 X189.000 Y84.830
G1 F1800 X189.000 Y95.716 E239.30437
G0 F12000 X188.500 Y95.716
G1 F1800 X188.500 Y83.964 E239.79296
G0 F12000 X188.000 Y83.098
G1 F1800 X188.000 Y95.716 E240.31756
G0 F12000 X187.500 Y95.716
G1 F1800 X187.500 Y82.232 E240.87816
G0 F12000 X187.000 Y81.367
G1 F1800 X187.000 Y95.716 E241.47472
G0 F12000 X186.500 Y95.716
G1 F1800 X186.500 Y80.501 E242.10728
G0 F12000 X186.000 Y79.635
G1 F1800 X186.000 Y95.716 E242.77585
G0 F12000 X185.500 Y95.716
G1 F1800 X185.500 Y78.769 E243.48043
G0 F12000 X185.000 Y77.903
G1 F1800 X185.000 Y95.716 E244.22101
G0 F12000 X184.500 Y95.716
G1 F1800 X184.500 Y77.037 E244.99759
G0 F12000 X184.000 Y76.171
G1 F1800 X184.000 Y95.329 E245.79409
G0 F12000 X183.500 Y94.463
G1 F1800 X183.500 Y75.305 E246.59058
G0 F12000 X183.000 Y74.439
G1 F1800 X183.000 Y93.597 E247.38708
G0 F12000 X182.500 Y92.731
G1 F1800 X182.500 Y73.573 E248.18358
G0 F12000 X182.500 Y73.170
G1 F1800 X182.500 Y66.499 E248.46093
G0 F12000 X182.000 Y65.633
G1 F1800 X182.000 Y91.865 E249.55153
G0 F12000 X181.500 Y90.999
G1 F1800 X181.500 Y64.767 E250.64213
G0 F12000 X181.000 Y63.900
G1 F1800 X181.000 Y90.133 E251.73277
G0 F12000 X180.500 Y89.267
G1 F1800 X180.500 Y63.271 E252.81356
G0 F12000 X180.000 Y63.560
G1 F1800 X180.000 Y88.401 E253.84632
G0 F12000 X179.500 Y87.535
G1 F1800 X179.500 Y63.849 E254.83107
G0 F12000 X179.000 Y64.137
G1 F1800 X179.000 Y86.669 E255.76785
G0 F12000 X178.500 Y85.802
G1 F1800 X178.500 Y64.426 E256.65656
G0 F12000 X178.000 Y64.715
G1 F1800 X178.000 Y84.936 E257.49725
G0 F12000 X177.500 Y84.070
G1 F1800 X177.500 Y65.004 E258.28992
G0 F12000 X177.000 Y65.292
G1 F1800 X177.000 Y83.204 E259.03461
G0 F12000 X176.500 Y82.338
G1 F1800 X176.500 Y65.581 E259.73129
G0 F12000 X176.000 Y65.870
G1 F1800 X176.000 Y81.472 E260.37995
G0 F12000 X175.500 Y80.606
G1 F1800 X175.500 Y66.159 E260.98058
G0 F12000 X175.000 Y66.448
G1 F1800 X175.000 Y79.740 E261.53320
G0 F12000 X174.500 Y78.874
G1 F1800 X174.500 Y66.736 E262.03784
G0 F12000 X174.000 Y67.025
G1 F1800 X174.000 Y78.008 E262.49446
G0 F12000 X173.500 Y77.142
G1 F1800 X173.500 Y67.314 E262.90306
G0 F12000 X173.000 Y67.603
G1 F1800 X173.000 Y76.276 E263.26364
G0 F12000 X172.500 Y75.410
G1 F1800 X172.500 Y67.892 E263.57620
G0 F12000 X172.000 Y68.180
G1 F1800 X172.000 Y74.544 E263.84079
G0 F12000 X171.500 Y73.677
G1 F1800 X171.500 Y68.469 E264.05731
G0 F12000 X171.000 Y68.758
G1 F1800 X171.000 Y72.811 E264.22581
G0 F12000 X170.500 Y71.945
G1 F1800 X170.500 Y69.047 E264.34630
G0 F12000 X170.000 Y69.335
G1 F1800 X170.000 Y71.079 E264.41881
G0 F12000 X169.500 Y70.213
G1 F1800 X169.500 Y69.624 E264.44329
G1 F2100 E264.04329
G0 F12000 X183.000 Y67.365
G1 F2100 E264.44329
G1 F1800 X183.000 Y72.890 E264.67300
G0 F12000 X183.500 Y72.602
G1 F1800 X183.500 Y68.232 E264.85468
G0 F12000 X184.000 Y69.098
G1 F1800 X184.000 Y72.313 E264.98835
G0 F12000 X184.500 Y72.025
G1 F1800 X184.500 Y69.964 E265.07403
G0 F12000 X185.000 Y70.830
G1 F1800 X185.000 Y71.736 E265.11170
G1 F2100 E264.71170
G0 F12000 X188.500 Y69.184
G1 F2100 E265.11170
G1 F1800 X188.500 Y58.655 E265.54944
G0 F12000 X189.000 Y58.367
G1 F1800 X189.000 Y69.428 E266.00931
G0 F12000 X189.500 Y69.139
G1 F1800 X189.500 Y58.078 E266.46917
G0 F12000 X190.000 Y57.789
G1 F1800 X190.000 Y68.850 E266.92903
G0 F12000 X190.500 Y68.562
G1 F1800 X190.500 Y57.500 E267.38894
G0 F12000 X191.000 Y57.212
G1 F1800 X191.000 Y68.273 E267.84880
G0 F12000 X191.500 Y67.984
G1 F1800 X191.500 Y56.923 E268.30866
G0 F12000 X192.000 Y56.634
G1 F1800 X192.000 Y67.696 E268.76857
G0 F12000 X192.500 Y67.407
G1 F1800 X192.500 Y56.346 E269.22843
G0 F12000 X193.000 Y56.057
G1 F1800 X193.000 Y67.118 E269.68829
G0 F12000 X193.500 Y66.830
G1 F1800 X193.500 Y55.768 E270.14820
G0 F12000 X194.000 Y55.480
G1 F1800 X194.000 Y66.541 E270.60806
G0 F12000 X194.500 Y66.252
G1 F1800 X194.500 Y55.191 E271.06792
G0 F12000 X195.000 Y54.902
G1 F1800 X195.000 Y65.964 E271.52783
G0 F12000 X195.500 Y65.675
G1 F1800 X195.500 Y54.614 E271.98769
G0 F12000 X196.000 Y54.325
G1 F1800 X196.000 Y65.386 E272.44755
G0 F12000 X196.500 Y65.098
G1 F1800 X196.500 Y54.036 E272.90746
G0 F12000 X197.000 Y53.748
G1 F1800 X197.000 Y64.809 E273.36732
G0 F12000 X197.500 Y64.520
G1 F1800 X197.500 Y53.459 E273.82718
G0 F12000 X198.000 Y53.170
G1 F1800 X198.000 Y64.232 E274.28709
G0 F12000 X198.500 Y63.943
G1 F1800 X198.500 Y52.881 E274.74699
G0 F12000 X199.000 Y52.593
G1 F1800 X199.000 Y63.654 E275.20686
G0 F12000 X199.500 Y63.366
G1 F1800 X199.500 Y52.304 E275.66676
G1 F2100 E275.26676
G0 F12000 X188.000 Y58.944
G1 F2100 E275.66676
G1 F1800 X188.000 Y68.318 E276.05649
G0 F12000 X187.500 Y67.452
G1 F1800 X187.500 Y59.233 E276.39819
G0 F12000 X187.000 Y59.521
G1 F1800 X187.000 Y66.586 E276.69192
G0 F12000 X186.500 Y65.720
G1 F1800 X186.500 Y59.810 E276.93763
G0 F12000 X186.000 Y60.099
G1 F1800 X186.000 Y64.854 E277.13532
G0 F12000 X185.500 Y63.988
G1 F1800 X185.500 Y60.387 E277.28503
G0 F12000 X185.000 Y60.676
G1 F1800 X185.000 Y63.122 E277.38673
G0 F12000 X184.500 Y62.256
G1 F1800 X184.500 Y60.965 E277.44040
G0 F12000 X184.000 Y61.253
G1 F1800 X184.000 Y61.390 E277.44609
G1 F2100 E277.04609
G0 F12000 X224.000 Y57.790
G1 F2100 E277.44609
G1 F1800 X224.000 Y68.055 E277.87286
G0 F12000 X224.500 Y67.665
G1 F1800 X224.500 Y57.790 E278.28342
G0 F12000 X225.000 Y57.790
G1 F1800 X225.000 Y67.384 E278.68229
G0 F12000 X225.500 Y67.176
G1 F1800 X225.500 Y57.790 E279.07252
G0 F12000 X226.000 Y57.790
G1 F1800 X226.000 Y67.107 E279.45987
G0 F12000 X226.500 Y67.065
G1 F1800 X226.500 Y57.790 E279.84548
G0 F12000 X227.000 Y57.790
G1 F1800 X227.000 Y67.065 E280.23109
G0 F12000 X227.500 Y67.065
G1 F1800 X227.500 Y57.790 E280.61670
G0 F12000 X228.000 Y57.790
G1 F1800 X228.000 Y67.065 E281.00231
G0 F12000 X228.500 Y67.065
G1 F1800 X228.500 Y57.790 E281.38792
G0 F12000 X229.000 Y57.790
G1 F1800 X229.000 Y67.065 E281.77353
G0 F12000 X229.500 Y67.065
G1 F1800 X229.500 Y57.790 E282.15914
G0 F12000 X230.000 Y57.790
G1 F1800 X230.000 Y67.065 E282.54475
G0 F12000 X230.500 Y67.097
G1 F1800 X230.500 Y57.790 E282.93169
G0 F12000 X231.000 Y57.790
G1 F1800 X231.000 Y67.162 E283.32133
G0 F12000 X231.500 Y67.355
G1 F1800 X231.500 Y57.790 E283.71900
G0 F12000 X232.000 Y57.790
G1 F1800 X232.000 Y67.612 E284.12735
G0 F12000 X232.500 Y67.996
G1 F1800 X232.500 Y57.790 E284.55167
G0 F12000 X233.000 Y57.790
G1 F1800 X233.000 Y68.619 E285.00188
G0 F12000 X233.500 Y69.525
G1 F1800 X233.500 Y57.790 E285.48977
G0 F12000 X234.000 Y57.790
G1 F1800 X234.000 Y67.614 E285.89820
G0 F12000 X234.500 Y66.327
G1 F1800 X234.500 Y57.790 E286.25313
G0 F12000 X235.000 Y57.790
G1 F1800 X235.000 Y65.039 E286.55451
G0 F12000 X235.500 Y63.752
G1 F1800 X235.500 Y57.790 E286.80238
G0 F12000 X236.000 Y57.790
G1 F1800 X236.000 Y62.849 E287.01271
G0 F12000 X236.500 Y61.973
G1 F1800 X236.500 Y57.790 E287.18662
G0 F12000 X237.000 Y57.790
G1 F1800 X237.000 Y61.097 E287.32411
G0 F12000 X237.500 Y60.220
G1 F1800 X237.500 Y57.790 E287.42513
G0 F12000 X238.000 Y57.790
G1 F1800 X238.000 Y59.459 E287.49452
G0 F12000 X238.500 Y58.823
G1 F1800 X238.500 Y57.790 E287.53747
G0 F12000 X239.000 Y57.790
G1 F1800 X239.000 Y58.186 E287.55393
;LAYER:1
M106 S10
G1 F2100 E287.15393
G0 F12000 X237.944 Y59.812 Z0.400
;TYPE:WALL-INNER
G1 F2100 E287.55393
G1 F2220 X237.877 Y59.907 E287.55877
G1 X235.704 Y63.717 E287.74112
G1 X234.086 Y67.868 E287.92635
G1 X233.095 Y72.213 E288.11163
G1 X232.756 Y76.627 E288.29568
G1 X232.755 Y76.873 E288.30591
G1 X233.068 Y81.101 E288.48217
G1 X234.033 Y85.448 E288.66730
G1 X235.611 Y89.572 E288.85088
G1 X235.710 Y89.799 E288.86117
G1 X237.793 Y93.455 E289.03611
G1 X237.928 Y93.675 E289.04684
G1 X239.669 Y95.891 E289.16400
G1 X184.121 Y95.891 E291.47342
G1 X169.005 Y69.708 E292.73037
G1 X180.668 Y62.973 E293.29030
G1 X185.633 Y71.573 E293.70316
G1 X183.291 Y72.925 E293.81559
G1 X182.568 Y73.341 E293.85027
G1 X190.175 Y86.519 E294.48287
G1 X192.587 Y87.621 E294.59312
G1 X192.724 Y87.684 E294.59939
G1 X195.175 Y88.157 E294.70317
G1 X195.326 Y88.189 E294.70959
G1 X197.835 Y88.070 E294.81402
G1 X197.983 Y88.063 E294.82018
G1 X200.387 Y87.357 E294.92435
G1 X200.530 Y87.315 E294.93054
G1 X202.701 Y86.062 E295.03476
G1 X202.829 Y85.987 E295.04093
G1 X204.748 Y84.157 E295.15117
G1 X206.101 Y82.049 E295.25531
G1 X206.182 Y81.923 E295.26154
G1 X206.999 Y79.556 E295.36564
G1 X207.048 Y79.419 E295.37169
G1 X207.312 Y76.624 E295.48841
G1 X199.706 Y63.448 E296.12093
G1 X188.665 Y69.823 E296.65098
G1 X183.700 Y61.224 E297.06380
G1 X203.340 Y49.885 E298.00665
G1 X207.804 Y57.615 E298.37777
G1 X239.671 Y57.615 E299.70264
G1 X237.944 Y59.812 E299.81882
G1 F2100 E299.41882
G0 F12000 X231.773 Y67.658
G1 F2100 E299.81882
G1 F2220 X231.009 Y67.341 E299.85321
G1 X230.237 Y67.240 E299.88558
G1 X226.554 Y67.240 E300.03870
G1 X226.294 Y67.244 E300.04951
G1 X225.558 Y67.341 E300.08038
G1 X224.794 Y67.658 E300.11477
G1 X224.137 Y68.162 E300.14919
G1 X223.634 Y68.818 E300.18356
G1 X223.317 Y69.582 E300.21795
G1 X223.208 Y70.403 E300.25238
G1 X223.317 Y71.223 E300.28677
G1 X223.634 Y71.987 E300.32116
G1 X224.137 Y72.644 E300.35557
G1 X224.794 Y73.148 E300.38999
G1 X225.558 Y73.465 E300.42438
G1 X226.329 Y73.566 E300.45671
G1 X230.012 Y73.566 E300.60983
G1 X230.272 Y73.562 E300.62064
G1 X231.009 Y73.465 E300.65155
G1 X231.773 Y73.148 E300.68594
G1 X232.430 Y72.644 E300.72036
G1 X232.933 Y71.987 E300.75476
G1 X233.250 Y71.223 E300.78915
G1 X233.357 Y70.403 E300.82353
G1 X233.250 Y69.582 E300.85795
G1 X232.933 Y68.818 E300.89234
G1 X232.430 Y68.162 E300.92671
G1 X231.773 Y67.658 E300.96114
G1 F2100 E300.56114
G0 F12000 X221.820 Y69.582
G1 F2100 E300.96114
G1 F2220 X221.503 Y68.818 E300.99553
G1 X221.000 Y68.162 E301.02989
G1 X220.343 Y67.658 E301.06432
G1 X219.579 Y67.341 E301.09871
G1 X218.807 Y67.240 E301.13108
G1 X215.124 Y67.240 E301.28420
G1 X214.864 Y67.244 E301.29501
G1 X214.128 Y67.341 E301.32588
G1 X213.364 Y67.658 E301.36026
G1 X212.707 Y68.162 E301.39469
G1 X212.204 Y68.818 E301.42906
G1 X211.887 Y69.582 E301.46345
G1 X211.778 Y70.403 E301.49788
G1 X211.887 Y71.223 E301.53227
G1 X212.204 Y71.987 E301.56666
G1 X212.707 Y72.644 E301.60106
G1 X213.364 Y73.148 E301.63549
G1 X214.128 Y73.465 E301.66988
G1 X214.899 Y73.566 E301.70221
G1 X218.582 Y73.566 E301.85533
G1 X218.842 Y73.562 E301.86614
G1 X219.579 Y73.465 E301.89704
G1 X220.343 Y73.148 E301.93143
G1 X221.000 Y72.644 E301.96586
G1 X221.503 Y71.987 E302.00026
G1 X221.820 Y71.223 E302.03465
G1 X221.927 Y70.403 E302.06903
G1 X221.820 Y69.582 E302.10345
G1 F2100 E301.70345
G0 F12000 X219.579 Y80.041
G1 F2100 E302.10345
G1 F2220 X218.807 Y79.940 E302.13582
G1 X215.124 Y79.940 E302.28894
G1 X214.864 Y79.944 E302.29975
G1 X214.128 Y80.041 E302.33062
G1 X213.364 Y80.358 E302.36501
G1 X212.707 Y80.862 E302.39943
G1 X212.204 Y81.518 E302.43380
G1 X211.887 Y82.282 E302.46819
G1 X211.778 Y83.103 E302.50262
G1 X211.887 Y83.923 E302.53701
G1 X212.204 Y84.687 E302.57140
G1 X212.707 Y85.344 E302.60580
G1 X213.364 Y85.848 E302.64023
G1 X214.128 Y86.165 E302.67462
G1 X214.899 Y86.266 E302.70695
G1 X218.582 Y86.266 E302.86007
G1 X218.842 Y86.262 E302.87088
G1 X219.579 Y86.165 E302.90178
G1 X220.343 Y85.848 E302.93617
G1 X221.000 Y85.344 E302.97060
G1 X221.503 Y84.687 E303.00500
G1 X221.820 Y83.923 E303.03939
G1 X221.927 Y83.103 E303.07377
G1 X221.820 Y82.282 E303.10819
G1 X221.503 Y81.518 E303.14258
G1 X221.000 Y80.862 E303.17695
G1 X220.343 Y80.358 E303.21138
G1 X219.579 Y80.041 E303.24577
G1 F2100 E302.84577
G0 F12000 X223.634 Y81.518
G1 F2100 E303.24577
G1 F2220 X223.317 Y82.282 E303.28015
G1 X223.208 Y83.103 E303.31459
G1 X223.317 Y83.923 E303.34898
G1 X223.634 Y84.687 E303.38337
G1 X224.137 Y85.344 E303.41777
G1 X224.794 Y85.848 E303.45219
G1 X225.558 Y86.165 E303.48658
G1 X226.329 Y86.266 E303.51891
G1 X230.012 Y86.266 E303.67203
G1 X230.272 Y86.262 E303.68284
G1 X231.009 Y86.165 E303.71375
G1 X231.773 Y85.848 E303.74814
G1 X232.430 Y85.344 E303.78256
G1 X232.933 Y84.687 E303.81697
G1 X233.250 Y83.923 E303.85136
G1 X233.357 Y83.103 E303.88574
G1 X233.250 Y82.282 E303.92016
G1 X232.933 Y81.518 E303.95455
G1 X232.430 Y80.862 E303.98891
G1 X231.773 Y80.358 E304.02334
G1 X231.009 Y80.041 E304.05773
G1 X230.237 Y79.940 E304.09010
G1 X226.554 Y79.940 E304.24322
G1 X226.294 Y79.944 E304.25403
G1 X225.558 Y80.041 E304.28490
G1 X224.794 Y80.358 E304.31928
G1 X224.137 Y80.862 E304.35371
G1 X223.634 Y81.518 E304.38808
G0 F12000 X224.071 Y81.770
;TYPE:WALL-OUTER
G1 F2220 X223.804 Y82.413 E304.41702
G1 X223.713 Y83.103 E304.44596
G1 X223.804 Y83.792 E304.47485
G1 X224.071 Y84.435 E304.50380
G1 X224.494 Y84.987 E304.53271
G1 X225.046 Y85.411 E304.56165
G1 X225.689 Y85.678 E304.59060
G1 X226.362 Y85.766 E304.61882
G1 X230.009 Y85.766 E304.77044
G1 X230.235 Y85.763 E304.77984
G1 X230.878 Y85.678 E304.80680
G1 X231.521 Y85.411 E304.83575
G1 X232.073 Y84.987 E304.86469
G1 X232.496 Y84.435 E304.89360
G1 X232.763 Y83.792 E304.92255
G1 X232.853 Y83.103 E304.95143
G1 X232.763 Y82.413 E304.98036
G1 X232.496 Y81.770 E305.00931
G1 X232.073 Y81.219 E305.03819
G1 X231.521 Y80.795 E305.06713
G1 X230.878 Y80.528 E305.09607
G1 X230.204 Y80.440 E305.12433
G1 X226.557 Y80.440 E305.27596
G1 X226.331 Y80.443 E305.28535
G1 X225.689 Y80.528 E305.31228
G1 X225.046 Y80.795 E305.34123
G1 X224.494 Y81.219 E305.37016
G1 X224.071 Y81.770 E305.39904
G1 F2100 E304.99904
G0 F12000 X221.333 Y82.413
G1 F2100 E305.39904
G1 F2220 X221.066 Y81.770 E305.42799
G1 X220.643 Y81.219 E305.45687
G1 X220.091 Y80.795 E305.48581
G1 X219.448 Y80.528 E305.51475
G1 X218.774 Y80.440 E305.54301
G1 X215.127 Y80.440 E305.69464
G1 X214.901 Y80.443 E305.70403
G1 X214.259 Y80.528 E305.73096
G1 X213.616 Y80.795 E305.75990
G1 X213.064 Y81.219 E305.78884
G1 X212.641 Y81.770 E305.81772
G1 X212.374 Y82.413 E305.84667
G1 X212.283 Y83.103 E305.87560
G1 X212.374 Y83.792 E305.90450
G1 X212.641 Y84.435 E305.93344
G1 X213.064 Y84.987 E305.96236
G1 X213.616 Y85.411 E305.99129
G1 X214.259 Y85.678 E306.02024
G1 X214.932 Y85.766 E306.04846
G1 X218.579 Y85.766 E306.20008
G1 X218.805 Y85.763 E306.20948
G1 X219.448 Y85.678 E306.23645
G1 X220.091 Y85.411 E306.26539
G1 X220.643 Y84.987 E306.29433
G1 X221.066 Y84.435 E306.32324
G1 X221.333 Y83.792 E306.35219
G1 X221.423 Y83.103 E306.38108
G1 X221.333 Y82.413 E306.41001
G1 F2100 E306.01001
G0 F12000 X219.448 Y72.978
G1 F2100 E306.41001
G1 F2220 X220.091 Y72.711 E306.43895
G1 X220.643 Y72.287 E306.46789
G1 X221.066 Y71.735 E306.49680
G1 X221.333 Y71.092 E306.52575
G1 X221.423 Y70.403 E306.55464
G1 X221.333 Y69.713 E306.58357
G1 X221.066 Y69.070 E306.61251
G1 X220.643 Y68.519 E306.64139
G1 X220.091 Y68.095 E306.67033
G1 X219.448 Y67.828 E306.69928
G1 X218.774 Y67.740 E306.72754
G1 X215.127 Y67.740 E306.87916
G1 X214.901 Y67.743 E306.88856
G1 X214.259 Y67.828 E306.91548
G1 X213.616 Y68.095 E306.94443
G1 X213.064 Y68.519 E306.97337
G1 X212.641 Y69.070 E307.00225
G1 X212.374 Y69.713 E307.03119
G1 X212.283 Y70.403 E307.06013
G1 X212.374 Y71.092 E307.08902
G1 X212.641 Y71.735 E307.11797
G1 X213.064 Y72.287 E307.14688
G1 X213.616 Y72.711 E307.17582
G1 X214.259 Y72.978 E307.20477
G1 X214.932 Y73.066 E307.23298
G1 X218.579 Y73.066 E307.38461
G1 X218.805 Y73.063 E307.39401
G1 X219.448 Y72.978 E307.42097
G1 F2100 E307.02097
G0 F12000 X223.804 Y71.092
G1 F2100 E307.42097
G1 F2220 X224.071 Y71.735 E307.44992
G1 X224.494 Y72.287 E307.47883
G1 X225.046 Y72.711 E307.50777
G1 X225.689 Y72.978 E307.53671
G1 X226.362 Y73.066 E307.56493
G1 X230.009 Y73.066 E307.71656
G1 X230.235 Y73.063 E307.72595
G1 X230.878 Y72.978 E307.75292
G1 X231.521 Y72.711 E307.78187
G1 X232.073 Y72.287 E307.81080
G1 X232.496 Y71.735 E307.83972
G1 X232.763 Y71.092 E307.86866
G1 X232.853 Y70.403 E307.89755
G1 X232.763 Y69.713 E307.92648
G1 X232.496 Y69.070 E307.95543
G1 X232.073 Y68.519 E307.98431
G1 X231.521 Y68.095 E308.01325
G1 X230.878 Y67.828 E308.04219
G1 X230.204 Y67.740 E308.07045
G1 X226.557 Y67.740 E308.22208
G1 X226.331 Y67.743 E308.23147
G1 X225.689 Y67.828 E308.25840
G1 X225.046 Y68.095 E308.28734
G1 X224.494 Y68.519 E308.31628
G1 X224.071 Y69.070 E308.34516
G1 X223.804 Y69.713 E308.37411
G1 X223.713 Y70.403 E308.40304
G1 X223.804 Y71.092 E308.43194
G1 F2100 E308.03194
G0 F12000 X233.591 Y72.288
G1 F2100 E308.43194
G1 F2220 X233.256 Y76.648 E308.61374
G1 X233.255 Y76.856 E308.62239
G1 X233.564 Y81.028 E308.79631
G1 X234.513 Y85.304 E308.97841
G1 X236.074 Y89.383 E309.15999
G1 X236.158 Y89.575 E309.16871
G1 X238.224 Y93.200 E309.34217
G1 X238.339 Y93.389 E309.35137
G1 X240.697 Y96.391 E309.51008
G1 X183.833 Y96.391 E311.87421
G1 X168.322 Y69.525 E313.16396
G1 X180.851 Y62.290 E313.76547
G1 X186.316 Y71.756 E314.21990
G1 X183.251 Y73.525 E314.36702
G1 X190.528 Y86.130 E314.97214
G1 X192.797 Y87.167 E315.07586
G1 X192.879 Y87.205 E315.07962
G1 X195.276 Y87.667 E315.18111
G1 X195.365 Y87.686 E315.18489
G1 X197.899 Y87.566 E315.29036
G1 X200.245 Y86.878 E315.39200
G1 X200.331 Y86.852 E315.39574
G1 X202.449 Y85.630 E315.49740
G1 X202.526 Y85.585 E315.50111
G1 X204.359 Y83.836 E315.60644
G1 X205.729 Y81.704 E315.71180
G1 X206.525 Y79.395 E315.81334
G1 X206.556 Y79.310 E315.81710
G1 X206.799 Y76.736 E315.92460
G1 X199.523 Y64.131 E316.52969
G1 X188.482 Y70.506 E317.05974
G1 X183.017 Y61.041 E317.51414
G1 X203.523 Y49.202 E318.49856
G1 X208.093 Y57.115 E318.87847
G1 X240.700 Y57.115 E320.23411
G1 X238.345 Y60.110 E320.39251
G1 X238.300 Y60.175 E320.39580
G1 X236.157 Y63.933 E320.57566
G1 X234.565 Y68.015 E320.75782
G1 X233.591 Y72.288 E320.94003
G0 F12000 X232.895 Y72.500
;TYPE:SKIN
G1 F2220 X232.807 Y72.750 E320.94571
G1 X232.250 Y73.000 E320.97109
G0 F12000 X232.819 Y73.500
G1 F2220 X231.378 Y73.500 E321.03100
G0 F12000 X232.780 Y74.000
G1 F2220 X205.999 Y74.000 E322.14443
G0 F12000 X206.287 Y74.500
G1 F2220 X232.742 Y74.500 E323.24430
G0 F12000 X232.704 Y75.000
G1 F2220 X206.576 Y75.000 E324.33058
G0 F12000 X206.864 Y75.500
G1 F2220 X232.665 Y75.500 E325.40326
G0 F12000 X232.627 Y76.000
G1 F2220 X207.153 Y76.000 E326.46234
G0 F12000 X207.442 Y76.500
G1 F2220 X232.589 Y76.500 E327.50783
G0 F12000 X232.588 Y77.000
G1 F2220 X207.451 Y77.000 E328.55291
G0 F12000 X207.404 Y77.500
G1 F2220 X232.625 Y77.500 E329.60148
G0 F12000 X232.662 Y78.000
G1 F2220 X207.357 Y78.000 E330.65354
G0 F12000 X207.310 Y78.500
G1 F2220 X232.699 Y78.500 E331.70909
G0 F12000 X232.736 Y79.000
G1 F2220 X207.263 Y79.000 E332.76813
G0 F12000 X207.204 Y79.500
G1 F2220 X232.773 Y79.500 E333.83117
G1 F2100 E333.43117
G0 F12000 X225.188 Y73.500
G1 F2100 E333.83117
G1 F2220 X219.948 Y73.500 E334.04902
G1 F2100 E333.64902
G0 F12000 X213.758 Y73.500
G1 F2100 E334.04902
G1 F2220 X205.710 Y73.500 E334.38362
G0 F12000 X205.421 Y73.000
G1 F2220 X212.886 Y73.000 E334.69398
G0 F12000 X212.378 Y72.500
G1 F2220 X205.133 Y72.500 E334.99519
G0 F12000 X204.844 Y72.000
G1 F2220 X212.020 Y72.000 E335.29353
G0 F12000 X211.813 Y71.500
G1 F2220 X204.556 Y71.500 E335.59524
G0 F12000 X204.267 Y71.000
G1 F2220 X211.681 Y71.000 E335.90348
G0 F12000 X211.614 Y70.500
G1 F2220 X203.978 Y70.500 E336.22095
G0 F12000 X203.690 Y70.000
G1 F2220 X211.653 Y70.000 E336.55201
G0 F12000 X211.729 Y69.500
G1 F2220 X203.401 Y69.500 E336.89825
G0 F12000 X203.113 Y69.000
G1 F2220 X211.937 Y69.000 E337.26511
G0 F12000 X212.226 Y68.500
G1 F2220 X202.824 Y68.500 E337.65600
G0 F12000 X202.535 Y68.000
G1 F2220 X212.630 Y68.000 E338.07570
G0 F12000 X213.285 Y67.500
G1 F2220 X202.247 Y67.500 E338.53461
G0 F12000 X201.958 Y67.000
G1 F2220 X234.235 Y67.000 E339.87653
G0 F12000 X234.429 Y66.500
G1 F2220 X201.670 Y66.500 E341.23849
G0 F12000 X201.381 Y66.000
G1 F2220 X234.624 Y66.000 E342.62057
G0 F12000 X234.819 Y65.500
G1 F2220 X201.092 Y65.500 E344.02278
G0 F12000 X200.804 Y65.000
G1 F2220 X235.014 Y65.000 E345.44507
G0 F12000 X235.209 Y64.500
G1 F2220 X200.515 Y64.500 E346.88747
G0 F12000 X200.227 Y64.000
G1 F2220 X235.404 Y64.000 E348.34996
G0 F12000 X235.624 Y63.500
G1 F2220 X199.938 Y63.500 E349.83362
G0 F12000 X199.264 Y63.500
G1 F2220 X185.216 Y63.500 E350.41766
G0 F12000 X185.505 Y64.000
G1 F2220 X198.398 Y64.000 E350.95369
G0 F12000 X197.532 Y64.500
G1 F2220 X185.794 Y64.500 E351.44170
G0 F12000 X186.082 Y65.000
G1 F2220 X196.665 Y65.000 E351.88169
G0 F12000 X195.799 Y65.500
G1 F2220 X186.371 Y65.500 E352.27366
G0 F12000 X186.660 Y66.000
G1 F2220 X194.933 Y66.000 E352.61761
G0 F12000 X194.067 Y66.500
G1 F2220 X186.949 Y66.500 E352.91355
G0 F12000 X187.237 Y67.000
G1 F2220 X193.201 Y67.000 E353.16150
G0 F12000 X192.335 Y67.500
G1 F2220 X187.526 Y67.500 E353.36144
G0 F12000 X187.815 Y68.000
G1 F2220 X191.469 Y68.000 E353.51335
G0 F12000 X190.603 Y68.500
G1 F2220 X188.104 Y68.500 E353.61725
G0 F12000 X188.392 Y69.000
G1 F2220 X189.737 Y69.000 E353.67317
G0 F12000 X188.871 Y69.500
G1 F2220 X188.681 Y69.500 E353.68107
G1 F2100 E353.28107
G0 F12000 X185.388 Y71.500
G1 F2100 E353.68107
G1 F2220 X170.242 Y71.500 E354.31076
G0 F12000 X170.530 Y72.000
G1 F2220 X184.537 Y72.000 E354.89311
G0 F12000 X183.671 Y72.500
G1 F2220 X170.819 Y72.500 E355.42743
G0 F12000 X171.108 Y73.000
G1 F2220 X182.804 Y73.000 E355.91369
G0 F12000 X182.458 Y73.500
G1 F2220 X171.396 Y73.500 E356.37360
G0 F12000 X171.685 Y74.000
G1 F2220 X182.747 Y74.000 E356.83350
G0 F12000 X183.036 Y74.500
G1 F2220 X171.974 Y74.500 E357.29341
G0 F12000 X172.262 Y75.000
G1 F2220 X183.324 Y75.000 E357.75331
G0 F12000 X183.613 Y75.500
G1 F2220 X172.551 Y75.500 E358.21322
G0 F12000 X172.840 Y76.000
G1 F2220 X183.901 Y76.000 E358.67308
G0 F12000 X184.190 Y76.500
G1 F2220 X173.128 Y76.500 E359.13298
G0 F12000 X173.417 Y77.000
G1 F2220 X184.478 Y77.000 E359.59285
G0 F12000 X184.767 Y77.500
G1 F2220 X173.706 Y77.500 E360.05271
G0 F12000 X173.994 Y78.000
G1 F2220 X185.056 Y78.000 E360.51261
G0 F12000 X185.344 Y78.500
G1 F2220 X174.283 Y78.500 E360.97248
G0 F12000 X174.572 Y79.000
G1 F2220 X185.633 Y79.000 E361.43234
G0 F12000 X185.921 Y79.500
G1 F2220 X174.860 Y79.500 E361.89220
G1 F2100 E361.49220
G0 F12000 X169.953 Y71.000
G1 F2100 E361.89220
G1 F2220 X185.100 Y71.000 E362.52194
G0 F12000 X184.811 Y70.500
G1 F2220 X169.664 Y70.500 E363.15168
G0 F12000 X169.376 Y70.000
G1 F2220 X184.522 Y70.000 E363.78138
G0 F12000 X184.234 Y69.500
G1 F2220 X169.714 Y69.500 E364.38505
G0 F12000 X170.579 Y69.000
G1 F2220 X183.945 Y69.000 E364.94074
G0 F12000 X183.656 Y68.500
G1 F2220 X171.445 Y68.500 E365.44842
G0 F12000 X172.311 Y68.000
G1 F2220 X183.368 Y68.000 E365.90811
G0 F12000 X183.079 Y67.500
G1 F2220 X173.177 Y67.500 E366.31979
G0 F12000 X174.042 Y67.000
G1 F2220 X182.790 Y67.000 E366.68349
G0 F12000 X182.502 Y66.500
G1 F2220 X174.908 Y66.500 E366.99921
G0 F12000 X175.774 Y66.000
G1 F2220 X182.213 Y66.000 E367.26692
G0 F12000 X181.924 Y65.500
G1 F2220 X176.639 Y65.500 E367.48664
G0 F12000 X177.505 Y65.000
G1 F2220 X181.635 Y65.000 E367.65835
G0 F12000 X181.347 Y64.500
G1 F2220 X178.371 Y64.500 E367.78207
G0 F12000 X179.236 Y64.000
G1 F2220 X181.058 Y64.000 E367.85782
G0 F12000 X180.769 Y63.500
G1 F2220 X180.102 Y63.500 E367.88555
G1 F2100 E367.48555
G0 F12000 X184.061 Y61.500
G1 F2100 E367.88555
G1 F2220 X236.765 Y61.500 E370.07673
G0 F12000 X236.480 Y62.000
G1 F2220 X184.350 Y62.000 E372.24405
G0 F12000 X184.638 Y62.500
G1 F2220 X236.194 Y62.500 E374.38749
G0 F12000 X235.909 Y63.000
G1 F2220 X184.927 Y63.000 E376.50708
G1 F2100 E376.10708
G0 F12000 X184.438 Y61.000
G1 F2100 E376.50708
G1 F2220 X237.050 Y61.000 E378.69443
G0 F12000 X237.335 Y60.500
G1 F2220 X185.304 Y60.500 E380.85763
G0 F12000 X186.170 Y60.000
G1 F2220 X237.621 Y60.000 E382.99671
G1 F2100 E382.59671
G0 F12000 X234.040 Y67.500
G1 F2100 E382.99671
G1 F2220 X231.849 Y67.500 E383.08781
G0 F12000 X232.504 Y68.000
G1 F2220 X233.875 Y68.000 E383.14481
G0 F12000 X233.761 Y68.500
G1 F2220 X233.052 Y68.750 E383.18025
G1 X233.590 Y69.250 E383.19894
G1 X233.406 Y69.500 E383.21184
G1 F2100 E382.81184
G0 F12000 X224.715 Y67.500
G1 F2100 E383.21184
G1 F2220 X220.419 Y67.500 E383.39045
G0 F12000 X221.074 Y68.000
G1 F2220 X224.060 Y68.000 E383.51459
G0 F12000 X223.656 Y68.500
G1 F2220 X221.478 Y68.500 E383.60514
G0 F12000 X221.767 Y69.000
G1 F2220 X223.367 Y69.000 E383.67166
G0 F12000 X223.159 Y69.500
G1 F2220 X221.975 Y69.500 E383.72089
G0 F12000 X222.050 Y70.000
G1 F2220 X223.083 Y70.000 E383.76384
G0 F12000 X223.044 Y70.500
G1 F2220 X222.091 Y70.500 E383.80346
G0 F12000 X222.025 Y71.000
G1 F2220 X223.111 Y71.000 E383.84861
G0 F12000 X223.243 Y71.500
G1 F2220 X221.894 Y71.500 E383.90469
G0 F12000 X221.686 Y72.000
G1 F2220 X223.450 Y72.000 E383.97803
G0 F12000 X223.808 Y72.500
G1 F2220 X221.328 Y72.500 E384.08114
G0 F12000 X220.820 Y73.000
G1 F2220 X224.316 Y73.000 E384.22648
G1 F2100 E383.82648
G0 F12000 X225.196 Y80.000
G1 F2100 E384.22648
G1 F2220 X219.938 Y80.000 E384.44509
G1 F2100 E384.04509
G0 F12000 X213.766 Y80.000
G1 F2100 E384.44509
G1 F2220 X207.029 Y80.000 E384.72518
G0 F12000 X206.857 Y80.500
G1 F2220 X212.890 Y80.500 E384.97600
G0 F12000 X212.380 Y81.000
G1 F2220 X206.685 Y81.000 E385.21277
G0 F12000 X206.512 Y81.500
G1 F2220 X212.020 Y81.500 E385.44177
G0 F12000 X211.812 Y82.000
G1 F2220 X206.339 Y82.000 E385.66931
G0 F12000 X206.018 Y82.500
G1 F2220 X211.679 Y82.500 E385.90467
G0 F12000 X211.613 Y83.000
G1 F2220 X205.697 Y83.000 E386.15062
G0 F12000 X205.376 Y83.500
G1 F2220 X211.654 Y83.500 E386.41163
G0 F12000 X211.730 Y84.000
G1 F2220 X205.055 Y84.000 E386.68915
G0 F12000 X204.640 Y84.500
G1 F2220 X211.937 Y84.500 E386.99252
G0 F12000 X212.224 Y85.000
G1 F2220 X204.116 Y85.000 E387.32961
G0 F12000 X203.591 Y85.500
G1 F2220 X212.626 Y85.500 E387.70525
G0 F12000 X213.277 Y86.000
G1 F2220 X203.067 Y86.000 E388.12973
G0 F12000 X202.288 Y86.500
G1 F2220 X234.248 Y86.500 E389.45847
G0 F12000 X234.057 Y86.000
G1 F2220 X231.859 Y86.000 E389.54985
G0 F12000 X232.510 Y85.500
G1 F2220 X233.865 Y85.500 E389.60619
G0 F12000 X233.754 Y85.000
G1 F2220 X233.055 Y84.750 E389.64119
G1 X233.587 Y84.250 E389.65964
G1 X233.407 Y84.000 E389.67245
G1 F2100 E389.27245
G0 F12000 X232.856 Y81.000
G1 F2100 E389.67245
G1 F2220 X232.800 Y80.750 E389.67669
G1 X232.244 Y80.500 E389.70203
G0 F12000 X232.810 Y80.000
G1 F2220 X231.368 Y80.000 E389.76198
G1 F2100 E389.36198
G0 F12000 X224.320 Y80.500
G1 F2100 E389.76198
G1 F2220 X220.814 Y80.500 E389.90775
G0 F12000 X221.324 Y81.000
G1 F2220 X223.810 Y81.000 E390.01110
G0 F12000 X223.450 Y81.500
G1 F2220 X221.684 Y81.500 E390.08452
G0 F12000 X221.892 Y82.000
G1 F2220 X223.242 Y82.000 E390.14065
G0 F12000 X223.109 Y82.500
G1 F2220 X222.024 Y82.500 E390.18576
G0 F12000 X222.089 Y83.000
G1 F2220 X223.043 Y83.000 E390.22542
G0 F12000 X223.084 Y83.500
G1 F2220 X222.052 Y83.500 E390.26833
G0 F12000 X221.977 Y84.000
G1 F2220 X223.160 Y84.000 E390.31751
G0 F12000 X223.367 Y84.500
G1 F2220 X221.769 Y84.500 E390.38395
G0 F12000 X221.482 Y85.000
G1 F2220 X223.654 Y85.000 E390.47425
G0 F12000 X224.056 Y85.500
G1 F2220 X221.080 Y85.500 E390.59798
G0 F12000 X220.429 Y86.000
G1 F2220 X224.707 Y86.000 E390.77584
G1 F2100 E390.37584
G0 F12000 X234.440 Y87.000
G1 F2100 E390.77584
G1 F2220 X201.422 Y87.000 E392.14857
G0 F12000 X200.514 Y87.500
G1 F2220 X234.631 Y87.500 E393.56699
G0 F12000 X234.822 Y88.000
G1 F2220 X198.812 Y88.000 E395.06411
G1 F2100 E394.66411
G0 F12000 X193.445 Y88.000
G1 F2100 E395.06411
G1 F2220 X179.767 Y88.000 E395.63277
G0 F12000 X179.479 Y87.500
G1 F2220 X191.902 Y87.500 E396.14926
G0 F12000 X190.808 Y87.000
G1 F2220 X179.190 Y87.000 E396.63228
G0 F12000 X178.901 Y86.500
G1 F2220 X189.962 Y86.500 E397.09214
G0 F12000 X189.673 Y86.000
G1 F2220 X178.613 Y86.000 E397.55197
G0 F12000 X178.324 Y85.500
G1 F2220 X189.384 Y85.500 E398.01179
G0 F12000 X189.096 Y85.000
G1 F2220 X178.036 Y85.000 E398.47161
G0 F12000 X177.747 Y84.500
G1 F2220 X188.807 Y84.500 E398.93143
G0 F12000 X188.519 Y84.000
G1 F2220 X177.458 Y84.000 E399.39129
G0 F12000 X177.170 Y83.500
G1 F2220 X188.230 Y83.500 E399.85111
G0 F12000 X187.942 Y83.000
G1 F2220 X176.881 Y83.000 E400.31098
G0 F12000 X176.592 Y82.500
G1 F2220 X187.653 Y82.500 E400.77084
G0 F12000 X187.364 Y82.000
G1 F2220 X176.304 Y82.000 E401.23066
G0 F12000 X176.015 Y81.500
G1 F2220 X187.076 Y81.500 E401.69052
G0 F12000 X186.787 Y81.000
G1 F2220 X175.726 Y81.000 E402.15039
G0 F12000 X175.438 Y80.500
G1 F2220 X186.499 Y80.500 E402.61025
G0 F12000 X186.210 Y80.000
G1 F2220 X175.149 Y80.000 E403.07011
G1 F2100 E402.67011
G0 F12000 X180.056 Y88.500
G1 F2100 E403.07011
G1 F2220 X235.014 Y88.500 E405.35500
G0 F12000 X235.205 Y89.000
G1 F2220 X180.345 Y89.000 E407.63581
G0 F12000 X180.633 Y89.500
G1 F2220 X235.396 Y89.500 E409.91260
G0 F12000 X235.623 Y90.000
G1 F2220 X180.922 Y90.000 E412.18680
G0 F12000 X181.211 Y90.500
G1 F2220 X235.908 Y90.500 E414.46084
G0 F12000 X236.193 Y91.000
G1 F2220 X181.499 Y91.000 E416.73475
G0 F12000 X181.788 Y91.500
G1 F2220 X236.478 Y91.500 E419.00849
G0 F12000 X236.763 Y92.000
G1 F2220 X182.077 Y92.000 E421.28207
G0 F12000 X182.365 Y92.500
G1 F2220 X237.048 Y92.500 E423.55553
G0 F12000 X237.333 Y93.000
G1 F2220 X182.654 Y93.000 E425.82882
G0 F12000 X182.943 Y93.500
G1 F2220 X237.618 Y93.500 E428.10194
G0 F12000 X237.960 Y94.000
G1 F2220 X183.231 Y94.000 E430.37731
G0 F12000 X183.520 Y94.500
G1 F2220 X238.353 Y94.500 E432.65700
G0 F12000 X238.746 Y95.000
G1 F2220 X183.809 Y95.000 E434.94101
G0 F12000 X184.097 Y95.500
G1 F2220 X239.140 Y95.500 E437.22944
G1 F2100 E436.82944
G0 F12000 X237.964 Y59.500
G1 F2100 E437.22944
G1 F2220 X187.036 Y59.500 E439.34678
G0 F12000 X187.902 Y59.000
G1 F2220 X238.357 Y59.000 E441.44445
G0 F12000 X238.750 Y58.500
G1 F2220 X188.768 Y58.500 E443.52246
G0 F12000 X189.634 Y58.000
G1 F2220 X239.143 Y58.000 E445.58081
G1 F2100 E445.18081
G0 F12000 X207.537 Y57.500
G1 F2100 E445.58081
G1 F2220 X190.500 Y57.500 E446.28912
G0 F12000 X191.366 Y57.000
G1 F2220 X207.248 Y57.000 E446.94942
G0 F12000 X206.959 Y56.500
G1 F2220 X192.232 Y56.500 E447.56170
G0 F12000 X193.098 Y56.000
G1 F2220 X206.670 Y56.000 E448.12595
G0 F12000 X206.381 Y55.500
G1 F2220 X193.964 Y55.500 E448.64219
G0 F12000 X194.830 Y55.000
G1 F2220 X206.092 Y55.000 E449.11041
G0 F12000 X205.803 Y54.500
G1 F2220 X195.696 Y54.500 E449.53061
G0 F12000 X196.562 Y54.000
G1 F2220 X205.515 Y54.000 E449.90284
G0 F12000 X205.226 Y53.500
G1 F2220 X197.428 Y53.500 E450.22704
G0 F12000 X198.294 Y53.000
G1 F2220 X204.937 Y53.000 E450.50322
G0 F12000 X204.648 Y52.500
G1 F2220 X199.160 Y52.500 E450.73139
G0 F12000 X200.026 Y52.000
G1 F2220 X204.359 Y52.000 E450.91153
G0 F12000 X204.070 Y51.500
G1 F2220 X200.892 Y51.500 E451.04366
G0 F12000 X201.758 Y51.000
G1 F2220 X203.782 Y51.000 E451.12781
G0 F12000 X203.493 Y50.500
G1 F2220 X202.624 Y50.500 E451.16394
;LAYER:2
M106 S20
G0 F12000 X203.340 Y49.885 Z0.600
;TYPE:WALL-INNER
G1 F2700 X207.804 Y57.615 E451.53505
G1 X239.671 Y57.615 E452.85993
G1 X237.959 Y59.790 E452.97500
G1 X235.717 Y63.690 E453.16203
G1 X234.099 Y67.828 E453.34675
G1 X233.105 Y72.161 E453.53158
G1 X232.758 Y76.563 E453.71516
G1 X232.757 Y76.938 E453.73075
G1 X233.058 Y80.996 E453.89993
G1 X233.108 Y81.364 E453.91537
G1 X234.005 Y85.332 E454.08450
G1 X234.104 Y85.691 E454.09998
G1 X235.576 Y89.484 E454.26913
G1 X235.723 Y89.825 E454.28457
G1 X237.739 Y93.364 E454.45391
G1 X237.945 Y93.698 E454.47022
G1 X239.668 Y95.891 E454.58617
G1 X184.121 Y95.891 E456.89555
G1 X169.005 Y69.709 E458.15246
G1 X180.668 Y62.974 E458.71239
G1 X185.633 Y71.573 E459.12521
G1 X182.568 Y73.342 E459.27234
G1 X190.175 Y86.519 E459.90491
G1 X192.553 Y87.605 E460.01360
G1 X192.725 Y87.684 E460.02147
G1 X195.143 Y88.151 E460.12385
G1 X195.329 Y88.188 E460.13174
G1 X197.796 Y88.072 E460.23442
G1 X197.983 Y88.063 E460.24220
G1 X200.350 Y87.368 E460.34476
G1 X200.530 Y87.315 E460.35256
G1 X202.827 Y85.989 E460.46283
G1 X204.612 Y84.286 E460.56540
G1 X204.748 Y84.156 E460.57322
G1 X206.079 Y82.083 E460.67564
G1 X206.181 Y81.925 E460.68346
G1 X207.048 Y79.415 E460.79387
G1 X207.312 Y76.624 E460.91042
G1 X199.706 Y63.448 E461.54293
G1 X188.665 Y69.823 E462.07299
G1 X183.700 Y61.224 E462.48581
G1 X203.340 Y49.885 E463.42866
G1 F2100 E463.02866
G0 F12000 X213.364 Y67.658
G1 F2100 E463.42866
G1 F2700 X212.707 Y68.162 E463.46308
G1 X212.204 Y68.818 E463.49745
G1 X211.887 Y69.582 E463.53184
G1 X211.778 Y70.403 E463.56627
G1 X211.887 Y71.223 E463.60067
G1 X212.204 Y71.987 E463.63505
G1 X212.707 Y72.644 E463.66946
G1 X213.364 Y73.148 E463.70388
G1 X214.128 Y73.465 E463.73827
G1 X214.899 Y73.566 E463.77060
G1 X218.463 Y73.566 E463.91877
G1 X218.863 Y73.559 E463.93541
G1 X219.579 Y73.465 E463.96543
G1 X220.343 Y73.148 E463.99982
G1 X221.000 Y72.644 E464.03424
G1 X221.503 Y71.987 E464.06865
G1 X221.820 Y71.223 E464.10303
G1 X221.927 Y70.403 E464.13742
G1 X221.820 Y69.582 E464.17184
G1 X221.503 Y68.818 E464.20623
G1 X221.000 Y68.162 E464.24059
G1 X220.343 Y67.658 E464.27502
G1 X219.579 Y67.341 E464.30941
G1 X218.807 Y67.240 E464.34178
G1 X215.243 Y67.240 E464.48995
G1 X214.843 Y67.247 E464.50659
G1 X214.128 Y67.341 E464.53657
G1 X213.364 Y67.658 E464.57096
G1 F2100 E464.17096
G0 F12000 X223.317 Y69.582
G1 F2100 E464.57096
G1 F2700 X223.208 Y70.403 E464.60539
G1 X223.317 Y71.223 E464.63978
G1 X223.634 Y71.987 E464.67417
G1 X224.137 Y72.644 E464.70857
G1 X224.794 Y73.148 E464.74300
G1 X225.558 Y73.465 E464.77739
G1 X226.329 Y73.566 E464.80972
G1 X229.893 Y73.566 E464.95789
G1 X230.293 Y73.559 E464.97452
G1 X231.009 Y73.465 E465.00454
G1 X231.773 Y73.148 E465.03893
G1 X232.430 Y72.644 E465.07336
G1 X232.933 Y71.987 E465.10776
G1 X233.250 Y71.223 E465.14215
G1 X233.357 Y70.403 E465.17653
G1 X233.250 Y69.582 E465.21095
G1 X232.933 Y68.818 E465.24534
G1 X232.430 Y68.162 E465.27971
G1 X231.773 Y67.658 E465.31414
G1 X231.009 Y67.341 E465.34853
G1 X230.237 Y67.240 E465.38089
G1 X226.673 Y67.240 E465.52907
G1 X226.273 Y67.247 E465.54570
G1 X225.558 Y67.341 E465.57568
G1 X224.794 Y67.658 E465.61007
G1 X224.137 Y68.162 E465.64450
G1 X223.634 Y68.818 E465.67887
G1 X223.317 Y69.582 E465.71326
G1 F2100 E465.31326
G0 F12000 X225.558 Y80.041
G1 F2100 E465.71326
G1 F2700 X224.794 Y80.358 E465.74764
G1 X224.137 Y80.862 E465.78207
G1 X223.634 Y81.518 E465.81644
G1 X223.317 Y82.282 E465.85083
G1 X223.208 Y83.103 E465.88526
G1 X223.317 Y83.923 E465.91965
G1 X223.634 Y84.687 E465.95404
G1 X224.137 Y85.344 E465.98844
G1 X224.794 Y85.848 E466.02287
G1 X225.558 Y86.165 E466.05726
G1 X226.329 Y86.266 E466.08959
G1 X229.893 Y86.266 E466.23776
G1 X230.293 Y86.259 E466.25439
G1 X231.009 Y86.165 E466.28442
G1 X231.773 Y85.848 E466.31881
G1 X232.430 Y85.344 E466.35323
G1 X232.933 Y84.687 E466.38763
G1 X233.250 Y83.923 E466.42202
G1 X233.357 Y83.103 E466.45640
G1 X233.250 Y82.282 E466.49082
G1 X232.933 Y81.518 E466.52521
G1 X232.430 Y80.862 E466.55958
G1 X231.773 Y80.358 E466.59401
G1 X231.009 Y80.041 E466.62840
G1 X230.237 Y79.940 E466.66077
G1 X226.673 Y79.940 E466.80894
G1 X226.273 Y79.947 E466.82557
G1 X225.558 Y80.041 E466.85555
G1 F2100 E466.45555
G0 F12000 X221.503 Y81.518
G1 F2100 E466.85555
G1 F2700 X221.000 Y80.862 E466.88992
G1 X220.343 Y80.358 E466.92435
G1 X219.579 Y80.041 E466.95874
G1 X218.807 Y79.940 E466.99111
G1 X215.243 Y79.940 E467.13928
G1 X214.843 Y79.947 E467.15591
G1 X214.128 Y80.041 E467.18590
G1 X213.364 Y80.358 E467.22029
G1 X212.707 Y80.862 E467.25471
G1 X212.204 Y81.518 E467.28908
G1 X211.887 Y82.282 E467.32347
G1 X211.778 Y83.103 E467.35790
G1 X211.887 Y83.923 E467.39229
G1 X212.204 Y84.687 E467.42668
G1 X212.707 Y85.344 E467.46108
G1 X213.364 Y85.848 E467.49551
G1 X214.128 Y86.165 E467.52990
G1 X214.899 Y86.266 E467.56223
G1 X218.463 Y86.266 E467.71040
G1 X218.863 Y86.259 E467.72703
G1 X219.579 Y86.165 E467.75706
G1 X220.343 Y85.848 E467.79145
G1 X221.000 Y85.344 E467.82587
G1 X221.503 Y84.687 E467.86027
G1 X221.820 Y83.923 E467.89466
G1 X221.927 Y83.103 E467.92904
G1 X221.820 Y82.282 E467.96346
G1 X221.503 Y81.518 E467.99785
G0 F12000 X221.066 Y81.770
;TYPE:WALL-OUTER
G1 F2700 X220.643 Y81.219 E468.02673
G1 X220.091 Y80.795 E468.05567
G1 X219.448 Y80.528 E468.08462
G1 X218.774 Y80.440 E468.11288
G1 X215.247 Y80.440 E468.25951
G1 X214.880 Y80.446 E468.27477
G1 X214.259 Y80.528 E468.30082
G1 X213.616 Y80.795 E468.32976
G1 X213.064 Y81.219 E468.35870
G1 X212.641 Y81.770 E468.38758
G1 X212.374 Y82.413 E468.41653
G1 X212.283 Y83.103 E468.44546
G1 X212.374 Y83.792 E468.47435
G1 X212.641 Y84.435 E468.50330
G1 X213.064 Y84.987 E468.53221
G1 X213.616 Y85.411 E468.56115
G1 X214.259 Y85.678 E468.59010
G1 X214.932 Y85.766 E468.61832
G1 X218.459 Y85.766 E468.76495
G1 X218.826 Y85.760 E468.78021
G1 X219.448 Y85.678 E468.80629
G1 X220.091 Y85.411 E468.83524
G1 X220.643 Y84.987 E468.86418
G1 X221.066 Y84.435 E468.89309
G1 X221.333 Y83.792 E468.92204
G1 X221.423 Y83.103 E468.95093
G1 X221.333 Y82.413 E468.97986
G1 X221.066 Y81.770 E469.00880
G1 F2100 E468.60880
G0 F12000 X223.804 Y82.413
G1 F2100 E469.00880
G1 F2700 X223.713 Y83.103 E469.03774
G1 X223.804 Y83.792 E469.06663
G1 X224.071 Y84.435 E469.09558
G1 X224.494 Y84.987 E469.12449
G1 X225.046 Y85.411 E469.15343
G1 X225.689 Y85.678 E469.18237
G1 X226.362 Y85.766 E469.21059
G1 X229.889 Y85.766 E469.35723
G1 X230.256 Y85.760 E469.37249
G1 X230.878 Y85.678 E469.39857
G1 X231.521 Y85.411 E469.42752
G1 X232.073 Y84.987 E469.45646
G1 X232.496 Y84.435 E469.48537
G1 X232.763 Y83.792 E469.51432
G1 X232.853 Y83.103 E469.54320
G1 X232.763 Y82.413 E469.57213
G1 X232.496 Y81.770 E469.60108
G1 X232.073 Y81.219 E469.62996
G1 X231.521 Y80.795 E469.65890
G1 X230.878 Y80.528 E469.68784
G1 X230.204 Y80.440 E469.71610
G1 X226.677 Y80.440 E469.86274
G1 X226.310 Y80.446 E469.87800
G1 X225.689 Y80.528 E469.90404
G1 X225.046 Y80.795 E469.93299
G1 X224.494 Y81.219 E469.96193
G1 X224.071 Y81.770 E469.99081
G1 X223.804 Y82.413 E470.01975
G1 F2100 E469.61975
G0 F12000 X225.689 Y72.978
G1 F2100 E470.01975
G1 F2700 X226.362 Y73.066 E470.04797
G1 X229.889 Y73.066 E470.19461
G1 X230.256 Y73.060 E470.20987
G1 X230.878 Y72.978 E470.23595
G1 X231.521 Y72.711 E470.26489
G1 X232.073 Y72.287 E470.29383
G1 X232.496 Y71.735 E470.32275
G1 X232.763 Y71.092 E470.35169
G1 X232.853 Y70.403 E470.38058
G1 X232.763 Y69.713 E470.40951
G1 X232.496 Y69.070 E470.43846
G1 X232.073 Y68.519 E470.46734
G1 X231.521 Y68.095 E470.49627
G1 X230.878 Y67.828 E470.52522
G1 X230.204 Y67.740 E470.55348
G1 X226.677 Y67.740 E470.70012
G1 X226.310 Y67.746 E470.71538
G1 X225.689 Y67.828 E470.74142
G1 X225.046 Y68.095 E470.77036
G1 X224.494 Y68.519 E470.79930
G1 X224.071 Y69.070 E470.82818
G1 X223.804 Y69.713 E470.85713
G1 X223.713 Y70.403 E470.88606
G1 X223.804 Y71.092 E470.91496
G1 X224.071 Y71.735 E470.94390
G1 X224.494 Y72.287 E470.97282
G1 X225.046 Y72.711 E471.00175
G1 X225.689 Y72.978 E471.03070
G1 F2100 E470.63070
G0 F12000 X221.333 Y71.092
G1 F2100 E471.03070
G1 F2700 X221.423 Y70.403 E471.05959
G1 X221.333 Y69.713 E471.08852
G1 X221.066 Y69.070 E471.11746
G1 X220.643 Y68.519 E471.14634
G1 X220.091 Y68.095 E471.17528
G1 X219.448 Y67.828 E471.20423
G1 X218.774 Y67.740 E471.23249
G1 X215.247 Y67.740 E471.37912
G1 X214.880 Y67.746 E471.39438
G1 X214.259 Y67.828 E471.42043
G1 X213.616 Y68.095 E471.44937
G1 X213.064 Y68.519 E471.47831
G1 X212.641 Y69.070 E471.50719
G1 X212.374 Y69.713 E471.53614
G1 X212.283 Y70.403 E471.56507
G1 X212.374 Y71.092 E471.59397
G1 X212.641 Y71.735 E471.62291
G1 X213.064 Y72.287 E471.65182
G1 X213.616 Y72.711 E471.68076
G1 X214.259 Y72.978 E471.70971
G1 X214.932 Y73.066 E471.73793
G1 X218.459 Y73.066 E471.88456
G1 X218.826 Y73.060 E471.89982
G1 X219.448 Y72.978 E471.92591
G1 X220.091 Y72.711 E471.95485
G1 X220.643 Y72.287 E471.98379
G1 X221.066 Y71.735 E472.01270
G1 X221.333 Y71.092 E472.04165
G1 F2100 E471.64165
G0 F12000 X233.600 Y72.237
G1 F2100 E472.04165
G1 F2700 X233.258 Y76.584 E472.22294
G1 X233.257 Y76.920 E472.23690
G1 X233.555 Y80.943 E472.40462
G1 X233.601 Y81.275 E472.41855
G1 X234.490 Y85.210 E472.58628
G1 X234.579 Y85.533 E472.60020
G1 X236.039 Y89.295 E472.76798
G1 X236.171 Y89.602 E472.78187
G1 X238.169 Y93.109 E472.94968
G1 X238.356 Y93.411 E472.96444
G1 X240.697 Y96.391 E473.12200
G1 X183.833 Y96.391 E475.48613
G1 X168.322 Y69.526 E476.77584
G1 X180.851 Y62.291 E477.37735
G1 X186.316 Y71.756 E477.83174
G1 X183.251 Y73.525 E477.97887
G1 X190.528 Y86.130 E478.58399
G1 X192.879 Y87.205 E478.69146
G1 X195.240 Y87.661 E478.79143
G1 X195.366 Y87.686 E478.79678
G1 X197.899 Y87.566 E478.90220
G1 X200.208 Y86.889 E479.00224
G1 X200.331 Y86.852 E479.00758
G1 X202.525 Y85.586 E479.11289
G1 X204.359 Y83.836 E479.21829
G1 X205.729 Y81.704 E479.32365
G1 X206.556 Y79.308 E479.42903
G1 X206.799 Y76.736 E479.53644
G1 X199.523 Y64.131 E480.14153
G1 X188.482 Y70.506 E480.67158
G1 X183.017 Y61.041 E481.12598
G1 X203.523 Y49.202 E482.11040
G1 X208.093 Y57.115 E482.49031
G1 X240.700 Y57.115 E483.84595
G1 X238.361 Y60.088 E484.00322
G1 X238.293 Y60.186 E484.00818
G1 X236.170 Y63.906 E484.18626
G1 X234.578 Y67.976 E484.36795
G1 X233.600 Y72.237 E484.54971
G0 F12000 X232.500 Y72.809
;TYPE:SKIN
G1 F2700 X232.500 Y80.696 E484.87761
G0 F12000 X232.000 Y80.312
G1 F2700 X232.000 Y73.193 E485.17359
G0 F12000 X231.500 Y73.450
G1 F2700 X231.500 Y80.055 E485.44819
G1 F2100 E485.04819
G0 F12000 X233.500 Y83.994
G1 F2100 E485.44819
G1 F2700 X233.500 Y95.716 E485.93553
G0 F12000 X233.000 Y95.716
G1 F2700 X233.000 Y84.886 E486.38579
G0 F12000 X232.500 Y85.509
G1 F2700 X232.500 Y95.716 E486.81015
G0 F12000 X232.000 Y95.716
G1 F2700 X232.000 Y85.893 E487.21854
G0 F12000 X231.500 Y86.150
G1 F2700 X231.500 Y95.716 E487.61625
G0 F12000 X231.000 Y95.716
G1 F2700 X231.000 Y86.343 E488.00594
G0 F12000 X230.500 Y86.408
G1 F2700 X230.500 Y95.716 E488.39292
G0 F12000 X230.000 Y95.716
G1 F2700 X230.000 Y86.439 E488.77861
G0 F12000 X229.500 Y86.441
G1 F2700 X229.500 Y95.716 E489.16422
G0 F12000 X229.000 Y95.716
G1 F2700 X229.000 Y86.441 E489.54983
G0 F12000 X228.500 Y86.441
G1 F2700 X228.500 Y95.716 E489.93544
G0 F12000 X228.000 Y95.716
G1 F2700 X228.000 Y86.441 E490.32105
G0 F12000 X227.500 Y86.441
G1 F2700 X227.500 Y95.716 E490.70666
G0 F12000 X227.000 Y95.716
G1 F2700 X227.000 Y86.441 E491.09227
G0 F12000 X226.500 Y86.441
G1 F2700 X226.500 Y95.716 E491.47788
G0 F12000 X226.000 Y95.716
G1 F2700 X226.000 Y86.400 E491.86519
G0 F12000 X225.500 Y86.331
G1 F2700 X225.500 Y95.716 E492.25538
G0 F12000 X225.000 Y95.716
G1 F2700 X225.000 Y86.123 E492.65421
G0 F12000 X224.500 Y85.842
G1 F2700 X224.500 Y95.716 E493.06472
G0 F12000 X224.000 Y95.716
G1 F2700 X224.000 Y85.452 E493.49145
G0 F12000 X223.500 Y84.800
G1 F2700 X223.500 Y95.716 E493.94528
G0 F12000 X223.000 Y95.716
G1 F2700 X223.000 Y57.790 E495.52206
G0 F12000 X222.500 Y57.790
G1 F2700 X222.500 Y95.716 E497.09884
G0 F12000 X222.000 Y95.716
G1 F2700 X222.000 Y83.899 E497.59014
G0 F12000 X221.500 Y84.977
G1 F2700 X221.500 Y95.716 E498.03661
G0 F12000 X221.000 Y95.716
G1 F2700 X221.000 Y85.563 E498.45872
G0 F12000 X220.500 Y85.946
G1 F2700 X220.500 Y95.716 E498.86491
G0 F12000 X220.000 Y95.716
G1 F2700 X220.000 Y86.179 E499.26142
G1 F2100 E498.86142
G0 F12000 X222.000 Y82.305
G1 F2100 E499.26142
G1 F2700 X222.000 Y71.199 E499.72315
G0 F12000 X221.500 Y72.277
G1 F2700 X221.500 Y81.227 E500.09525
G0 F12000 X221.000 Y80.642
G1 F2700 X221.000 Y72.863 E500.41866
G0 F12000 X220.500 Y73.246
G1 F2700 X220.500 Y80.259 E500.71023
G0 F12000 X220.000 Y80.026
G1 F2700 X220.000 Y73.479 E500.98242
G1 F2100 E500.58242
G0 F12000 X223.500 Y72.100
G1 F2100 E500.98242
G1 F2700 X223.500 Y81.406 E501.36932
G0 F12000 X224.000 Y80.755
G1 F2700 X224.000 Y72.752 E501.70204
G0 F12000 X224.500 Y73.142
G1 F2700 X224.500 Y80.365 E502.00234
G0 F12000 X225.000 Y80.084
G1 F2700 X225.000 Y73.423 E502.27927
G0 F12000 X225.500 Y73.631
G1 F2700 X225.500 Y79.876 E502.53891
G0 F12000 X226.000 Y79.806
G1 F2700 X226.000 Y73.700 E502.79277
G0 F12000 X226.500 Y73.741
G1 F2700 X226.500 Y79.768 E503.04334
G0 F12000 X227.000 Y79.765
G1 F2700 X227.000 Y73.741 E503.29379
G0 F12000 X227.500 Y73.741
G1 F2700 X227.500 Y79.765 E503.54424
G0 F12000 X228.000 Y79.765
G1 F2700 X228.000 Y73.741 E503.79469
G0 F12000 X228.500 Y73.741
G1 F2700 X228.500 Y79.765 E504.04514
G0 F12000 X229.000 Y79.765
G1 F2700 X229.000 Y73.741 E504.29559
G0 F12000 X229.500 Y73.741
G1 F2700 X229.500 Y79.765 E504.54604
G0 F12000 X230.000 Y79.765
G1 F2700 X230.000 Y73.739 E504.79657
G0 F12000 X230.500 Y73.708
G1 F2700 X230.500 Y79.797 E505.04972
G0 F12000 X231.000 Y79.862
G1 F2700 X231.000 Y73.643 E505.30827
G1 F2100 E504.90827
G0 F12000 X233.500 Y69.529
G1 F2100 E505.30827
G1 F2700 X233.500 Y57.790 E505.79633
G0 F12000 X233.000 Y57.790
G1 F2700 X233.000 Y68.619 E506.24654
G0 F12000 X232.500 Y67.996
G1 F2700 X232.500 Y57.790 E506.67086
G0 F12000 X232.000 Y57.790
G1 F2700 X232.000 Y67.612 E507.07921
G0 F12000 X231.500 Y67.355
G1 F2700 X231.500 Y57.790 E507.47688
G0 F12000 X231.000 Y57.790
G1 F2700 X231.000 Y67.162 E507.86652
G0 F12000 X230.500 Y67.097
G1 F2700 X230.500 Y57.790 E508.25346
G0 F12000 X230.000 Y57.790
G1 F2700 X230.000 Y67.065 E508.63907
G0 F12000 X229.500 Y67.065
G1 F2700 X229.500 Y57.790 E509.02468
G0 F12000 X229.000 Y57.790
G1 F2700 X229.000 Y67.065 E509.41029
G0 F12000 X228.500 Y67.065
G1 F2700 X228.500 Y57.790 E509.79590
G0 F12000 X228.000 Y57.790
G1 F2700 X228.000 Y67.065 E510.18151
G0 F12000 X227.500 Y67.065
G1 F2700 X227.500 Y57.790 E510.56712
G0 F12000 X227.000 Y57.790
G1 F2700 X227.000 Y67.065 E510.95273
G0 F12000 X226.500 Y67.068
G1 F2700 X226.500 Y57.790 E511.33846
G0 F12000 X226.000 Y57.790
G1 F2700 X226.000 Y67.106 E511.72578
G0 F12000 X225.500 Y67.176
G1 F2700 X225.500 Y57.790 E512.11600
G0 F12000 X225.000 Y57.790
G1 F2700 X225.000 Y67.384 E512.51487
G0 F12000 X224.500 Y67.665
G1 F2700 X224.500 Y57.790 E512.92543
G0 F12000 X224.000 Y57.790
G1 F2700 X224.000 Y68.055 E513.35220
G0 F12000 X223.500 Y68.706
G1 F2700 X223.500 Y57.790 E513.80603
G0 F12000 X222.000 Y57.790
G1 F2700 X222.000 Y69.605 E514.29724
G0 F12000 X221.500 Y68.527
G1 F2700 X221.500 Y57.790 E514.74363
G0 F12000 X221.000 Y57.790
G1 F2700 X221.000 Y67.942 E515.16571
G0 F12000 X220.500 Y67.559
G1 F2700 X220.500 Y57.790 E515.57185
G0 F12000 X220.000 Y57.790
G1 F2700 X220.000 Y67.326 E515.96831
G1 F2100 E515.56831
G0 F12000 X234.000 Y67.601
G1 F2100 E515.96831
G1 F2700 X234.000 Y57.790 E516.37621
G0 F12000 X234.500 Y57.790
G1 F2700 X234.500 Y66.322 E516.73093
G0 F12000 X235.000 Y65.043
G1 F2700 X235.000 Y57.790 E517.03247
G0 F12000 X235.500 Y57.790
G1 F2700 X235.500 Y63.764 E517.28084
G0 F12000 X236.000 Y62.846
G1 F2700 X236.000 Y57.790 E517.49105
G0 F12000 X236.500 Y57.790
G1 F2700 X236.500 Y61.977 E517.66512
G0 F12000 X237.000 Y61.107
G1 F2700 X237.000 Y57.790 E517.80303
G0 F12000 X237.500 Y57.790
G1 F2700 X237.500 Y60.237 E517.90476
G0 F12000 X238.000 Y59.455
G1 F2700 X238.000 Y57.790 E517.97398
G0 F12000 X238.500 Y57.790
G1 F2700 X238.500 Y58.820 E518.01681
G0 F12000 X239.000 Y58.184
G1 F2700 X239.000 Y57.790 E518.03319
G1 F2100 E517.63319
G0 F12000 X219.500 Y57.790
G1 F2100 E518.03319
G1 F2700 X219.500 Y67.153 E518.42245
G0 F12000 X219.000 Y67.088
G1 F2700 X219.000 Y57.790 E518.80902
G0 F12000 X218.500 Y57.790
G1 F2700 X218.500 Y67.065 E519.19463
G0 F12000 X218.000 Y67.065
G1 F2700 X218.000 Y57.790 E519.58024
G0 F12000 X217.500 Y57.790
G1 F2700 X217.500 Y67.065 E519.96585
G0 F12000 X217.000 Y67.065
G1 F2700 X217.000 Y57.790 E520.35146
G0 F12000 X216.500 Y57.790
G1 F2700 X216.500 Y67.065 E520.73707
G0 F12000 X216.000 Y67.065
G1 F2700 X216.000 Y57.790 E521.12268
G0 F12000 X215.500 Y57.790
G1 F2700 X215.500 Y67.065 E521.50829
G0 F12000 X215.000 Y67.070
G1 F2700 X215.000 Y57.790 E521.89411
G0 F12000 X214.500 Y57.790
G1 F2700 X214.500 Y67.116 E522.28184
G0 F12000 X214.000 Y67.205
G1 F2700 X214.000 Y57.790 E522.67327
G0 F12000 X213.500 Y57.790
G1 F2700 X213.500 Y67.413 E523.07334
G0 F12000 X213.000 Y67.719
G1 F2700 X213.000 Y57.790 E523.48614
G0 F12000 X212.500 Y57.790
G1 F2700 X212.500 Y68.147 E523.91674
G0 F12000 X212.000 Y68.853
G1 F2700 X212.000 Y57.790 E524.37668
G0 F12000 X211.500 Y57.790
G1 F2700 X211.500 Y95.716 E525.95346
G0 F12000 X211.000 Y95.716
G1 F2700 X211.000 Y57.790 E527.53024
G0 F12000 X210.500 Y57.790
G1 F2700 X210.500 Y95.716 E529.10702
G0 F12000 X210.000 Y95.716
G1 F2700 X210.000 Y57.790 E530.68380
G0 F12000 X209.500 Y57.790
G1 F2700 X209.500 Y95.716 E532.26058
G0 F12000 X209.000 Y95.716
G1 F2700 X209.000 Y57.790 E533.83736
G0 F12000 X208.500 Y57.790
G1 F2700 X208.500 Y95.716 E535.41414
G0 F12000 X208.000 Y95.716
G1 F2700 X208.000 Y57.790 E536.99092
G0 F12000 X207.500 Y57.437
G1 F2700 X207.500 Y95.716 E538.58238
G0 F12000 X207.000 Y95.716
G1 F2700 X207.000 Y80.090 E539.23203
G1 F2100 E538.83203
G0 F12000 X206.500 Y81.537
G1 F2100 E539.23203
G1 F2700 X206.500 Y95.716 E539.82153
G0 F12000 X206.000 Y95.716
G1 F2700 X206.000 Y82.530 E540.36974
G0 F12000 X205.500 Y83.308
G1 F2700 X205.500 Y95.716 E540.88560
G0 F12000 X205.000 Y95.716
G1 F2700 X205.000 Y84.086 E541.36912
G0 F12000 X204.500 Y84.634
G1 F2700 X204.500 Y95.716 E541.82986
G0 F12000 X204.000 Y95.716
G1 F2700 X204.000 Y85.111 E542.27076
G0 F12000 X203.500 Y85.588
G1 F2700 X203.500 Y95.716 E542.69183
G0 F12000 X203.000 Y95.716
G1 F2700 X203.000 Y86.066 E543.09304
G0 F12000 X202.500 Y86.380
G1 F2700 X202.500 Y95.716 E543.48118
G0 F12000 X202.000 Y95.716
G1 F2700 X202.000 Y86.668 E543.85735
G0 F12000 X201.500 Y86.956
G1 F2700 X201.500 Y95.716 E544.22155
G0 F12000 X201.000 Y95.716
G1 F2700 X201.000 Y87.245 E544.57373
G0 F12000 X200.500 Y87.505
G1 F2700 X200.500 Y95.716 E544.91511
G0 F12000 X200.000 Y95.716
G1 F2700 X200.000 Y87.652 E545.25037
G1 F2100 E544.85037
G0 F12000 X212.000 Y84.653
G1 F2100 E545.25037
G1 F2700 X212.000 Y95.716 E545.71032
G0 F12000 X212.500 Y95.716
G1 F2700 X212.500 Y85.360 E546.14087
G0 F12000 X213.000 Y85.788
G1 F2700 X213.000 Y95.716 E546.55363
G0 F12000 X213.500 Y95.716
G1 F2700 X213.500 Y86.094 E546.95366
G0 F12000 X214.000 Y86.302
G1 F2700 X214.000 Y95.716 E547.34505
G0 F12000 X214.500 Y95.716
G1 F2700 X214.500 Y86.391 E547.73274
G0 F12000 X215.000 Y86.441
G1 F2700 X215.000 Y95.716 E548.11835
G0 F12000 X215.500 Y95.716
G1 F2700 X215.500 Y86.441 E548.50396
G0 F12000 X216.000 Y86.441
G1 F2700 X216.000 Y95.716 E548.88957
G0 F12000 X216.500 Y95.716
G1 F2700 X216.500 Y86.441 E549.27518
G0 F12000 X217.000 Y86.441
G1 F2700 X217.000 Y95.716 E549.66079
G0 F12000 X217.500 Y95.716
G1 F2700 X217.500 Y86.441 E550.04640
G0 F12000 X218.000 Y86.441
G1 F2700 X218.000 Y95.716 E550.43201
G0 F12000 X218.500 Y95.716
G1 F2700 X218.500 Y86.440 E550.81766
G0 F12000 X219.000 Y86.418
G1 F2700 X219.000 Y95.716 E551.20423
G0 F12000 X219.500 Y95.716
G1 F2700 X219.500 Y86.352 E551.59354
G1 F2100 E551.19354
G0 F12000 X213.500 Y80.113
G1 F2100 E551.59354
G1 F2700 X213.500 Y73.394 E551.87288
G0 F12000 X214.000 Y73.602
G1 F2700 X214.000 Y79.905 E552.13493
G0 F12000 X214.500 Y79.816
G1 F2700 X214.500 Y73.691 E552.38958
G0 F12000 X215.000 Y73.741
G1 F2700 X215.000 Y79.770 E552.64023
G0 F12000 X215.500 Y79.765
G1 F2700 X215.500 Y73.741 E552.89068
G0 F12000 X216.000 Y73.741
G1 F2700 X216.000 Y79.765 E553.14113
G0 F12000 X216.500 Y79.765
G1 F2700 X216.500 Y73.741 E553.39158
G0 F12000 X217.000 Y73.741
G1 F2700 X217.000 Y79.765 E553.64203
G0 F12000 X217.500 Y79.765
G1 F2700 X217.500 Y73.741 E553.89248
G0 F12000 X218.000 Y73.741
G1 F2700 X218.000 Y79.765 E554.14293
G0 F12000 X218.500 Y79.765
G1 F2700 X218.500 Y73.740 E554.39342
G0 F12000 X219.000 Y73.718
G1 F2700 X219.000 Y79.788 E554.64578
G0 F12000 X219.500 Y79.853
G1 F2700 X219.500 Y73.652 E554.90358
G1 F2100 E554.50358
G0 F12000 X213.000 Y73.088
G1 F2100 E554.90358
G1 F2700 X213.000 Y80.419 E555.20837
G0 F12000 X212.500 Y80.847
G1 F2700 X212.500 Y72.660 E555.54875
G0 F12000 X212.000 Y71.953
G1 F2700 X212.000 Y81.553 E555.94787
G1 F2100 E555.54787
G0 F12000 X207.000 Y75.733
G1 F2100 E555.94787
G1 F2700 X207.000 Y56.572 E556.74449
G0 F12000 X206.500 Y55.706
G1 F2700 X206.500 Y74.867 E557.54111
G0 F12000 X206.000 Y74.000
G1 F2700 X206.000 Y54.841 E558.33765
G0 F12000 X205.500 Y53.975
G1 F2700 X205.500 Y73.134 E559.13419
G0 F12000 X205.000 Y72.268
G1 F2700 X205.000 Y53.110 E559.93069
G0 F12000 X204.500 Y52.244
G1 F2700 X204.500 Y71.402 E560.72718
G0 F12000 X204.000 Y70.535
G1 F2700 X204.000 Y51.379 E561.52360
G0 F12000 X203.500 Y50.513
G1 F2700 X203.500 Y69.669 E562.32001
G0 F12000 X203.000 Y68.803
G1 F2700 X203.000 Y50.284 E563.08994
G0 F12000 X202.500 Y50.573
G1 F2700 X202.500 Y67.937 E563.81185
G0 F12000 X202.000 Y67.070
G1 F2700 X202.000 Y50.861 E564.48575
G0 F12000 X201.500 Y51.150
G1 F2700 X201.500 Y66.204 E565.11162
G0 F12000 X201.000 Y65.338
G1 F2700 X201.000 Y51.439 E565.68947
G0 F12000 X200.500 Y51.727
G1 F2700 X200.500 Y64.472 E566.21935
G0 F12000 X200.000 Y63.605
G1 F2700 X200.000 Y52.016 E566.70116
G0 F12000 X199.500 Y52.305
G1 F2700 X199.500 Y63.366 E567.16103
G0 F12000 X199.000 Y63.655
G1 F2700 X199.000 Y52.593 E567.62093
G0 F12000 X198.500 Y52.882
G1 F2700 X198.500 Y63.943 E568.08079
G0 F12000 X198.000 Y64.232
G1 F2700 X198.000 Y53.171 E568.54066
G0 F12000 X197.500 Y53.459
G1 F2700 X197.500 Y64.521 E569.00056
G0 F12000 X197.000 Y64.809
G1 F2700 X197.000 Y53.748 E569.46042
G0 F12000 X196.500 Y54.037
G1 F2700 X196.500 Y65.098 E569.92029
G0 F12000 X196.000 Y65.387
G1 F2700 X196.000 Y54.325 E570.38019
G0 F12000 X195.500 Y54.614
G1 F2700 X195.500 Y65.675 E570.84005
G0 F12000 X195.000 Y65.964
G1 F2700 X195.000 Y54.903 E571.29992
G0 F12000 X194.500 Y55.191
G1 F2700 X194.500 Y66.252 E571.75978
G0 F12000 X194.000 Y66.541
G1 F2700 X194.000 Y55.480 E572.21964
G0 F12000 X193.500 Y55.769
G1 F2700 X193.500 Y66.830 E572.67951
G0 F12000 X193.000 Y67.118
G1 F2700 X193.000 Y56.058 E573.13933
G0 F12000 X192.500 Y56.346
G1 F2700 X192.500 Y67.407 E573.59919
G0 F12000 X192.000 Y67.696
G1 F2700 X192.000 Y56.635 E574.05905
G0 F12000 X191.500 Y56.924
G1 F2700 X191.500 Y67.984 E574.51887
G0 F12000 X191.000 Y68.273
G1 F2700 X191.000 Y57.212 E574.97874
G0 F12000 X190.500 Y57.501
G1 F2700 X190.500 Y68.562 E575.43860
G0 F12000 X190.000 Y68.850
G1 F2700 X190.000 Y57.790 E575.89842
G0 F12000 X189.500 Y58.078
G1 F2700 X189.500 Y69.139 E576.35828
G0 F12000 X189.000 Y69.428
G1 F2700 X189.000 Y58.367 E576.81815
G0 F12000 X188.500 Y58.656
G1 F2700 X188.500 Y69.184 E577.25585
G0 F12000 X188.000 Y68.318
G1 F2700 X188.000 Y58.944 E577.64558
G0 F12000 X187.500 Y59.233
G1 F2700 X187.500 Y67.453 E577.98732
G0 F12000 X187.000 Y66.587
G1 F2700 X187.000 Y59.522 E578.28105
G0 F12000 X186.500 Y59.810
G1 F2700 X186.500 Y65.721 E578.52680
G0 F12000 X186.000 Y64.855
G1 F2700 X186.000 Y60.099 E578.72453
G0 F12000 X185.500 Y60.388
G1 F2700 X185.500 Y63.990 E578.87429
G0 F12000 X185.000 Y63.124
G1 F2700 X185.000 Y60.676 E578.97606
G0 F12000 X184.500 Y60.965
G1 F2700 X184.500 Y62.258 E579.02982
G0 F12000 X184.000 Y61.392
G1 F2700 X184.000 Y61.254 E579.03556
G1 F2100 E578.63556
G0 F12000 X181.000 Y63.901
G1 F2100 E579.03556
G1 F2700 X181.000 Y90.133 E580.12616
G0 F12000 X180.500 Y89.267
G1 F2700 X180.500 Y63.272 E581.20690
G0 F12000 X180.000 Y63.561
G1 F2700 X180.000 Y88.401 E582.23963
G1 F2100 E581.83963
G0 F12000 X181.500 Y90.999
G1 F2100 E582.23963
G1 F2700 X181.500 Y64.767 E583.33023
G0 F12000 X182.000 Y65.633
G1 F2700 X182.000 Y91.865 E584.42083
G0 F12000 X182.500 Y92.731
G1 F2700 X182.500 Y73.575 E585.21725
G0 F12000 X182.500 Y73.178
G1 F2700 X182.500 Y66.499 E585.49493
G0 F12000 X183.000 Y67.364
G1 F2700 X183.000 Y72.890 E585.72467
G0 F12000 X183.500 Y72.601
G1 F2700 X183.500 Y68.230 E585.90640
G0 F12000 X184.000 Y69.096
G1 F2700 X184.000 Y72.312 E586.04010
G0 F12000 X184.500 Y72.024
G1 F2700 X184.500 Y69.962 E586.12583
G0 F12000 X185.000 Y70.828
G1 F2700 X185.000 Y71.735 E586.16354
G1 F2100 E585.76354
G0 F12000 X183.000 Y74.442
G1 F2100 E586.16354
G1 F2700 X183.000 Y93.597 E586.95991
G0 F12000 X183.500 Y94.463
G1 F2700 X183.500 Y75.308 E587.75628
G0 F12000 X184.000 Y76.174
G1 F2700 X184.000 Y95.329 E588.55266
G0 F12000 X184.500 Y95.716
G1 F2700 X184.500 Y77.040 E589.32911
G0 F12000 X185.000 Y77.906
G1 F2700 X185.000 Y95.716 E590.06957
G0 F12000 X185.500 Y95.716
G1 F2700 X185.500 Y78.772 E590.77402
G0 F12000 X186.000 Y79.638
G1 F2700 X186.000 Y95.716 E591.44246
G0 F12000 X186.500 Y95.716
G1 F2700 X186.500 Y80.504 E592.07490
G0 F12000 X187.000 Y81.370
G1 F2700 X187.000 Y95.716 E592.67134
G0 F12000 X187.500 Y95.716
G1 F2700 X187.500 Y82.237 E593.23173
G0 F12000 X188.000 Y83.103
G1 F2700 X188.000 Y95.716 E593.75612
G0 F12000 X188.500 Y95.716
G1 F2700 X188.500 Y83.969 E594.24450
G0 F12000 X189.000 Y84.835
G1 F2700 X189.000 Y95.716 E594.69688
G0 F12000 X189.500 Y95.716
G1 F2700 X189.500 Y85.701 E595.11326
G0 F12000 X190.000 Y86.567
G1 F2700 X190.000 Y95.716 E595.49363
G0 F12000 X190.500 Y95.716
G1 F2700 X190.500 Y86.861 E595.86178
G0 F12000 X191.000 Y87.089
G1 F2700 X191.000 Y95.716 E596.22045
G0 F12000 X191.500 Y95.716
G1 F2700 X191.500 Y87.317 E596.56964
G0 F12000 X192.000 Y87.546
G1 F2700 X192.000 Y95.716 E596.90931
G0 F12000 X192.500 Y95.716
G1 F2700 X192.500 Y87.774 E597.23950
G0 F12000 X193.000 Y87.916
G1 F2700 X193.000 Y95.716 E597.56378
G0 F12000 X193.500 Y95.716
G1 F2700 X193.500 Y88.013 E597.88404
G0 F12000 X194.000 Y88.109
G1 F2700 X194.000 Y95.716 E598.20030
G0 F12000 X194.500 Y95.716
G1 F2700 X194.500 Y88.206 E598.51253
G0 F12000 X195.000 Y88.303
G1 F2700 X195.000 Y95.716 E598.82072
G0 F12000 X195.500 Y95.716
G1 F2700 X195.500 Y88.355 E599.12676
G0 F12000 X196.000 Y88.331
G1 F2700 X196.000 Y95.716 E599.43379
G0 F12000 X196.500 Y95.716
G1 F2700 X196.500 Y88.307 E599.74182
G0 F12000 X197.000 Y88.284
G1 F2700 X197.000 Y95.716 E600.05081
G0 F12000 X197.500 Y95.716
G1 F2700 X197.500 Y88.260 E600.36079
G0 F12000 X198.000 Y88.236
G1 F2700 X198.000 Y95.716 E600.67178
G0 F12000 X198.500 Y95.716
G1 F2700 X198.500 Y88.092 E600.98874
G0 F12000 X199.000 Y87.946
G1 F2700 X199.000 Y95.716 E601.31178
G0 F12000 X199.500 Y95.716
G1 F2700 X199.500 Y87.799 E601.64093
G1 F2100 E601.24093
G0 F12000 X179.500 Y87.535
G1 F2100 E601.64093
G1 F2700 X179.500 Y63.850 E602.62564
G0 F12000 X179.000 Y64.138
G1 F2700 X179.000 Y86.669 E603.56237
G0 F12000 X178.500 Y85.803
G1 F2700 X178.500 Y64.427 E604.45108
G0 F12000 X178.000 Y64.716
G1 F2700 X178.000 Y84.937 E605.29177
G0 F12000 X177.500 Y84.071
G1 F2700 X177.500 Y65.005 E606.08445
G0 F12000 X177.000 Y65.293
G1 F2700 X177.000 Y83.205 E606.82914
G0 F12000 X176.500 Y82.339
G1 F2700 X176.500 Y65.582 E607.52582
G0 F12000 X176.000 Y65.871
G1 F2700 X176.000 Y81.473 E608.17447
G0 F12000 X175.500 Y80.607
G1 F2700 X175.500 Y66.160 E608.77511
G0 F12000 X175.000 Y66.449
G1 F2700 X175.000 Y79.741 E609.32773
G0 F12000 X174.500 Y78.875
G1 F2700 X174.500 Y66.737 E609.83236
G0 F12000 X174.000 Y67.026
G1 F2700 X174.000 Y78.009 E610.28898
G0 F12000 X173.500 Y77.142
