;-- START GCODE --
;Sliced for Type A Machines Series 1
;Sliced at: Mon 01-02-2016 18:24:15
;Basic settings: Layer height: 0.15 Walls: 1.5 Fill: 25
;Print Speed: 100 Support: 0
;Retraction Speed: 40 Retraction Distance: 1.4
;Print time: 31 minutes
;Filament used: 2.963m 8.0g
;Filament cost: None
G21        ;metric values
G90        ;absolute positioning
G28     ;move to endstops
G29		;allows for auto-levelling
G1 X150 Y5  Z15.0 F7200 ;center and move the platform down 15mm
M140 S75 ;Prep Heat Bed
M109 S195 ;Heat To temp
M190 S75 ;Heat Bed to temp
G1 X150 Y5 Z0.3 ;move the platform to purge extrusion
G92 E0 ;zero the extruded length
G1 F200 X250 E30 ;extrude 30mm of feed stock
G92 E0 ;zero the extruded length again
G1 X150 Y150  Z25 F12000 ;recenter and begin
G1 F7200

;Layer count: 42
;LAYER:0
M107
G0 F7200 X115.28 Y107.97 Z0.25
;TYPE:SKIRT
G1 F2700 X115.28 Y113.01 E0.31437
G1 X121.92 Y113.01 E0.72809
G1 X121.92 Y107.97 E1.04239
G1 X121.52 Y107.81 E1.06882
G1 X120.81 Y107.59 E1.11522
G1 X120.10 Y107.44 E1.16089
G1 X119.36 Y107.35 E1.20735
G1 X118.58 Y107.31 E1.25573
G1 X117.87 Y107.34 E1.29998
G1 X117.15 Y107.43 E1.34542
G1 X116.42 Y107.58 E1.39168
G1 X115.72 Y107.79 E1.43750
G1 X115.28 Y107.97 E1.46670
G0 F7200 X114.79 Y107.52
G1 F2700 X114.68 Y107.57 E1.47401
G1 X114.68 Y113.61 E1.85062
G1 X122.52 Y113.61 E2.33917
G1 X122.52 Y107.56 E2.71590
G1 X122.45 Y107.53 E2.72036
G1 X121.72 Y107.24 E2.76941
G1 X120.97 Y107.02 E2.81847
G1 X120.19 Y106.85 E2.86810
G1 X119.41 Y106.75 E2.91733
G1 X118.59 Y106.71 E2.96814
G1 X117.81 Y106.74 E3.01720
G1 X117.06 Y106.84 E3.06409
G1 X116.27 Y107.00 E3.11437
G1 X115.53 Y107.22 E3.16279
G1 X114.79 Y107.52 E3.21241
G0 F7200 X114.55 Y106.96
G1 F2700 X114.08 Y107.19 E3.24510
G1 X114.08 Y114.21 E3.68239
G1 X123.12 Y114.21 E4.24577
G1 X123.12 Y107.19 E4.68318
G1 X122.71 Y106.99 E4.71171
G1 X121.92 Y106.67 E4.76493
G1 X121.12 Y106.43 E4.81699
G1 X120.30 Y106.26 E4.86923
G1 X119.46 Y106.15 E4.92166
G1 X118.59 Y106.11 E4.97628
G1 X117.77 Y106.14 E5.02734
G1 X116.96 Y106.25 E5.07832
G1 X116.13 Y106.42 E5.13134
G1 X115.33 Y106.66 E5.18327
G1 X114.55 Y106.96 E5.23516
G0 F7200 X114.31 Y106.41
G1 F2700 X113.51 Y106.81 E5.29072
G1 X113.48 Y106.82 E5.29254
G1 X113.48 Y114.81 E5.79038
G1 X123.72 Y114.81 E6.42860
G1 X123.72 Y106.82 E6.92663
G1 X123.71 Y106.81 E6.92722
G1 X122.95 Y106.44 E6.98024
G1 X122.12 Y106.11 E7.03566
G1 X121.26 Y105.85 E7.09183
G1 X120.39 Y105.66 E7.14713
G1 X119.52 Y105.55 E7.20214
G1 X118.59 Y105.51 E7.25988
G1 X117.72 Y105.55 E7.31449
G1 X116.86 Y105.65 E7.36848
G1 X115.97 Y105.84 E7.42482
G1 X115.13 Y106.09 E7.47973
G1 X114.31 Y106.41 E7.53487
G0 F7200 X114.05 Y105.87
G1 F2700 X113.22 Y106.28 E7.59263
G1 X112.88 Y106.48 E7.61727
G1 X112.88 Y115.41 E8.17380
G1 X124.32 Y115.41 E8.88685
G1 X124.32 Y106.48 E9.44338
G1 X124.01 Y106.29 E9.46604
G1 X123.18 Y105.89 E9.52346
G1 X122.32 Y105.54 E9.58122
G1 X121.42 Y105.27 E9.64007
G1 X120.49 Y105.07 E9.69933
G1 X119.57 Y104.95 E9.75692
G1 X118.58 Y104.91 E9.81859
G1 X117.67 Y104.95 E9.87595
G1 X116.77 Y105.06 E9.93233
G1 X115.83 Y105.26 E9.99230
G1 X114.94 Y105.52 E10.04976
G1 X114.05 Y105.87 E10.10943
G0 F7200 X113.82 Y105.32
G1 F2700 X112.93 Y105.75 E10.17110
G1 X112.28 Y106.14 E10.21820
G1 X112.28 Y116.01 E10.83335
G1 X124.92 Y116.01 E11.62124
G1 X124.92 Y106.14 E12.23626
G1 X124.29 Y105.76 E12.28226
G1 X123.44 Y105.34 E12.34105
G1 X122.51 Y104.97 E12.40345
G1 X121.56 Y104.69 E12.46535
G1 X120.60 Y104.48 E12.52698
G1 X119.61 Y104.35 E12.58865
G1 X118.60 Y104.31 E12.65195
G1 X117.61 Y104.35 E12.71355
G1 X116.66 Y104.47 E12.77364
G1 X115.69 Y104.67 E12.83552
G1 X114.75 Y104.95 E12.89662
G1 X113.82 Y105.32 E12.95882
G0 F7200 X113.58 Y104.77
G1 F2700 X112.64 Y105.23 E13.02431
G1 X111.76 Y105.76 E13.08864
G1 X111.68 Y105.81 E13.09418
G1 X111.68 Y116.61 E13.76738
G1 X125.52 Y116.61 E14.63011
G1 X125.52 Y105.81 E15.30350
G1 X125.50 Y105.79 E15.30525
G1 X124.58 Y105.23 E15.37227
G1 X123.69 Y104.80 E15.43418
G1 X122.70 Y104.41 E15.50008
G1 X121.72 Y104.11 E15.56439
G1 X120.70 Y103.89 E15.62913
G1 X119.67 Y103.76 E15.69401
G1 X118.59 Y103.71 E15.76125
G1 X117.58 Y103.75 E15.82479
G1 X116.56 Y103.88 E15.88883
G1 X115.54 Y104.09 E15.95377
G1 X114.55 Y104.39 E16.01819
G1 X113.58 Y104.77 E16.08276
G0 F7200 X113.34 Y104.22
G1 F2700 X112.35 Y104.70 E16.15146
G1 X111.42 Y105.26 E16.21880
G1 X111.08 Y105.50 E16.24489
G1 X111.08 Y117.21 E16.97472
G1 X126.12 Y117.21 E17.91228
G1 X126.12 Y105.50 E18.64217
G1 X125.83 Y105.29 E18.66445
G1 X124.86 Y104.71 E18.73504
G1 X123.93 Y104.24 E18.80005
G1 X122.91 Y103.84 E18.86816
G1 X121.87 Y103.53 E18.93573
G1 X120.80 Y103.30 E19.00449
G1 X119.72 Y103.16 E19.07183
G1 X118.60 Y103.11 E19.14224
G1 X117.51 Y103.15 E19.21002
G1 X116.47 Y103.28 E19.27570
G1 X115.39 Y103.51 E19.34421
G1 X114.36 Y103.82 E19.41155
G1 X113.34 Y104.22 E19.47974
G0 F7200 X113.09 Y103.67
G1 F2700 X112.07 Y104.17 E19.55094
G1 X111.10 Y104.75 E19.62142
G1 X110.48 Y105.20 E19.66873
G1 X110.48 Y117.81 E20.45506
G1 X126.72 Y117.81 E21.46746
G1 X126.72 Y105.20 E22.25385
G1 X126.16 Y104.79 E22.29667
G1 X125.16 Y104.19 E22.36951
G1 X124.17 Y103.70 E22.43862
G1 X123.10 Y103.27 E22.51048
G1 X122.02 Y102.94 E22.58073
G1 X120.90 Y102.70 E22.65204
G1 X119.77 Y102.56 E22.72340
G1 X118.59 Y102.51 E22.79699
G1 X117.47 Y102.55 E22.86677
G1 X116.37 Y102.69 E22.93623
G1 X115.24 Y102.93 E23.00811
G1 X114.16 Y103.25 E23.07833
G1 X113.09 Y103.67 E23.14971
G0 F7200 X112.86 Y103.12
G1 F2700 X111.78 Y103.65 E23.22471
G1 X110.77 Y104.25 E23.29827
G1 X109.88 Y104.89 E23.36612
G1 X109.88 Y118.41 E24.20902
G1 X127.32 Y118.41 E25.29625
G1 X127.32 Y104.89 E26.13921
G1 X126.50 Y104.29 E26.20249
G1 X125.47 Y103.67 E26.27764
G1 X125.45 Y103.66 E26.27899
G1 X124.41 Y103.15 E26.35086
G1 X123.30 Y102.71 E26.42547
G1 X122.17 Y102.36 E26.49956
G1 X121.01 Y102.11 E26.57317
G1 X119.82 Y101.96 E26.64793
G1 X118.62 Y101.91 E26.72296
G1 X118.60 Y101.91 E26.72415
G1 X117.43 Y101.95 E26.79712
G1 X117.43 Y101.95 E26.79718
G1 X117.42 Y101.95 E26.79774
G1 X116.27 Y102.10 E26.87040
G1 X115.09 Y102.35 E26.94547
G1 X113.96 Y102.69 E27.01907
G1 X112.86 Y103.12 E27.09281
G0 F7200 X111.89 Y99.43
G1 F2700 X113.18 Y98.97 E27.17804
G1 X114.50 Y98.61 E27.26326
G1 X115.84 Y98.34 E27.34846
G1 X117.20 Y98.19 E27.43377
G1 X118.55 Y98.13 E27.51797
G1 X118.60 Y98.13 E27.52122
G1 X119.92 Y98.18 E27.60365
G1 X119.97 Y98.18 E27.60671
G1 X121.29 Y98.33 E27.68944
G1 X122.63 Y98.59 E27.77463
G1 X123.95 Y98.94 E27.85987
G1 X125.24 Y99.40 E27.94518
G1 X126.49 Y99.95 E28.03031
G1 X127.69 Y100.59 E28.11566
G1 X128.85 Y101.33 E28.20084
G1 X129.94 Y102.15 E28.28603
G1 X130.96 Y103.04 E28.37071
G1 X131.09 Y103.16 E28.38153
G1 X131.09 Y122.18 E29.56805
G1 X106.11 Y122.18 E31.12612
G1 X106.11 Y103.15 E32.31276
G1 X107.20 Y102.19 E32.40339
G1 X108.29 Y101.37 E32.48853
G1 X109.44 Y100.63 E32.57381
G1 X110.64 Y99.98 E32.65908
G1 X111.89 Y99.43 E32.74431
G0 F7200 X111.67 Y98.87
G1 F2700 X113.00 Y98.39 E32.83234
G1 X114.36 Y98.02 E32.92041
G1 X115.75 Y97.75 E33.00846
G1 X117.15 Y97.59 E33.09660
G1 X118.52 Y97.53 E33.18179
G1 X118.59 Y97.53 E33.18667
G1 X119.95 Y97.58 E33.27110
G1 X120.02 Y97.58 E33.27560
G1 X121.38 Y97.74 E33.36084
G1 X122.76 Y98.00 E33.44881
G1 X124.13 Y98.37 E33.53690
G1 X125.46 Y98.84 E33.62505
G1 X126.75 Y99.41 E33.71303
G1 X128.00 Y100.08 E33.80122
G1 X129.19 Y100.83 E33.88921
G1 X130.32 Y101.68 E33.97721
G1 X131.36 Y102.59 E34.06353
G1 X131.69 Y102.89 E34.09131
G1 X131.69 Y122.78 E35.33201
G1 X105.51 Y122.78 E36.96492
G1 X105.51 Y102.88 E38.20594
G1 X106.82 Y101.73 E38.31487
G1 X107.95 Y100.88 E38.40285
G1 X109.14 Y100.11 E38.49094
G1 X110.38 Y99.44 E38.57905
G1 X111.67 Y98.87 E38.66713
G0 F7200 X111.45 Y98.31
G1 F2700 X112.82 Y97.82 E38.75803
G1 X114.22 Y97.44 E38.84894
G1 X115.66 Y97.16 E38.93983
G1 X117.10 Y96.99 E39.03081
G1 X118.50 Y96.93 E39.11813
G1 X118.59 Y96.93 E39.12356
G1 X119.97 Y96.98 E39.20993
G1 X120.07 Y96.99 E39.21586
G1 X121.47 Y97.15 E39.30361
G1 X122.90 Y97.42 E39.39439
G1 X124.31 Y97.80 E39.48530
G1 X125.68 Y98.28 E39.57629
G1 X127.01 Y98.87 E39.66715
G1 X128.30 Y99.56 E39.75816
G1 X129.53 Y100.34 E39.84898
G1 X130.70 Y101.21 E39.93983
G1 X131.76 Y102.14 E40.02778
G1 X132.29 Y102.62 E40.07248
G1 X132.29 Y123.38 E41.36738
G1 X104.91 Y123.38 E43.07513
G1 X104.91 Y102.61 E44.37046
G1 X106.44 Y101.26 E44.49777
G1 X107.60 Y100.39 E44.58847
G1 X108.83 Y99.60 E44.67945
G1 X110.11 Y98.91 E44.77041
G1 X111.45 Y98.31 E44.86128
G0 F7200 X111.22 Y97.76
G1 F2700 X112.64 Y97.25 E44.95502
G1 X114.09 Y96.85 E45.04877
G1 X115.56 Y96.56 E45.14248
G1 X117.06 Y96.39 E45.23634
G1 X118.45 Y96.34 E45.32340
G1 X118.58 Y96.33 E45.33165
G1 X120.00 Y96.38 E45.42001
G1 X120.12 Y96.39 E45.42732
G1 X121.56 Y96.55 E45.51770
G1 X123.03 Y96.83 E45.61122
G1 X124.48 Y97.22 E45.70498
G1 X125.90 Y97.72 E45.79880
G1 X127.28 Y98.33 E45.89254
G1 X128.60 Y99.04 E45.98636
G1 X129.87 Y99.85 E46.07999
G1 X131.07 Y100.75 E46.17365
G1 X132.16 Y101.69 E46.26324
G1 X132.89 Y102.35 E46.32494
G1 X132.89 Y123.98 E47.67397
G1 X104.31 Y123.98 E49.45655
G1 X104.31 Y102.34 E50.80626
G1 X106.06 Y100.80 E50.95187
G1 X107.26 Y99.89 E51.04542
G1 X108.53 Y99.08 E51.13919
G1 X109.85 Y98.37 E51.23300
G1 X111.22 Y97.76 E51.32672
G0 F7200 X111.00 Y97.20
G1 F2700 X112.46 Y96.68 E51.42330
G1 X113.95 Y96.27 E51.51990
G1 X115.47 Y95.97 E51.61652
G1 X117.01 Y95.79 E51.71314
G1 X118.45 Y95.73 E51.80320
G1 X118.58 Y95.73 E51.81114
G1 X120.03 Y95.78 E51.90144
G1 X120.17 Y95.79 E51.91018
G1 X121.65 Y95.96 E52.00308
G1 X123.17 Y96.25 E52.09943
G1 X124.66 Y96.65 E52.19598
G1 X126.12 Y97.17 E52.29266
G1 X127.54 Y97.79 E52.38925
G1 X128.91 Y98.52 E52.48592
G1 X130.21 Y99.35 E52.58240
G1 X131.45 Y100.28 E52.67887
G1 X132.55 Y101.24 E52.77004
G1 X133.49 Y102.08 E52.84871
G1 X133.49 Y124.58 E54.25193
G1 X103.71 Y124.58 E56.10934
G1 X103.71 Y102.07 E57.51344
G1 X105.69 Y100.33 E57.67739
G1 X106.92 Y99.40 E57.77370
G1 X108.22 Y98.56 E57.87032
G1 X109.58 Y97.83 E57.96697
G1 X111.00 Y97.20 E58.06351
G0 F7200 X110.78 Y96.64
G1 F2700 X112.28 Y96.10 E58.16287
G1 X113.81 Y95.68 E58.26239
G1 X115.38 Y95.38 E58.36181
G1 X116.96 Y95.19 E58.46125
G1 X118.42 Y95.14 E58.55206
G1 X118.58 Y95.13 E58.56186
G1 X120.06 Y95.18 E58.65416
G1 X120.22 Y95.19 E58.66434
G1 X121.74 Y95.36 E58.75975
G1 X123.30 Y95.66 E58.85890
G1 X124.84 Y96.08 E58.95823
G1 X126.34 Y96.61 E59.05782
G1 X127.80 Y97.25 E59.15725
G1 X129.21 Y98.00 E59.25674
G1 X130.55 Y98.86 E59.35606
G1 X131.83 Y99.81 E59.45533
G1 X132.95 Y100.79 E59.54823
G1 X134.09 Y101.81 E59.64377
G1 X134.09 Y125.18 E61.10118
G1 X123.02 Y125.18 E61.79185
G1 X124.10 Y125.45 E61.86149
G1 X125.53 Y125.93 E61.95518
G1 X126.91 Y126.52 E62.04885
G1 X128.12 Y127.16 E62.13441
G1 X128.27 Y127.25 E62.14510
G1 X129.50 Y128.03 E62.23637
G1 X130.57 Y128.85 E62.32002
G1 X130.72 Y128.96 E62.33165
G1 X131.81 Y129.95 E62.42388
G1 X132.79 Y130.98 E62.51238
G1 X132.93 Y131.14 E62.52541
G1 X134.44 Y133.05 E62.67733
G1 X134.44 Y155.75 E64.09328
G1 X103.46 Y155.75 E66.02552
G1 X103.46 Y133.05 E67.44147
G1 X105.01 Y131.10 E67.59644
G1 X106.03 Y130.01 E67.68993
G1 X107.14 Y129.00 E67.78366
G1 X108.34 Y128.08 E67.87746
G1 X109.60 Y127.27 E67.97102
G1 X110.92 Y126.56 E68.06472
G1 X112.30 Y125.96 E68.15844
G1 X113.72 Y125.47 E68.25220
G1 X114.88 Y125.18 E68.32668
G1 X103.11 Y125.18 E69.06087
G1 X103.11 Y101.80 E70.51929
G1 X105.31 Y99.87 E70.70162
G1 X106.57 Y98.91 E70.80069
G1 X107.92 Y98.05 E70.90015
G1 X109.32 Y97.29 E70.99966
G1 X110.78 Y96.64 E71.09904
G0 F7200 X110.55 Y96.08
G1 F2700 X112.10 Y95.53 E71.20132
G1 X113.68 Y95.10 E71.30361
G1 X115.29 Y94.78 E71.40589
G1 X116.92 Y94.60 E71.50816
G1 X118.36 Y94.54 E71.59847
G1 X118.57 Y94.53 E71.61146
G1 X120.08 Y94.58 E71.70570
G1 X120.27 Y94.59 E71.71731
G1 X121.83 Y94.77 E71.81523
G1 X123.43 Y95.08 E71.91718
G1 X125.02 Y95.50 E72.01933
G1 X126.56 Y96.05 E72.12176
G1 X128.07 Y96.71 E72.22406
G1 X129.51 Y97.48 E72.32640
G1 X130.89 Y98.36 E72.42852
G1 X132.21 Y99.34 E72.53065
G1 X133.35 Y100.34 E72.62514
G1 X134.69 Y101.54 E72.73768
G1 X134.69 Y125.78 E74.24923
G1 X126.70 Y125.78 E74.74757
G1 X127.17 Y125.98 E74.77900
G1 X128.40 Y126.64 E74.86618
G1 X128.57 Y126.73 E74.87840
G1 X129.84 Y127.54 E74.97264
G1 X130.95 Y128.38 E75.05933
G1 X131.10 Y128.50 E75.07087
G1 X132.23 Y129.52 E75.16632
G1 X133.23 Y130.58 E75.25689
G1 X133.39 Y130.75 E75.27151
G1 X135.04 Y132.84 E75.43750
G1 X135.04 Y156.35 E76.90390
G1 X102.86 Y156.35 E78.91098
G1 X102.86 Y132.84 E80.37744
G1 X104.55 Y130.71 E80.54702
G1 X105.61 Y129.58 E80.64347
G1 X106.76 Y128.54 E80.74024
G1 X107.99 Y127.59 E80.83711
G1 X109.29 Y126.75 E80.93374
G1 X110.66 Y126.02 E81.03047
G1 X111.20 Y125.78 E81.06747
G1 X102.51 Y125.78 E81.60978
G1 X102.51 Y101.52 E83.12258
G1 X104.93 Y99.40 E83.32320
G1 X106.23 Y98.42 E83.42508
G1 X107.61 Y97.53 E83.52742
G1 X109.06 Y96.75 E83.62974
G1 X110.55 Y96.08 E83.73192
G0 F7200 X110.33 Y95.53
G1 F2700 X111.92 Y94.96 E83.83700
G1 X113.54 Y94.51 E83.94213
G1 X115.20 Y94.19 E84.04726
G1 X116.87 Y94.00 E84.15242
G1 X118.33 Y93.94 E84.24323
G1 X118.57 Y93.93 E84.25828
G1 X120.11 Y93.98 E84.35451
G1 X120.32 Y94.00 E84.36756
G1 X121.92 Y94.18 E84.46799
G1 X123.57 Y94.49 E84.57274
G1 X125.19 Y94.93 E84.67774
G1 X126.79 Y95.49 E84.78300
G1 X128.33 Y96.17 E84.88810
G1 X129.82 Y96.97 E84.99334
G1 X131.24 Y97.87 E85.09827
G1 X132.58 Y98.88 E85.20320
G1 X133.74 Y99.89 E85.29933
G1 X135.29 Y101.27 E85.42883
G1 X135.29 Y126.38 E86.99457
G1 X129.15 Y126.38 E87.37798
G1 X130.19 Y127.05 E87.45539
G1 X131.29 Y127.89 E87.54149
G1 X131.48 Y128.03 E87.55654
G1 X132.65 Y129.09 E87.65518
G1 X133.68 Y130.17 E87.74787
G1 X133.85 Y130.37 E87.76408
G1 X135.64 Y132.63 E87.94405
G1 X135.64 Y156.95 E89.46096
G1 X102.26 Y156.95 E91.54288
G1 X102.26 Y132.63 E93.05985
G1 X104.10 Y130.32 E93.24399
G1 X105.19 Y129.15 E93.34348
G1 X106.38 Y128.08 E93.44330
G1 X107.65 Y127.10 E93.54323
G1 X108.76 Y126.38 E93.62592
G1 X101.91 Y126.38 E94.05316
G1 X101.91 Y101.25 E95.62034
G1 X104.55 Y98.94 E95.83926
G1 X105.89 Y97.92 E95.94394
G1 X107.31 Y97.01 E96.04914
G1 X108.79 Y96.21 E96.15433
G1 X110.33 Y95.53 E96.25932
G0 F7200 X110.11 Y94.97
G1 F2700 X111.73 Y94.39 E96.36722
G1 X113.41 Y93.93 E96.47527
G1 X115.10 Y93.60 E96.58321
G1 X116.82 Y93.40 E96.69119
G1 X118.33 Y93.34 E96.78537
G1 X118.56 Y93.33 E96.79973
G1 X120.14 Y93.39 E96.89790
G1 X120.37 Y93.40 E96.91232
G1 X122.01 Y93.58 E97.01532
G1 X123.70 Y93.91 E97.12286
G1 X125.37 Y94.36 E97.23070
G1 X127.01 Y94.93 E97.33883
G1 X128.59 Y95.63 E97.44678
G1 X130.12 Y96.45 E97.55483
G1 X131.58 Y97.38 E97.66265
G1 X132.96 Y98.41 E97.77039
G1 X134.14 Y99.44 E97.86811
G1 X135.89 Y101.01 E98.01461
G1 X135.89 Y126.98 E99.63448
G1 X131.09 Y126.98 E99.93413
G1 X131.68 Y127.43 E99.98037
G1 X131.86 Y127.57 E99.99480
G1 X133.07 Y128.66 E100.09662
G1 X134.12 Y129.77 E100.19142
G1 X134.31 Y129.98 E100.20923
G1 X136.24 Y132.42 E100.40326
G1 X136.24 Y157.55 E101.97063
G1 X101.66 Y157.55 E104.12738
G1 X101.66 Y132.42 E105.69487
G1 X103.64 Y129.92 E105.89355
G1 X104.77 Y128.72 E105.99609
G1 X105.99 Y127.61 E106.09896
G1 X106.82 Y126.98 E106.16389
G1 X101.31 Y126.98 E106.50732
G1 X101.31 Y100.98 E108.12882
G1 X104.17 Y98.47 E108.36607
G1 X105.54 Y97.43 E108.47356
G1 X107.00 Y96.50 E108.58159
G1 X108.53 Y95.67 E108.68963
G1 X110.11 Y94.97 E108.79745
G0 F7200 X109.88 Y94.41
G1 F2700 X111.55 Y93.81 E108.90821
G1 X113.27 Y93.34 E109.01903
G1 X115.01 Y93.00 E109.12982
G1 X116.78 Y92.80 E109.24063
G1 X118.28 Y92.74 E109.33413
G1 X118.56 Y92.72 E109.35180
G1 X120.16 Y92.79 E109.45196
G1 X120.42 Y92.80 E109.46783
G1 X122.10 Y92.99 E109.57334
G1 X123.84 Y93.32 E109.68366
G1 X125.55 Y93.78 E109.79435
G1 X127.23 Y94.37 E109.90538
G1 X128.85 Y95.09 E110.01614
G1 X130.42 Y95.93 E110.12701
G1 X131.92 Y96.88 E110.23763
G1 X133.34 Y97.94 E110.34818
G1 X134.54 Y98.99 E110.44757
G1 X136.49 Y100.74 E110.61100
G1 X136.49 Y127.58 E112.28506
G1 X132.77 Y127.58 E112.51724
G1 X133.49 Y128.24 E112.57808
G1 X134.56 Y129.36 E112.67496
G1 X134.77 Y129.60 E112.69440
G1 X136.84 Y132.21 E112.90241
G1 X136.84 Y158.15 E114.52029
G1 X101.06 Y158.15 E116.75188
G1 X101.06 Y132.21 E118.36982
G1 X103.19 Y129.53 E118.58315
G1 X104.35 Y128.30 E118.68869
G1 X105.14 Y127.58 E118.75500
G1 X100.71 Y127.58 E119.03102
G1 X100.71 Y100.71 E120.70689
G1 X103.79 Y98.00 E120.96249
G1 X105.20 Y96.94 E121.07278
G1 X106.70 Y95.98 E121.18362
G1 X108.26 Y95.13 E121.29450
G1 X109.88 Y94.41 E121.40517
G0 F7200 X141.27 Y98.70
G1 F2700 X144.41 Y96.12 E121.65866
G1 X144.59 Y95.98 E121.67305
G1 X146.08 Y94.94 E121.78647
G1 X147.66 Y94.00 E121.90061
G1 X149.30 Y93.19 E122.01515
G1 X150.74 Y92.61 E122.11196
G1 X151.01 Y92.50 E122.13033
G1 X152.76 Y91.95 E122.24455
G1 X154.32 Y91.58 E122.34449
G1 X154.58 Y91.52 E122.36134
G1 X156.37 Y91.25 E122.47370
G1 X158.19 Y91.10 E122.58774
G1 X159.81 Y91.10 E122.68914
G1 X160.08 Y91.10 E122.70554
G1 X161.86 Y91.23 E122.81719
G1 X163.67 Y91.51 E122.93121
G1 X165.27 Y91.88 E123.03341
G1 X165.52 Y91.94 E123.04976
G1 X167.22 Y92.47 E123.16069
G1 X168.76 Y93.08 E123.26417
G1 X169.00 Y93.18 E123.28053
G1 X170.57 Y93.96 E123.38977
G1 X172.16 Y94.88 E123.50404
G1 X173.70 Y95.96 E123.62139
G1 X177.05 Y98.70 E123.89120
G1 X177.05 Y125.76 E125.57879
G1 X171.22 Y125.76 E125.94262
G1 X171.60 Y126.02 E125.97159
G1 X172.94 Y127.09 E126.07873
G1 X174.19 Y128.27 E126.18577
G1 X176.70 Y131.03 E126.41821
G1 X176.70 Y157.30 E128.05648
G1 X140.91 Y157.30 E130.28800
G1 X140.91 Y131.03 E131.92584
G1 X143.36 Y128.33 E132.15305
G1 X144.60 Y127.15 E132.25980
G1 X145.94 Y126.07 E132.36700
G1 X146.40 Y125.76 E132.40195
G1 X141.27 Y125.76 E132.72212
G1 X141.27 Y98.70 E134.40966
G0 F7200 X141.87 Y98.98
G1 F2700 X144.79 Y96.59 E134.64543
G1 X144.95 Y96.45 E134.65858
G1 X146.41 Y95.44 E134.76899
G1 X147.94 Y94.53 E134.88033
G1 X149.55 Y93.74 E134.99197
G1 X150.97 Y93.16 E135.08786
G1 X151.22 Y93.06 E135.10452
G1 X152.92 Y92.53 E135.21566
G1 X154.47 Y92.16 E135.31483
G1 X154.70 Y92.11 E135.32957
G1 X156.43 Y91.84 E135.43909
G1 X158.21 Y91.70 E135.55032
G1 X159.81 Y91.70 E135.65028
G1 X160.05 Y91.70 E135.66519
G1 X161.79 Y91.83 E135.77402
G1 X163.56 Y92.10 E135.88521
G1 X165.13 Y92.46 E135.98588
G1 X165.36 Y92.52 E136.00075
G1 X167.02 Y93.03 E136.10900
G1 X168.53 Y93.64 E136.21080
G1 X168.75 Y93.73 E136.22567
G1 X170.29 Y94.48 E136.33232
G1 X171.83 Y95.39 E136.44386
G1 X173.34 Y96.44 E136.55828
G1 X176.45 Y98.98 E136.80886
G1 X176.45 Y125.16 E138.44133
G1 X169.14 Y125.16 E138.89726
G1 X169.86 Y125.57 E138.94892
G1 X171.24 Y126.50 E139.05317
G1 X172.55 Y127.55 E139.15726
G1 X173.76 Y128.69 E139.26138
G1 X176.10 Y131.26 E139.47788
G1 X176.10 Y156.70 E141.06427
G1 X141.51 Y156.70 E143.22096
G1 X141.51 Y131.26 E144.80697
G1 X143.79 Y128.75 E145.01833
G1 X145.00 Y127.61 E145.12218
G1 X146.29 Y126.56 E145.22635
G1 X147.68 Y125.61 E145.33051
G1 X148.47 Y125.16 E145.38792
G1 X141.87 Y125.16 E145.80001
G1 X141.87 Y98.98 E147.43242
G0 F7200 X142.47 Y99.27
G1 F2700 X145.14 Y97.08 E147.64785
G1 X145.32 Y96.93 E147.66228
G1 X146.73 Y95.94 E147.76973
G1 X148.23 Y95.06 E147.87825
G1 X149.79 Y94.28 E147.98705
G1 X151.20 Y93.72 E148.08184
G1 X151.43 Y93.62 E148.09697
G1 X153.08 Y93.10 E148.20504
G1 X154.60 Y92.75 E148.30280
G1 X154.81 Y92.70 E148.31613
G1 X156.50 Y92.44 E148.42274
G1 X158.24 Y92.30 E148.53115
G1 X159.81 Y92.30 E148.62962
G1 X160.03 Y92.30 E148.64309
G1 X161.73 Y92.43 E148.74911
G1 X163.44 Y92.69 E148.85752
G1 X164.99 Y93.04 E148.95665
G1 X165.20 Y93.09 E148.97005
G1 X166.82 Y93.60 E149.07556
G1 X168.31 Y94.19 E149.17568
G1 X168.51 Y94.28 E149.18913
G1 X170.01 Y95.01 E149.29321
G1 X171.51 Y95.89 E149.40184
G1 X172.98 Y96.92 E149.51339
G1 X175.85 Y99.27 E149.74482
G1 X175.85 Y124.56 E151.32210
G1 X166.57 Y124.56 E151.90076
G1 X166.66 Y124.59 E151.90702
G1 X168.13 Y125.28 E152.00813
G1 X169.54 Y126.08 E152.10908
G1 X170.89 Y126.99 E152.21035
G1 X172.15 Y128.00 E152.31151
G1 X173.34 Y129.11 E152.41263
G1 X175.50 Y131.49 E152.61320
G1 X175.50 Y156.10 E154.14770
G1 X142.11 Y156.10 E156.22956
G1 X142.11 Y131.50 E157.76374
G1 X144.22 Y129.17 E157.95926
G1 X145.39 Y128.06 E158.06014
G1 X146.65 Y127.04 E158.16134
G1 X147.99 Y126.12 E158.26250
G1 X149.40 Y125.32 E158.36342
G1 X150.87 Y124.63 E158.46466
G1 X151.05 Y124.56 E158.47705
G1 X142.47 Y124.56 E159.01250
G1 X142.47 Y99.27 E160.58978
G0 F7200 X143.07 Y99.55
G1 F2700 X145.55 Y97.52 E160.79009
G1 X145.68 Y97.41 E160.80072
G1 X147.06 Y96.45 E160.90512
G1 X148.51 Y95.58 E161.01085
G1 X150.04 Y94.83 E161.11677
G1 X151.48 Y94.25 E161.21353
G1 X151.63 Y94.19 E161.22401
G1 X153.24 Y93.68 E161.32900
G1 X154.74 Y93.33 E161.42502
G1 X154.93 Y93.29 E161.43732
G1 X156.57 Y93.03 E161.54104
G1 X158.26 Y92.90 E161.64670
G1 X159.82 Y92.90 E161.74367
G1 X160.01 Y92.90 E161.75565
G1 X161.66 Y93.02 E161.85884
G1 X163.33 Y93.28 E161.96449
G1 X164.86 Y93.63 E162.06202
G1 X165.04 Y93.67 E162.07400
G1 X166.62 Y94.17 E162.17678
G1 X168.08 Y94.75 E162.27516
G1 X168.26 Y94.82 E162.28716
G1 X169.72 Y95.54 E162.38871
G1 X171.18 Y96.40 E162.49451
G1 X172.62 Y97.40 E162.60320
G1 X175.25 Y99.55 E162.81540
G1 X175.25 Y123.96 E164.33755
G1 X162.38 Y123.96 E165.13978
G1 X163.44 Y124.17 E165.20694
G1 X164.96 Y124.60 E165.30507
G1 X166.43 Y125.15 E165.40334
G1 X167.86 Y125.81 E165.50147
G1 X169.23 Y126.59 E165.59949
G1 X170.53 Y127.47 E165.69775
G1 X171.76 Y128.45 E165.79589
G1 X172.91 Y129.53 E165.89406
G1 X174.90 Y131.72 E166.07869
G1 X174.90 Y155.50 E167.56136
G1 X142.71 Y155.50 E169.56838
G1 X142.71 Y131.73 E171.05074
G1 X144.65 Y129.59 E171.23045
G1 X145.78 Y128.51 E171.32833
G1 X147.01 Y127.52 E171.42657
G1 X148.31 Y126.63 E171.52476
G1 X149.68 Y125.85 E171.62270
G1 X151.10 Y125.18 E171.72095
G1 X152.57 Y124.63 E171.81904
G1 X154.09 Y124.19 E171.91725
G1 X155.22 Y123.96 E171.98955
G1 X143.07 Y123.96 E172.74757
G1 X143.07 Y99.55 E174.26966
G0 F7200 X143.67 Y99.83
G1 F2700 X145.91 Y98.00 E174.45030
G1 X146.05 Y97.89 E174.46159
G1 X147.38 Y96.95 E174.56300
G1 X148.80 Y96.11 E174.66590
G1 X150.28 Y95.38 E174.76904
G1 X151.70 Y94.81 E174.86431
G1 X151.84 Y94.75 E174.87356
G1 X153.40 Y94.26 E174.97550
G1 X154.87 Y93.92 E175.07017
G1 X155.04 Y93.88 E175.08094
G1 X156.64 Y93.63 E175.18182
G1 X158.28 Y93.50 E175.28466
G1 X159.82 Y93.50 E175.38014
G1 X159.99 Y93.50 E175.39068
G1 X161.59 Y93.62 E175.49112
G1 X163.22 Y93.87 E175.59393
G1 X164.72 Y94.21 E175.68993
G1 X164.88 Y94.25 E175.70037
G1 X166.41 Y94.73 E175.80044
G1 X167.86 Y95.31 E175.89715
G1 X168.01 Y95.37 E175.90769
G1 X169.44 Y96.07 E176.00665
G1 X170.86 Y96.91 E176.10966
G1 X172.25 Y97.88 E176.21544
G1 X174.65 Y99.83 E176.40849
G1 X174.65 Y123.36 E177.87545
G1 X143.67 Y123.36 E179.80763
G1 X143.67 Y99.83 E181.27459
G0 F7200 X144.27 Y100.12
G1 F2700 X146.31 Y98.45 E181.43936
G1 X146.31 Y98.45 E181.43943
G1 X146.41 Y98.36 E181.44757
G1 X147.71 Y97.46 E181.54606
G1 X149.09 Y96.64 E181.64616
G1 X150.53 Y95.93 E181.74639
G1 X151.92 Y95.37 E181.84024
G1 X152.04 Y95.32 E181.84829
G1 X153.56 Y94.84 E181.94715
G1 X155.02 Y94.50 E182.04080
G1 X155.16 Y94.47 E182.04977
G1 X156.71 Y94.23 E182.14775
G1 X158.31 Y94.10 E182.24777
G1 X159.82 Y94.10 E182.34182
G1 X159.96 Y94.10 E182.35086
G1 X161.52 Y94.22 E182.44849
G1 X163.11 Y94.46 E182.54846
G1 X164.58 Y94.80 E182.64292
G1 X164.72 Y94.83 E182.65195
G1 X166.21 Y95.30 E182.74929
G1 X167.63 Y95.86 E182.84432
G1 X167.76 Y95.92 E182.85337
G1 X169.15 Y96.60 E182.94982
G1 X170.54 Y97.41 E183.04997
G1 X171.89 Y98.35 E183.15284
G1 X174.05 Y100.12 E183.32670
G1 X174.05 Y122.76 E184.73853
G1 X144.27 Y122.76 E186.59588
G1 X144.27 Y100.12 E188.00771
G0 F7200 X144.87 Y100.40
G1 F2700 X146.69 Y98.91 E188.15475
G1 X146.78 Y98.84 E188.16166
G1 X148.03 Y97.96 E188.25710
G1 X149.37 Y97.17 E188.35438
G1 X150.77 Y96.48 E188.45177
G1 X152.15 Y95.92 E188.54422
G1 X152.25 Y95.88 E188.55104
G1 X153.71 Y95.42 E188.64681
G1 X155.15 Y95.08 E188.73906
G1 X155.27 Y95.05 E188.74662
G1 X156.78 Y94.82 E188.84169
G1 X158.33 Y94.70 E188.93890
G1 X159.82 Y94.70 E189.03151
G1 X159.94 Y94.70 E189.03906
G1 X161.46 Y94.81 E189.13388
G1 X163.00 Y95.05 E189.23107
G1 X164.45 Y95.38 E189.32399
G1 X164.57 Y95.41 E189.33155
G1 X166.01 Y95.86 E189.42614
G1 X167.40 Y96.42 E189.51949
G1 X167.52 Y96.46 E189.52707
G1 X168.87 Y97.13 E189.62095
G1 X170.21 Y97.92 E189.71828
G1 X171.53 Y98.83 E189.81827
G1 X173.45 Y100.40 E189.97290
G1 X173.45 Y122.16 E191.32960
G1 X144.87 Y122.16 E193.11212
G1 X144.87 Y100.40 E194.46876
G0 F7200 X145.47 Y100.69
G1 F2700 X147.07 Y99.38 E194.59808
G1 X147.14 Y99.32 E194.60366
G1 X148.36 Y98.47 E194.69614
G1 X149.66 Y97.70 E194.79059
G1 X151.02 Y97.03 E194.88520
G1 X152.36 Y96.49 E194.97507
G1 X152.36 Y96.49 E194.97514
G1 X152.46 Y96.44 E194.98182
G1 X153.87 Y96.00 E195.07452
G1 X155.29 Y95.67 E195.16522
G1 X155.29 Y95.67 E195.16528
G1 X155.39 Y95.64 E195.17150
G1 X156.85 Y95.42 E195.26373
G1 X158.36 Y95.30 E195.35813
G1 X159.82 Y95.30 E195.44924
G1 X159.92 Y95.30 E195.45535
G1 X161.39 Y95.41 E195.54736
G1 X162.88 Y95.64 E195.64176
G1 X164.31 Y95.97 E195.73309
G1 X164.41 Y95.99 E195.73918
G1 X165.81 Y96.43 E195.83110
G1 X167.18 Y96.97 E195.92277
G1 X167.27 Y97.01 E195.92883
G1 X168.58 Y97.66 E196.02020
G1 X169.89 Y98.42 E196.11469
G1 X171.17 Y99.31 E196.21177
G1 X172.85 Y100.69 E196.34726
G1 X172.85 Y121.56 E197.64877
G1 X145.47 Y121.56 E199.35645
G1 X145.47 Y100.69 E200.65796
G0 F7200 X146.07 Y100.97
G1 F2700 X147.45 Y99.84 E200.76955
G1 X147.45 Y99.84 E200.76961
G1 X147.50 Y99.80 E200.77395
G1 X148.68 Y98.97 E200.86344
G1 X149.95 Y98.22 E200.95515
G1 X151.26 Y97.57 E201.04683
G1 X152.60 Y97.04 E201.13645
G1 X152.66 Y97.01 E201.14070
G1 X154.03 Y96.58 E201.23040
G1 X155.43 Y96.25 E201.31983
G1 X155.50 Y96.23 E201.32450
G1 X156.92 Y96.02 E201.41384
G1 X158.38 Y95.90 E201.50548
G1 X159.82 Y95.90 E201.59510
G1 X159.89 Y95.90 E201.59971
G1 X161.32 Y96.01 E201.68896
G1 X162.77 Y96.23 E201.78048
G1 X164.18 Y96.55 E201.87034
G1 X164.25 Y96.57 E201.87495
G1 X165.61 Y97.00 E201.96410
G1 X166.95 Y97.53 E202.05404
G1 X167.02 Y97.56 E202.05870
G1 X168.30 Y98.19 E202.14751
G1 X169.57 Y98.93 E202.23919
G1 X170.81 Y99.79 E202.33340
G1 X172.25 Y100.97 E202.44965
G1 X172.25 Y120.96 E203.69603
G1 X146.07 Y120.96 E205.32888
G1 X146.07 Y100.97 E206.57526
G0 F7200 X146.67 Y101.26
G1 F2700 X147.83 Y100.30 E206.66912
G1 X147.87 Y100.27 E206.67222
G1 X149.01 Y99.48 E206.75867
G1 X150.23 Y98.75 E206.84756
G1 X151.51 Y98.12 E206.93639
G1 X152.82 Y97.59 E207.02439
G1 X152.87 Y97.57 E207.02763
G1 X154.19 Y97.16 E207.11426
G1 X155.62 Y96.82 E207.20555
G1 X156.99 Y96.61 E207.29197
G1 X158.41 Y96.50 E207.38080
G1 X159.87 Y96.50 E207.47210
G1 X161.25 Y96.60 E207.55854
G1 X162.66 Y96.82 E207.64727
G1 X164.04 Y97.13 E207.73553
G1 X164.09 Y97.15 E207.73874
G1 X165.41 Y97.56 E207.82515
G1 X166.72 Y98.08 E207.91340
G1 X166.77 Y98.10 E207.91659
G1 X168.01 Y98.71 E208.00282
G1 X169.24 Y99.44 E208.09168
G1 X170.44 Y100.27 E208.18299
G1 X171.65 Y101.26 E208.28009
G1 X171.65 Y120.36 E209.47128
G1 X146.67 Y120.36 E211.02929
G1 X146.67 Y101.26 E212.22048
G0 F7200 X150.44 Y103.07
G1 F2700 X150.44 Y116.58 E213.06294
G1 X167.87 Y116.58 E214.15011
G1 X167.87 Y103.07 E214.99263
G1 X166.95 Y102.45 E215.06230
G1 X165.88 Y101.86 E215.13812
G1 X164.73 Y101.34 E215.21688
G1 X163.50 Y100.91 E215.29832
G1 X162.33 Y100.60 E215.37368
G1 X161.08 Y100.39 E215.45304
G1 X159.82 Y100.28 E215.53160
G1 X158.53 Y100.27 E215.61230
G1 X157.31 Y100.38 E215.68865
G1 X156.06 Y100.59 E215.76733
G1 X154.84 Y100.90 E215.84632
G1 X153.64 Y101.32 E215.92530
G1 X153.62 Y101.32 E215.92663
G1 X152.50 Y101.83 E216.00319
G1 X151.40 Y102.43 E216.08154
G1 X150.44 Y103.07 E216.15350
G0 F7200 X151.04 Y103.39
G1 F2700 X151.04 Y115.98 E216.93852
G1 X167.27 Y115.98 E217.95085
G1 X167.27 Y103.39 E218.73600
G1 X166.63 Y102.97 E218.78396
G1 X166.63 Y102.96 E218.78405
G1 X165.61 Y102.40 E218.85691
G1 X164.50 Y101.89 E218.93310
G1 X163.33 Y101.48 E219.01024
G1 X162.20 Y101.19 E219.08321
G1 X161.01 Y100.98 E219.15878
G1 X159.79 Y100.88 E219.23477
G1 X158.56 Y100.87 E219.31192
G1 X157.37 Y100.97 E219.38583
G1 X156.19 Y101.17 E219.46052
G1 X155.01 Y101.47 E219.53634
G1 X153.84 Y101.88 E219.61381
G1 X153.84 Y101.88 E219.61390
G1 X153.84 Y101.88 E219.61410
G1 X152.77 Y102.36 E219.68718
G1 X151.71 Y102.95 E219.76232
G1 X151.04 Y103.39 E219.81277
G0 F7200 X151.64 Y103.72
G1 F2700 X151.64 Y115.38 E220.54035
G1 X166.67 Y115.38 E221.47785
G1 X166.67 Y103.71 E222.20563
G1 X166.32 Y103.48 E222.23183
G1 X165.34 Y102.93 E222.30193
G1 X164.28 Y102.45 E222.37461
G1 X163.15 Y102.05 E222.44930
G1 X162.07 Y101.78 E222.51880
G1 X160.92 Y101.58 E222.59171
G1 X159.78 Y101.48 E222.66338
G1 X158.58 Y101.47 E222.73791
G1 X157.45 Y101.57 E222.80844
G1 X156.31 Y101.76 E222.88067
G1 X155.19 Y102.05 E222.95303
G1 X154.07 Y102.44 E223.02704
G1 X153.03 Y102.90 E223.09767
G1 X152.03 Y103.45 E223.16895
G1 X151.64 Y103.72 E223.19827
G0 F7200 X152.24 Y104.04
G1 F2700 X152.24 Y114.78 E223.86842
G1 X166.07 Y114.78 E224.73108
G1 X166.07 Y104.03 E225.40148
G1 X166.01 Y103.99 E225.40612
G1 X165.06 Y103.47 E225.47387
G1 X164.06 Y103.01 E225.54217
G1 X162.98 Y102.63 E225.61414
G1 X161.94 Y102.36 E225.68094
G1 X160.85 Y102.17 E225.74993
G1 X159.75 Y102.08 E225.81903
G1 X158.61 Y102.07 E225.89006
G1 X157.53 Y102.16 E225.95740
G1 X156.43 Y102.35 E226.02690
G1 X155.37 Y102.62 E226.09553
G1 X154.29 Y103.00 E226.16667
G1 X153.30 Y103.44 E226.23391
G1 X152.34 Y103.97 E226.30286
G1 X152.24 Y104.04 E226.31000
G0 F7200 X152.84 Y104.38
G1 F2700 X152.84 Y114.18 E226.92134
G1 X165.47 Y114.18 E227.70917
G1 X165.47 Y104.38 E228.32058
G1 X164.81 Y104.01 E228.36828
G1 X163.83 Y103.57 E228.43507
G1 X162.81 Y103.20 E228.50263
G1 X161.81 Y102.95 E228.56697
G1 X160.78 Y102.77 E228.63222
G1 X159.72 Y102.68 E228.69876
G1 X158.62 Y102.67 E228.76705
G1 X157.61 Y102.76 E228.83039
G1 X156.57 Y102.93 E228.89597
G1 X155.53 Y103.20 E228.96278
G1 X154.50 Y103.56 E229.03069
G1 X153.57 Y103.98 E229.09439
G1 X152.84 Y104.38 E229.14653
G0 F7200 X153.44 Y104.73
G1 F2700 X153.44 Y113.58 E229.69831
G1 X164.87 Y113.58 E230.41130
G1 X164.87 Y104.73 E230.96322
G1 X164.53 Y104.55 E230.98739
G1 X163.61 Y104.12 E231.05097
G1 X162.63 Y103.78 E231.11555
G1 X161.69 Y103.54 E231.17604
G1 X160.69 Y103.36 E231.23907
G1 X159.69 Y103.28 E231.30229
G1 X158.65 Y103.27 E231.36708
G1 X157.69 Y103.35 E231.42710
G1 X156.69 Y103.52 E231.49041
G1 X155.71 Y103.77 E231.55344
G1 X154.73 Y104.11 E231.61809
G1 X153.85 Y104.51 E231.67805
G1 X153.44 Y104.73 E231.70724
G0 F7200 X154.04 Y105.09
G1 F2700 X154.04 Y112.98 E232.19960
G1 X164.27 Y112.98 E232.83775
G1 X164.27 Y105.09 E233.33023
G1 X164.26 Y105.08 E233.33088
G1 X163.37 Y104.68 E233.39192
G1 X162.46 Y104.36 E233.45219
G1 X161.56 Y104.12 E233.51016
G1 X160.61 Y103.96 E233.57041
G1 X159.67 Y103.88 E233.62944
G1 X158.67 Y103.87 E233.69155
G1 X157.77 Y103.95 E233.74819
G1 X156.80 Y104.11 E233.80903
G1 X155.88 Y104.35 E233.86818
G1 X154.96 Y104.67 E233.92960
G1 X154.10 Y105.05 E233.98786
G1 X154.04 Y105.09 E233.99226
G0 F7200 X154.64 Y105.47
G1 F2700 X154.64 Y112.38 E234.42338
G1 X163.67 Y112.38 E234.98670
G1 X163.67 Y105.47 E235.41769
G1 X163.16 Y105.24 E235.45261
G1 X162.28 Y104.93 E235.51109
G1 X161.43 Y104.71 E235.56571
G1 X160.54 Y104.55 E235.62229
G1 X159.64 Y104.48 E235.67857
G1 X158.70 Y104.47 E235.73731
G1 X157.83 Y104.55 E235.79145
G1 X156.93 Y104.70 E235.84831
G1 X156.06 Y104.92 E235.90469
G1 X155.18 Y105.23 E235.96268
G1 X154.64 Y105.47 E235.99947
G0 F7200 X155.24 Y105.86
G1 F2700 X155.24 Y111.78 E236.36903
G1 X163.07 Y111.78 E236.85752
G1 X163.07 Y105.86 E237.22695
G1 X162.94 Y105.80 E237.23605
G1 X162.10 Y105.50 E237.29156
G1 X161.30 Y105.30 E237.34309
G1 X160.47 Y105.15 E237.39593
G1 X159.61 Y105.08 E237.44964
G1 X158.72 Y105.07 E237.50496
G1 X157.91 Y105.14 E237.55571
G1 X157.06 Y105.28 E237.60940
G1 X156.22 Y105.50 E237.66330
G1 X155.39 Y105.79 E237.71836
G1 X155.24 Y105.86 E237.72861
G0 F7200 X157.39 Y126.08
G1 F2700 X158.69 Y126.02 E237.80975
G1 X158.79 Y126.02 E237.81631
G1 X160.15 Y126.07 E237.90113
G1 X161.52 Y126.23 E237.98728
G1 X162.88 Y126.50 E238.07346
G1 X164.21 Y126.88 E238.15973
G1 X165.50 Y127.36 E238.24596
G1 X166.76 Y127.95 E238.33220
G1 X167.96 Y128.63 E238.41837
G1 X169.11 Y129.40 E238.50465
G1 X170.19 Y130.27 E238.59090
G1 X171.19 Y131.21 E238.67715
G1 X172.50 Y132.65 E238.79799
G1 X172.50 Y153.10 E240.07318
G1 X145.11 Y153.10 E241.78086
G1 X145.11 Y132.65 E243.05593
G1 X146.36 Y131.27 E243.17223
G1 X147.37 Y130.32 E243.25839
G1 X148.44 Y129.45 E243.34460
G1 X149.59 Y128.67 E243.43090
G1 X150.78 Y127.98 E243.51701
G1 X152.04 Y127.39 E243.60330
G1 X153.33 Y126.91 E243.68952
G1 X154.66 Y126.52 E243.77573
G1 X156.01 Y126.25 E243.86197
G1 X157.39 Y126.08 E243.94828
G0 F7200 X157.44 Y126.68
G1 F2700 X158.72 Y126.62 E244.02843
G1 X158.72 Y126.62 E244.02849
G1 X158.80 Y126.62 E244.03336
G1 X160.10 Y126.67 E244.11487
G1 X161.43 Y126.83 E244.19807
G1 X162.74 Y127.09 E244.28125
G1 X164.02 Y127.45 E244.36455
G1 X165.27 Y127.92 E244.44784
G1 X166.48 Y128.48 E244.53104
G1 X167.64 Y129.14 E244.61423
G1 X168.75 Y129.89 E244.69758
G1 X169.79 Y130.72 E244.78082
G1 X170.77 Y131.63 E244.86407
G1 X171.90 Y132.88 E244.96901
G1 X171.90 Y152.50 E246.19232
G1 X145.71 Y152.50 E247.82516
G1 X145.71 Y132.88 E249.04841
G1 X146.79 Y131.69 E249.14886
G1 X147.76 Y130.77 E249.23205
G1 X148.80 Y129.93 E249.31530
G1 X149.90 Y129.18 E249.39858
G1 X151.06 Y128.52 E249.48177
G1 X152.27 Y127.95 E249.56507
G1 X153.52 Y127.48 E249.64829
G1 X154.80 Y127.11 E249.73158
G1 X156.11 Y126.84 E249.81476
G1 X157.44 Y126.68 E249.89813
G0 F7200 X157.49 Y127.28
G1 F2700 X158.75 Y127.22 E249.97734
G1 X158.80 Y127.22 E249.98040
G1 X160.06 Y127.27 E250.05866
G1 X161.34 Y127.42 E250.13891
G1 X162.60 Y127.67 E250.21910
G1 X163.84 Y128.02 E250.29943
G1 X165.04 Y128.47 E250.37972
G1 X166.21 Y129.01 E250.45996
G1 X167.33 Y129.65 E250.54022
G1 X168.40 Y130.37 E250.62052
G1 X169.40 Y131.17 E250.70079
G1 X170.34 Y132.06 E250.78108
G1 X171.30 Y133.11 E250.87004
G1 X171.30 Y151.90 E252.04152
G1 X146.31 Y151.90 E253.59953
G1 X146.31 Y133.11 E254.77095
G1 X147.22 Y132.11 E254.85556
G1 X148.16 Y131.22 E254.93580
G1 X149.16 Y130.41 E255.01607
G1 X150.22 Y129.69 E255.09640
G1 X151.34 Y129.05 E255.17657
G1 X152.50 Y128.50 E255.25691
G1 X153.71 Y128.05 E255.33713
G1 X154.94 Y127.69 E255.41744
G1 X156.21 Y127.43 E255.49768
G1 X157.49 Y127.28 E255.57804
G0 F7200 X157.34 Y125.48
G1 F2700 X158.65 Y125.42 E255.65999
G1 X158.79 Y125.42 E255.66848
G1 X160.20 Y125.47 E255.75654
G1 X161.62 Y125.64 E255.84565
G1 X163.02 Y125.92 E255.93481
G1 X164.40 Y126.31 E256.02400
G1 X165.74 Y126.81 E256.11329
G1 X167.03 Y127.41 E256.20248
G1 X168.28 Y128.12 E256.29162
G1 X169.46 Y128.92 E256.38091
G1 X170.58 Y129.81 E256.47009
G1 X171.62 Y130.79 E256.55934
G1 X173.10 Y132.42 E256.69612
G1 X173.10 Y153.70 E258.02320
G1 X144.51 Y153.70 E259.80571
G1 X144.51 Y132.42 E261.13260
G1 X145.93 Y130.85 E261.26471
G1 X146.97 Y129.87 E261.35382
G1 X148.09 Y128.97 E261.44305
G1 X149.27 Y128.16 E261.53231
G1 X150.51 Y127.45 E261.62139
G1 X151.80 Y126.84 E261.71068
G1 X153.14 Y126.34 E261.79983
G1 X154.51 Y125.94 E261.88909
G1 X155.92 Y125.65 E261.97832
G1 X157.34 Y125.48 E262.06759
G0 F7200 X157.29 Y124.88
G1 F2700 X158.64 Y124.83 E262.15186
G1 X158.78 Y124.82 E262.16079
G1 X160.25 Y124.87 E262.25210
G1 X161.71 Y125.05 E262.34416
G1 X163.16 Y125.34 E262.43630
G1 X164.58 Y125.74 E262.52849
G1 X165.97 Y126.25 E262.62076
G1 X167.31 Y126.88 E262.71291
G1 X168.59 Y127.61 E262.80498
G1 X169.82 Y128.44 E262.89727
G1 X170.97 Y129.36 E262.98947
G1 X172.05 Y130.37 E263.08168
G1 X173.70 Y132.19 E263.23443
G1 X173.70 Y154.30 E264.61334
G1 X143.91 Y154.30 E266.47069
G1 X143.91 Y132.19 E267.84940
G1 X145.50 Y130.43 E267.99741
G1 X146.58 Y129.41 E268.08942
G1 X147.73 Y128.48 E268.18167
G1 X148.95 Y127.65 E268.27390
G1 X150.23 Y126.92 E268.36594
G1 X151.57 Y126.29 E268.45819
G1 X152.95 Y125.77 E268.55033
G1 X154.37 Y125.36 E268.64258
G1 X155.82 Y125.06 E268.73474
G1 X157.29 Y124.88 E268.82703
G0 F7200 X157.24 Y124.28
G1 F2700 X158.58 Y124.23 E268.91086
G1 X158.78 Y124.22 E268.92291
G1 X160.29 Y124.28 E269.01753
G1 X161.81 Y124.45 E269.11253
G1 X163.30 Y124.75 E269.20760
G1 X164.77 Y125.17 E269.30283
G1 X166.20 Y125.70 E269.39804
G1 X167.58 Y126.35 E269.49320
G1 X168.91 Y127.10 E269.58829
G1 X170.18 Y127.95 E269.68355
G1 X171.37 Y128.91 E269.77872
G1 X172.48 Y129.95 E269.87388
G1 X174.30 Y131.95 E270.04258
G1 X174.30 Y154.90 E271.47336
G1 X143.31 Y154.90 E273.40555
G1 X143.31 Y131.96 E274.83609
G1 X145.07 Y130.01 E274.99990
G1 X146.18 Y128.96 E275.09492
G1 X147.37 Y128.00 E275.19013
G1 X148.63 Y127.14 E275.28532
G1 X149.95 Y126.39 E275.38035
G1 X151.33 Y125.73 E275.47558
G1 X152.76 Y125.20 E275.57073
G1 X154.23 Y124.77 E275.66590
G1 X155.72 Y124.47 E275.76111
G1 X157.24 Y124.28 E275.85635
G0 F7200 X157.75 Y131.04
G1 F2700 X156.67 Y131.18 E275.92465
G1 X155.61 Y131.42 E275.99241
G1 X154.57 Y131.74 E276.05988
G1 X153.57 Y132.16 E276.12797
G1 X152.61 Y132.66 E276.19547
G1 X151.68 Y133.25 E276.26425
G1 X151.66 Y133.26 E276.26507
G1 X150.83 Y133.91 E276.33113
G1 X150.09 Y134.58 E276.39363
G1 X150.09 Y148.12 E277.23789
G1 X167.52 Y148.12 E278.32506
G1 X167.52 Y134.58 E279.16939
G1 X166.81 Y133.93 E279.22985
G1 X165.97 Y133.28 E279.29600
G1 X165.05 Y132.68 E279.36442
G1 X165.03 Y132.67 E279.36546
G1 X164.10 Y132.19 E279.43115
G1 X163.09 Y131.76 E279.49926
G1 X162.06 Y131.43 E279.56681
G1 X160.99 Y131.19 E279.63516
G1 X159.93 Y131.05 E279.70204
G1 X158.82 Y131.00 E279.77134
G1 X158.81 Y131.00 E279.77228
G1 X157.75 Y131.04 E279.83788
G0 F7200 X157.81 Y131.64
G1 F2700 X156.77 Y131.77 E279.90315
G1 X155.77 Y132.00 E279.96722
G1 X154.78 Y132.31 E280.03201
G1 X153.81 Y132.71 E280.09707
G1 X152.91 Y133.18 E280.16047
G1 X152.01 Y133.75 E280.22704
G1 X151.21 Y134.37 E280.29000
G1 X150.69 Y134.85 E280.33440
G1 X150.69 Y147.52 E281.12478
G1 X166.92 Y147.52 E282.13712
G1 X166.92 Y134.85 E282.92763
G1 X166.42 Y134.38 E282.97000
G1 X165.62 Y133.77 E283.03290
G1 X164.73 Y133.19 E283.09941
G1 X163.84 Y132.73 E283.16168
G1 X162.89 Y132.32 E283.22647
G1 X161.91 Y132.01 E283.29062
G1 X160.89 Y131.78 E283.35532
G1 X159.87 Y131.65 E283.41982
G1 X158.79 Y131.60 E283.48699
G1 X157.81 Y131.64 E283.54835
G0 F7200 X157.85 Y132.24
G1 F2700 X156.88 Y132.37 E283.60992
G1 X155.92 Y132.58 E283.67103
G1 X154.99 Y132.87 E283.73209
G1 X154.08 Y133.25 E283.79344
G1 X153.21 Y133.70 E283.85425
G1 X152.36 Y134.24 E283.91743
G1 X151.60 Y134.83 E283.97709
G1 X151.29 Y135.11 E284.00340
G1 X151.29 Y146.92 E284.73996
G1 X166.32 Y146.92 E285.67746
G1 X166.32 Y135.11 E286.41415
G1 X166.04 Y134.84 E286.43838
G1 X165.27 Y134.25 E286.49875
G1 X164.44 Y133.71 E286.56078
G1 X163.58 Y133.27 E286.62081
G1 X162.69 Y132.89 E286.68135
G1 X161.74 Y132.59 E286.74342
G1 X160.79 Y132.38 E286.80389
G1 X159.81 Y132.24 E286.86587
G1 X158.80 Y132.20 E286.92880
G1 X157.85 Y132.24 E286.98779
G0 F7200 X157.91 Y132.84
G1 F2700 X156.98 Y132.96 E287.04633
G1 X156.07 Y133.16 E287.10444
G1 X155.19 Y133.44 E287.16212
G1 X154.33 Y133.79 E287.21983
G1 X153.50 Y134.22 E287.27837
G1 X152.71 Y134.73 E287.33704
G1 X151.99 Y135.28 E287.39380
G1 X151.89 Y135.38 E287.40210
G1 X151.89 Y146.32 E288.08479
G1 X165.72 Y146.32 E288.94745
G1 X165.72 Y135.37 E289.63045
G1 X165.65 Y135.30 E289.63654
G1 X164.93 Y134.75 E289.69300
G1 X164.12 Y134.23 E289.75311
G1 X163.33 Y133.81 E289.80904
G1 X162.47 Y133.45 E289.86707
G1 X161.60 Y133.17 E289.92428
G1 X160.67 Y132.96 E289.98342
G1 X159.77 Y132.84 E290.04024
G1 X158.79 Y132.80 E290.10111
G1 X157.91 Y132.84 E290.15623
G0 F7200 X157.97 Y133.43
G1 F2700 X157.09 Y133.55 E290.21157
G1 X156.23 Y133.74 E290.26636
G1 X155.40 Y134.00 E290.32087
G1 X154.58 Y134.34 E290.37609
G1 X153.81 Y134.74 E290.43034
G1 X153.05 Y135.22 E290.48607
G1 X152.49 Y135.66 E290.53044
G1 X152.49 Y145.72 E291.15824
G1 X165.12 Y145.72 E291.94607
G1 X165.12 Y135.65 E292.57394
G1 X164.58 Y135.24 E292.61652
G1 X163.83 Y134.75 E292.67235
G1 X163.08 Y134.36 E292.72529
G1 X162.26 Y134.02 E292.78041
G1 X161.43 Y133.75 E292.83494
G1 X160.57 Y133.56 E292.88961
G1 X159.71 Y133.44 E292.94416
G1 X158.79 Y133.40 E293.00140
G1 X157.97 Y133.43 E293.05278
G0 F7200 X158.01 Y134.03
G1 F2700 X157.19 Y134.14 E293.10440
G1 X156.38 Y134.32 E293.15620
G1 X155.60 Y134.56 E293.20732
G1 X154.84 Y134.88 E293.25827
G1 X154.10 Y135.26 E293.31037
G1 X153.39 Y135.72 E293.36303
G1 X153.09 Y135.95 E293.38677
G1 X153.09 Y145.12 E293.95882
G1 X164.52 Y145.12 E294.67182
G1 X164.52 Y135.95 E295.24393
G1 X164.25 Y135.73 E295.26576
G1 X163.52 Y135.27 E295.31968
G1 X162.82 Y134.90 E295.36889
G1 X162.05 Y134.58 E295.42082
G1 X161.28 Y134.33 E295.47157
G1 X160.47 Y134.15 E295.52278
G1 X159.65 Y134.04 E295.57500
G1 X158.80 Y134.00 E295.62794
G1 X158.01 Y134.03 E295.67694
G0 F7200 X158.07 Y134.63
G1 F2700 X157.28 Y134.73 E295.72625
G1 X156.54 Y134.90 E295.77370
G1 X155.81 Y135.13 E295.82180
G1 X155.10 Y135.42 E295.86967
G1 X154.40 Y135.78 E295.91845
G1 X153.74 Y136.20 E295.96741
G1 X153.69 Y136.24 E295.97145
G1 X153.69 Y144.52 E296.48769
G1 X163.92 Y144.52 E297.12585
G1 X163.92 Y136.24 E297.64215
G1 X163.90 Y136.23 E297.64389
G1 X163.22 Y135.78 E297.69473
G1 X162.57 Y135.44 E297.74033
G1 X161.85 Y135.15 E297.78869
G1 X161.11 Y134.91 E297.83734
G1 X160.37 Y134.74 E297.88491
G1 X159.60 Y134.64 E297.93273
G1 X158.79 Y134.60 E297.98355
G1 X158.07 Y134.63 E298.02868
G0 F7200 X158.11 Y135.23
G1 F2700 X157.39 Y135.32 E298.07426
G1 X156.70 Y135.47 E298.11808
G1 X156.01 Y135.69 E298.16344
G1 X155.34 Y135.97 E298.20826
G1 X154.71 Y136.30 E298.25298
G1 X154.29 Y136.57 E298.28396
G1 X154.29 Y143.92 E298.74270
G1 X163.32 Y143.92 E299.30602
G1 X163.32 Y136.57 E299.76476
G1 X162.92 Y136.31 E299.79450
G1 X162.30 Y135.98 E299.83816
G1 X161.65 Y135.71 E299.88196
G1 X160.95 Y135.49 E299.92779
G1 X160.25 Y135.33 E299.97255
G1 X159.54 Y135.24 E300.01709
G1 X158.80 Y135.20 E300.06379
G1 X158.11 Y135.23 E300.10649
G0 F7200 X158.17 Y135.83
G1 F2700 X157.50 Y135.91 E300.14888
G1 X156.85 Y136.06 E300.19000
G1 X156.22 Y136.26 E300.23158
G1 X155.60 Y136.51 E300.27330
G1 X155.01 Y136.82 E300.31433
G1 X154.89 Y136.90 E300.32350
G1 X154.89 Y143.32 E300.72430
G1 X162.72 Y143.32 E301.21279
G1 X162.72 Y136.89 E301.61366
G1 X162.61 Y136.82 E301.62196
G1 X162.06 Y136.53 E301.66054
G1 X161.43 Y136.27 E301.70350
G1 X160.80 Y136.07 E301.74454
G1 X160.15 Y135.92 E301.78584
G1 X159.48 Y135.83 E301.82806
G1 X158.79 Y135.80 E301.87108
G1 X158.17 Y135.83 E301.91009
G0 F7200 X158.21 Y136.43
G1 F2700 X157.60 Y136.51 E301.94870
G1 X157.00 Y136.64 E301.98683
G1 X156.43 Y136.82 E302.02434
G1 X155.85 Y137.06 E302.06309
G1 X155.49 Y137.25 E302.08875
G1 X155.49 Y142.72 E302.43025
G1 X162.12 Y142.72 E302.84391
G1 X162.12 Y137.24 E303.18553
G1 X161.79 Y137.07 E303.20854
G1 X161.23 Y136.84 E303.24681
G1 X160.63 Y136.65 E303.28584
G1 X160.04 Y136.51 E303.32343
G1 X159.44 Y136.43 E303.36137
G1 X158.80 Y136.40 E303.40158
G1 X158.21 Y136.43 E303.43809
G0 F7200 X122.27 Y137.86
G1 F2700 X121.81 Y137.59 E303.47154
G1 X121.27 Y137.34 E303.50821
G1 X120.71 Y137.15 E303.54535
G1 X120.13 Y137.01 E303.58218
G1 X119.54 Y136.93 E303.61929
G1 X118.95 Y136.90 E303.65625
G1 X118.36 Y136.93 E303.69315
G1 X117.77 Y137.01 E303.73058
G1 X117.20 Y137.15 E303.76676
G1 X116.63 Y137.35 E303.80439
G1 X116.10 Y137.59 E303.84103
G1 X115.64 Y137.86 E303.87440
G1 X115.64 Y143.58 E304.23105
G1 X122.27 Y143.58 E304.64476
G1 X122.27 Y137.86 E305.00142
G0 F7200 X122.64 Y137.38
G1 F2700 X122.07 Y137.05 E305.04251
G1 X121.50 Y136.79 E305.08222
G1 X120.88 Y136.57 E305.12299
G1 X120.25 Y136.42 E305.16354
G1 X119.59 Y136.33 E305.20450
G1 X118.95 Y136.30 E305.24464
G1 X118.31 Y136.33 E305.28478
G1 X117.66 Y136.42 E305.32580
G1 X117.03 Y136.57 E305.36590
G1 X116.41 Y136.79 E305.40716
G1 X115.83 Y137.05 E305.44682
G1 X115.28 Y137.37 E305.48644
G1 X115.03 Y137.54 E305.50506
G1 X115.03 Y144.18 E305.91877
G1 X122.87 Y144.18 E306.40732
G1 X122.87 Y137.54 E306.82110
G1 X122.64 Y137.38 E306.83826
G0 F7200 X122.96 Y136.87
G1 F2700 X122.36 Y136.52 E306.88204
G1 X121.72 Y136.23 E306.92591
G1 X121.05 Y136.00 E306.96986
G1 X120.35 Y135.83 E307.01452
G1 X119.66 Y135.73 E307.05837
G1 X118.95 Y135.70 E307.10245
G1 X118.25 Y135.73 E307.14640
G1 X117.55 Y135.83 E307.19057
G1 X116.86 Y136.00 E307.23445
G1 X116.18 Y136.23 E307.27934
G1 X115.55 Y136.52 E307.32257
G1 X114.96 Y136.86 E307.36526
G1 X114.44 Y137.23 E307.40530
G1 X114.44 Y144.78 E307.87576
G1 X123.47 Y144.78 E308.43915
G1 X123.47 Y137.23 E308.90968
G1 X122.96 Y136.87 E308.94832
G0 F7200 X123.29 Y136.37
G1 F2700 X122.63 Y135.99 E308.99562
G1 X121.93 Y135.67 E309.04367
G1 X121.22 Y135.42 E309.09059
G1 X120.46 Y135.24 E309.13916
G1 X119.72 Y135.13 E309.18605
G1 X118.95 Y135.10 E309.23399
G1 X118.19 Y135.13 E309.28188
G1 X117.44 Y135.24 E309.32901
G1 X116.69 Y135.42 E309.37700
G1 X115.97 Y135.67 E309.42445
G1 X115.27 Y135.99 E309.47271
G1 X114.64 Y136.35 E309.51780
G1 X114.01 Y136.80 E309.56590
G1 X113.83 Y136.95 E309.58032
G1 X113.83 Y145.38 E310.10585
G1 X124.07 Y145.38 E310.74407
G1 X124.07 Y136.94 E311.26985
G1 X123.92 Y136.81 E311.28228
G1 X123.29 Y136.37 E311.33035
G0 F7200 X123.61 Y135.86
G1 F2700 X122.91 Y135.46 E311.38089
G1 X122.16 Y135.11 E311.43257
G1 X121.38 Y134.84 E311.48391
G1 X120.59 Y134.65 E311.53467
G1 X119.77 Y134.53 E311.58615
G1 X118.95 Y134.49 E311.63728
G1 X118.13 Y134.53 E311.68842
G1 X117.33 Y134.65 E311.73915
G1 X116.52 Y134.84 E311.79104
G1 X115.75 Y135.11 E311.84206
G1 X115.00 Y135.45 E311.89339
G1 X114.31 Y135.85 E311.94301
G1 X113.64 Y136.32 E311.99410
G1 X113.23 Y136.67 E312.02736
G1 X113.23 Y145.98 E312.60752
G1 X124.67 Y145.98 E313.32057
G1 X124.67 Y136.67 E313.90079
G1 X124.28 Y136.34 E313.93249
G1 X123.61 Y135.86 E313.98392
G0 F7200 X123.94 Y135.36
G1 F2700 X123.18 Y134.92 E314.03893
G1 X122.38 Y134.56 E314.09369
G1 X121.55 Y134.27 E314.14859
G1 X120.70 Y134.06 E314.20326
G1 X119.83 Y133.94 E314.25770
G1 X118.95 Y133.89 E314.31271
G1 X118.07 Y133.94 E314.36765
G1 X117.21 Y134.06 E314.42221
G1 X116.36 Y134.27 E314.47656
G1 X115.52 Y134.56 E314.53186
G1 X114.72 Y134.92 E314.58675
G1 X113.99 Y135.34 E314.63948
G1 X113.26 Y135.86 E314.69483
G1 X112.64 Y136.40 E314.74652
G1 X112.64 Y146.58 E315.38131
G1 X125.27 Y146.58 E316.16920
G1 X125.27 Y136.40 E316.80399
G1 X124.66 Y135.87 E316.85431
G1 X123.94 Y135.36 E316.90904
G0 F7200 X124.27 Y134.85
G1 F2700 X123.46 Y134.39 E316.96738
G1 X122.61 Y134.00 E317.02576
G1 X121.72 Y133.69 E317.08430
G1 X120.82 Y133.47 E317.14205
G1 X119.88 Y133.34 E317.20096
G1 X118.95 Y133.29 E317.25915
G1 X118.01 Y133.34 E317.31796
G1 X117.10 Y133.47 E317.37548
G1 X116.19 Y133.69 E317.43374
G1 X115.30 Y134.00 E317.49267
G1 X114.45 Y134.38 E317.55064
G1 X113.66 Y134.84 E317.60747
G1 X112.90 Y135.38 E317.66568
G1 X112.19 Y135.99 E317.72436
G1 X112.03 Y136.15 E317.73794
G1 X112.03 Y147.18 E318.42555
G1 X125.87 Y147.18 E319.28828
G1 X125.87 Y136.15 E319.97602
G1 X125.73 Y136.01 E319.98823
G1 X125.03 Y135.39 E320.04655
G1 X124.27 Y134.85 E320.10464
G0 F7200 X124.59 Y134.35
G1 F2700 X123.73 Y133.85 E320.16681
G1 X122.83 Y133.44 E320.22857
G1 X121.89 Y133.12 E320.29071
G1 X120.93 Y132.88 E320.35238
G1 X119.94 Y132.74 E320.41488
G1 X118.95 Y132.69 E320.47632
G1 X117.97 Y132.74 E320.53775
G1 X116.98 Y132.88 E320.60019
G1 X116.02 Y133.11 E320.66172
G1 X115.07 Y133.44 E320.72422
G1 X114.17 Y133.85 E320.78576
G1 X113.34 Y134.33 E320.84561
G1 X112.52 Y134.91 E320.90816
G1 X111.78 Y135.55 E320.96940
G1 X111.44 Y135.91 E321.00036
G1 X111.44 Y147.78 E321.74042
G1 X126.47 Y147.78 E322.67798
G1 X126.47 Y135.91 E323.41817
G1 X126.15 Y135.57 E323.44706
G1 X125.39 Y134.92 E323.50931
G1 X124.59 Y134.35 E323.57048
G0 F7200 X124.91 Y133.84
G1 F2700 X124.01 Y133.32 E323.63558
G1 X123.06 Y132.88 E323.70091
G1 X122.06 Y132.54 E323.76668
G1 X121.04 Y132.29 E323.83219
G1 X120.00 Y132.14 E323.89766
G1 X118.95 Y132.09 E323.96303
G1 X117.91 Y132.14 E324.02827
G1 X116.87 Y132.29 E324.09386
G1 X115.84 Y132.54 E324.15937
G1 X114.85 Y132.88 E324.22502
G1 X113.90 Y133.32 E324.29041
G1 X113.02 Y133.83 E324.35372
G1 X112.16 Y134.43 E324.41932
G1 X111.36 Y135.12 E324.48490
G1 X110.83 Y135.67 E324.53227
G1 X110.83 Y148.38 E325.32484
G1 X127.07 Y148.38 E326.33723
G1 X127.07 Y135.67 E327.12980
G1 X126.56 Y135.13 E327.17594
G1 X125.77 Y134.45 E327.24071
G1 X124.91 Y133.84 E327.30653
G0 F7200 X125.24 Y133.34
G1 F2700 X124.28 Y132.78 E327.37610
G1 X123.28 Y132.33 E327.44450
G1 X122.23 Y131.96 E327.51385
G1 X121.15 Y131.70 E327.58315
G1 X120.06 Y131.54 E327.65177
G1 X118.95 Y131.49 E327.72094
G1 X117.84 Y131.54 E327.79012
G1 X116.76 Y131.70 E327.85867
G1 X115.67 Y131.96 E327.92803
G1 X114.62 Y132.33 E327.99732
G1 X113.63 Y132.78 E328.06572
G1 X112.69 Y133.32 E328.13319
G1 X111.79 Y133.96 E328.20209
G1 X110.95 Y134.68 E328.27112
G1 X110.23 Y135.43 E328.33543
G1 X110.23 Y148.98 E329.18045
G1 X127.67 Y148.98 E330.26768
G1 X127.67 Y135.43 E331.11269
G1 X126.98 Y134.70 E331.17511
G1 X126.14 Y133.98 E331.24421
G1 X125.24 Y133.34 E331.31281
G0 F7200 X127.78 Y130.50
G1 F2700 X128.77 Y131.25 E331.39046
G1 X128.81 Y131.28 E331.39336
G1 X129.72 Y132.10 E331.46970
G1 X130.57 Y133.01 E331.54769
G1 X130.63 Y133.07 E331.55268
G1 X131.44 Y134.09 E331.63452
G1 X131.44 Y152.75 E332.79803
G1 X106.46 Y152.75 E334.35610
G1 X106.46 Y134.09 E335.51960
G1 X107.28 Y133.06 E335.60165
G1 X108.14 Y132.15 E335.68006
G1 X109.07 Y131.30 E335.75847
G1 X110.07 Y130.54 E335.83692
G1 X111.12 Y129.85 E335.91532
G1 X112.23 Y129.26 E335.99372
G1 X113.39 Y128.76 E336.07220
G1 X114.58 Y128.35 E336.15061
G1 X115.80 Y128.04 E336.22901
G1 X117.04 Y127.84 E336.30748
G1 X118.29 Y127.73 E336.38589
G1 X119.58 Y127.73 E336.46647
G1 X120.80 Y127.83 E336.54274
G1 X122.04 Y128.03 E336.62108
G1 X123.26 Y128.33 E336.69958
G1 X124.45 Y128.73 E336.77796
G1 X125.61 Y129.23 E336.85640
G1 X126.75 Y129.84 E336.93703
G1 X127.78 Y130.50 E337.01321
G0 F7200 X128.12 Y130.00
G1 F2700 X129.13 Y130.77 E337.09193
G1 X129.19 Y130.81 E337.09669
G1 X130.13 Y131.67 E337.17621
G1 X131.02 Y132.60 E337.25628
G1 X131.09 Y132.68 E337.26291
G1 X132.04 Y133.88 E337.35878
G1 X132.04 Y153.35 E338.57273
G1 X105.86 Y153.35 E340.20563
G1 X105.86 Y133.88 E341.41965
G1 X106.83 Y132.67 E341.51627
G1 X107.72 Y131.72 E341.59771
G1 X108.69 Y130.84 E341.67917
G1 X109.72 Y130.04 E341.76069
G1 X110.82 Y129.34 E341.84211
G1 X111.97 Y128.72 E341.92359
G1 X113.17 Y128.20 E342.00511
G1 X114.41 Y127.78 E342.08656
G1 X115.67 Y127.46 E342.16804
G1 X116.96 Y127.24 E342.24955
G1 X118.26 Y127.13 E342.33103
G1 X119.53 Y127.13 E342.41029
G1 X119.61 Y127.13 E342.41472
G1 X120.87 Y127.23 E342.49406
G1 X122.16 Y127.44 E342.57544
G1 X123.43 Y127.75 E342.65695
G1 X124.67 Y128.17 E342.73842
G1 X125.87 Y128.69 E342.81988
G1 X126.99 Y129.28 E342.89919
G1 X127.06 Y129.32 E342.90365
G1 X128.12 Y130.00 E342.98287
G0 F7200 X128.47 Y129.51
G1 F2700 X129.49 Y130.29 E343.06283
G1 X129.57 Y130.35 E343.06929
G1 X130.56 Y131.24 E343.15203
G1 X131.46 Y132.20 E343.23417
G1 X131.55 Y132.30 E343.24239
G1 X132.64 Y133.68 E343.35228
G1 X132.64 Y153.95 E344.61675
G1 X105.26 Y153.95 E346.32449
G1 X105.26 Y133.68 E347.58896
G1 X106.37 Y132.28 E347.70022
G1 X107.30 Y131.29 E347.78467
G1 X108.30 Y130.38 E347.86917
G1 X109.38 Y129.55 E347.95376
G1 X110.51 Y128.82 E348.03821
G1 X111.71 Y128.18 E348.12272
G1 X112.95 Y127.64 E348.20732
G1 X114.23 Y127.20 E348.29187
G1 X115.55 Y126.87 E348.37636
G1 X116.89 Y126.64 E348.46091
G1 X118.24 Y126.53 E348.54546
G1 X119.53 Y126.53 E348.62628
G1 X119.63 Y126.53 E348.63233
G1 X120.95 Y126.64 E348.71467
G1 X122.28 Y126.85 E348.79901
G1 X123.60 Y127.18 E348.88362
G1 X124.88 Y127.61 E348.96811
G1 X126.13 Y128.15 E349.05267
G1 X127.27 Y128.75 E349.13352
G1 X127.36 Y128.80 E349.13952
G1 X128.47 Y129.51 E349.22176
G0 F7200 X128.81 Y129.02
G1 F2700 X129.85 Y129.81 E349.30297
G1 X129.95 Y129.89 E349.31116
G1 X130.97 Y130.81 E349.39709
G1 X131.90 Y131.79 E349.48134
G1 X132.01 Y131.91 E349.49115
G1 X133.24 Y133.47 E349.61507
G1 X133.24 Y154.55 E350.92999
G1 X104.66 Y154.55 E352.71256
G1 X104.66 Y133.47 E354.02755
G1 X105.92 Y131.89 E354.15336
G1 X106.88 Y130.86 E354.24081
G1 X107.92 Y129.92 E354.32840
G1 X109.03 Y129.06 E354.41606
G1 X110.21 Y128.30 E354.50354
G1 X111.45 Y127.64 E354.59109
G1 X112.73 Y127.08 E354.67876
G1 X114.06 Y126.62 E354.76638
G1 X115.43 Y126.28 E354.85391
G1 X116.81 Y126.05 E354.94149
G1 X118.21 Y125.93 E355.02917
G1 X119.53 Y125.93 E355.11149
G1 X119.65 Y125.93 E355.11910
G1 X121.02 Y126.04 E355.20444
G1 X122.40 Y126.27 E355.29182
G1 X123.77 Y126.60 E355.37950
G1 X125.10 Y127.05 E355.46708
G1 X126.39 Y127.61 E355.55466
G1 X127.56 Y128.22 E355.63710
G1 X127.66 Y128.28 E355.64466
G1 X128.81 Y129.02 E355.72987
G0 F7200 X129.16 Y128.53
G1 F2700 X130.21 Y129.33 E355.81228
G1 X130.34 Y129.42 E355.82217
G1 X131.39 Y130.38 E355.91123
G1 X132.35 Y131.39 E355.99765
G1 X132.47 Y131.53 E356.00905
G1 X133.84 Y133.26 E356.14699
G1 X133.84 Y155.15 E357.51242
G1 X104.06 Y155.15 E359.36983
G1 X104.06 Y133.25 E360.73533
G1 X105.46 Y131.49 E360.87570
G1 X106.45 Y130.44 E360.96615
G1 X107.53 Y129.46 E361.05683
G1 X108.68 Y128.57 E361.14756
G1 X109.90 Y127.78 E361.23810
G1 X111.18 Y127.10 E361.32869
G1 X112.52 Y126.52 E361.41941
G1 X113.89 Y126.05 E361.51006
G1 X115.30 Y125.69 E361.60068
G1 X116.74 Y125.45 E361.69129
G1 X118.19 Y125.33 E361.78204
G1 X119.53 Y125.33 E361.86598
G1 X119.68 Y125.33 E361.87508
G1 X121.09 Y125.44 E361.96349
G1 X122.52 Y125.68 E362.05391
G1 X123.93 Y126.03 E362.14461
G1 X125.31 Y126.49 E362.23521
G1 X126.65 Y127.06 E362.32589
G1 X127.84 Y127.69 E362.40989
G1 X127.97 Y127.76 E362.41901
G1 X129.16 Y128.53 E362.50726
G1 F2400 E361.10726
G0 F7200 X129.29 Y120.38
;TYPE:WALL-INNER
G1 F2400 E362.50726
G1 F2700 X107.91 Y120.38 E363.84082
G1 X107.91 Y103.97 E364.86438
G1 X108.34 Y103.59 E364.90013
G1 X109.32 Y102.85 E364.97672
G1 X110.36 Y102.18 E365.05380
G1 X111.44 Y101.60 E365.13034
G1 X112.56 Y101.10 E365.20686
G1 X113.72 Y100.69 E365.28349
G1 X114.90 Y100.36 E365.36018
G1 X116.12 Y100.12 E365.43749
G1 X117.34 Y99.98 E365.51377
G1 X118.60 Y99.93 E365.59291
G1 X119.83 Y99.98 E365.66930
G1 X121.01 Y100.11 E365.74330
G1 X122.23 Y100.34 E365.82075
G1 X123.41 Y100.66 E365.89740
G1 X124.58 Y101.08 E365.97476
G1 X125.69 Y101.56 E366.05034
G1 X126.79 Y102.15 E366.12765
G1 X127.82 Y102.81 E366.20395
G1 X128.81 Y103.55 E366.28103
G1 X129.29 Y103.97 E366.32116
G1 X129.29 Y120.38 E367.34460
G0 F7200 X129.12 Y120.21
G1 F2700 X129.12 Y103.97 E368.35712
G1 X127.49 Y102.79 E368.48239
G1 X126.40 Y102.13 E368.56199
G1 X125.14 Y101.50 E368.64959
G1 X123.90 Y101.01 E368.73304
G1 X122.62 Y100.62 E368.81661
G1 X121.31 Y100.34 E368.90028
G1 X119.98 Y100.17 E368.98378
G1 X118.70 Y100.11 E369.06343
G1 X118.61 Y100.10 E369.06893
G1 X117.34 Y100.16 E369.14814
G1 X115.97 Y100.32 E369.23469
G1 X114.66 Y100.60 E369.31824
G1 X113.37 Y100.98 E369.40178
G1 X112.12 Y101.47 E369.48537
G1 X110.92 Y102.06 E369.56893
G1 X109.77 Y102.75 E369.65259
G1 X108.74 Y103.50 E369.73188
G1 X108.08 Y103.96 E369.78217
G1 X108.08 Y120.21 E370.79506
G1 X129.12 Y120.21 E372.10680
G0 F7200 X128.52 Y119.61
G1 F2700 X128.52 Y104.28 E373.06276
G1 X127.16 Y103.29 E373.16743
G1 X126.10 Y102.65 E373.24486
G1 X126.03 Y102.61 E373.24967
G1 X124.90 Y102.05 E373.32837
G1 X123.70 Y101.57 E373.40874
G1 X122.47 Y101.20 E373.48923
G1 X121.20 Y100.93 E373.56973
G1 X119.93 Y100.77 E373.65013
G1 X118.67 Y100.71 E373.72823
G1 X118.61 Y100.70 E373.73235
G1 X117.38 Y100.76 E373.80937
G1 X117.30 Y100.76 E373.81387
G1 X116.07 Y100.92 E373.89162
G1 X114.80 Y101.18 E373.97204
G1 X113.57 Y101.55 E374.05247
G1 X112.37 Y102.02 E374.13298
G1 X111.21 Y102.59 E374.21341
G1 X110.10 Y103.25 E374.29388
G1 X109.08 Y103.99 E374.37206
G1 X108.68 Y104.27 E374.40281
G1 X108.68 Y119.61 E375.35902
G1 X128.52 Y119.61 E376.59592
G1 F2400 E375.19592
G0 F7200 X129.89 Y120.98
G1 F2400 E376.59592
G1 F2700 X107.31 Y120.98 E378.00432
G1 X107.31 Y103.70 E379.08226
G1 X107.96 Y103.12 E379.13649
G1 X108.97 Y102.36 E379.21534
G1 X110.06 Y101.66 E379.29566
G1 X111.17 Y101.06 E379.37493
G1 X112.34 Y100.54 E379.45474
G1 X113.53 Y100.11 E379.53369
G1 X114.77 Y99.78 E379.61330
G1 X116.03 Y99.53 E379.69339
G1 X117.30 Y99.38 E379.77301
G1 X118.61 Y99.33 E379.85477
G1 X119.86 Y99.38 E379.93302
G1 X121.11 Y99.52 E380.01135
G1 X122.36 Y99.76 E380.09082
G1 X123.59 Y100.09 E380.17040
G1 X124.80 Y100.52 E380.25059
G1 X125.95 Y101.03 E380.32905
G1 X127.09 Y101.63 E380.40910
G1 X128.16 Y102.32 E380.48873
G1 X129.19 Y103.08 E380.56835
G1 X129.89 Y103.70 E380.62683
G1 X129.89 Y120.98 E381.70470
G0 F7200 X130.49 Y121.58
;TYPE:WALL-OUTER
G1 F2700 X106.71 Y121.58 E383.18794
G1 X106.71 Y103.42 E384.32026
G1 X107.58 Y102.66 E384.39247
G1 X108.64 Y101.86 E384.47511
G1 X109.74 Y101.15 E384.55716
G1 X110.91 Y100.52 E384.63958
G1 X112.12 Y99.98 E384.72253
G1 X113.36 Y99.54 E384.80447
G1 X114.62 Y99.19 E384.88619
G1 X115.94 Y98.94 E384.96961
G1 X117.24 Y98.79 E385.05159
G1 X118.58 Y98.73 E385.13492
G1 X118.61 Y98.73 E385.13666
G1 X119.89 Y98.78 E385.21686
G1 X119.93 Y98.78 E385.21923
G1 X121.19 Y98.93 E385.29856
G1 X122.49 Y99.17 E385.38122
G1 X123.77 Y99.52 E385.46382
G1 X125.03 Y99.96 E385.54660
G1 X126.22 Y100.48 E385.62777
G1 X127.39 Y101.11 E385.71113
G1 X128.50 Y101.82 E385.79315
G1 X129.56 Y102.61 E385.87576
G1 X130.49 Y103.42 E385.95257
G1 X130.49 Y121.58 E387.08489
G1 F2400 E385.68489
G0 F7200 X127.92 Y119.01
G1 F2400 E387.08489
G1 F2700 X127.92 Y104.58 E387.98435
G1 X126.83 Y103.79 E388.06835
G1 X125.78 Y103.16 E388.14491
G1 X124.66 Y102.60 E388.22303
G1 X123.50 Y102.14 E388.30032
G1 X122.32 Y101.78 E388.37769
G1 X121.10 Y101.52 E388.45505
G1 X119.88 Y101.36 E388.53232
G1 X118.65 Y101.31 E388.60892
G1 X118.60 Y101.31 E388.61166
G1 X117.41 Y101.36 E388.68650
G1 X116.17 Y101.51 E388.76442
G1 X114.95 Y101.76 E388.84178
G1 X113.76 Y102.12 E388.91908
G1 X112.61 Y102.57 E388.99637
G1 X111.50 Y103.12 E389.07374
G1 X110.43 Y103.75 E389.15108
G1 X109.44 Y104.47 E389.22768
G1 X109.28 Y104.58 E389.23935
G1 X109.28 Y119.01 E390.13887
G1 X127.92 Y119.01 E391.30093
G1 F2400 E389.90093
G0 F7200 X123.81 Y130.42
;TYPE:WALL-INNER
G1 F2400 E391.30093
G1 F2700 X124.83 Y130.85 E391.36969
G1 X125.84 Y131.39 E391.44147
G1 X126.74 Y131.97 E391.50817
G1 X127.66 Y132.66 E391.57973
G1 X128.46 Y133.39 E391.64733
G1 X129.24 Y134.22 E391.71809
G1 X129.64 Y134.72 E391.75851
G1 X129.64 Y150.95 E392.77054
G1 X108.26 Y150.95 E394.10410
G1 X108.26 Y134.72 E395.11619
G1 X108.64 Y134.25 E395.15422
G1 X109.40 Y133.43 E395.22362
G1 X110.22 Y132.69 E395.29302
G1 X111.12 Y132.00 E395.36307
G1 X112.03 Y131.41 E395.43106
G1 X113.03 Y130.88 E395.50134
G1 X114.03 Y130.44 E395.56949
G1 X115.09 Y130.08 E395.63926
G1 X116.17 Y129.81 E395.70915
G1 X117.25 Y129.62 E395.77745
G1 X118.37 Y129.53 E395.84729
G1 X119.51 Y129.53 E395.91845
G1 X120.58 Y129.62 E395.98508
G1 X121.69 Y129.80 E396.05534
G1 X122.75 Y130.06 E396.12389
G1 X123.81 Y130.42 E396.19364
G0 F7200 X123.94 Y130.65
G1 F2700 X122.73 Y130.23 E396.27336
G1 X121.49 Y129.93 E396.35299
G1 X120.23 Y129.75 E396.43270
G1 X118.95 Y129.69 E396.51242
G1 X117.67 Y129.75 E396.59215
G1 X116.41 Y129.93 E396.67179
G1 X115.17 Y130.23 E396.75155
G1 X113.96 Y130.65 E396.83121
G1 X112.80 Y131.18 E396.91091
G1 X111.72 Y131.80 E396.98853
G1 X110.68 Y132.54 E397.06807
G1 X109.71 Y133.37 E397.14780
G1 X108.87 Y134.25 E397.22309
G1 X108.44 Y134.70 E397.26270
G1 X108.44 Y150.78 E398.26499
G1 X129.47 Y150.78 E399.57673
G1 X129.47 Y134.71 E400.57896
G1 X128.22 Y133.40 E400.69166
G1 X127.25 Y132.56 E400.77137
G1 X126.21 Y131.82 E400.85102
G1 X125.11 Y131.18 E400.93076
G1 X123.94 Y130.65 E401.01052
G0 F7200 X123.72 Y131.21
G1 F2700 X122.57 Y130.81 E401.08667
G1 X121.38 Y130.52 E401.16277
G1 X120.17 Y130.35 E401.23888
G1 X118.95 Y130.29 E401.31505
G1 X117.73 Y130.35 E401.39122
G1 X116.53 Y130.52 E401.46727
G1 X115.34 Y130.81 E401.54348
G1 X114.18 Y131.21 E401.61957
G1 X113.07 Y131.72 E401.69573
G1 X112.04 Y132.31 E401.76983
G1 X111.05 Y133.01 E401.84589
G1 X110.12 Y133.81 E401.92203
G1 X109.31 Y134.66 E401.99551
G1 X109.03 Y134.94 E402.02008
G1 X109.03 Y150.18 E402.96993
G1 X128.87 Y150.18 E404.20683
G1 X128.87 Y134.94 E405.15668
G1 X127.81 Y133.83 E405.25262
G1 X126.88 Y133.03 E405.32870
G1 X125.89 Y132.33 E405.40486
G1 X124.83 Y131.72 E405.48100
G1 X123.72 Y131.21 E405.55721
G0 F7200 X124.02 Y129.85
G1 F2700 X125.09 Y130.31 E405.62951
G1 X126.15 Y130.87 E405.70419
G1 X127.09 Y131.48 E405.77392
G1 X128.03 Y132.20 E405.84815
G1 X128.88 Y132.96 E405.91937
G1 X129.68 Y133.81 E405.99198
G1 X130.24 Y134.51 E406.04811
G1 X130.24 Y151.55 E407.11064
G1 X107.66 Y151.55 E408.51904
G1 X107.66 Y134.51 E409.58152
G1 X108.19 Y133.85 E409.63464
G1 X108.98 Y133.00 E409.70695
G1 X109.84 Y132.22 E409.77896
G1 X110.76 Y131.52 E409.85159
G1 X111.73 Y130.89 E409.92381
G1 X112.76 Y130.34 E409.99608
G1 X113.81 Y129.88 E410.06788
G1 X114.92 Y129.50 E410.14069
G1 X116.04 Y129.22 E410.21292
G1 X117.19 Y129.03 E410.28556
G1 X118.34 Y128.93 E410.35772
G1 X119.53 Y128.93 E410.43200
G1 X120.66 Y129.02 E410.50238
G1 X121.79 Y129.21 E410.57410
G1 X122.93 Y129.49 E410.64714
G1 X124.02 Y129.85 E410.71912
G0 F7200 X124.23 Y129.29
;TYPE:WALL-OUTER
G1 F2700 X125.35 Y129.77 E410.79480
G1 X126.45 Y130.36 E410.87280
G1 X127.42 Y130.98 E410.94475
G1 X128.41 Y131.73 E411.02169
G1 X129.30 Y132.53 E411.09649
G1 X130.13 Y133.41 E411.17242
G1 X130.84 Y134.30 E411.24337
G1 X130.84 Y152.15 E412.35636
G1 X107.06 Y152.15 E413.83959
G1 X107.06 Y134.30 E414.95258
G1 X107.74 Y133.45 E415.02035
G1 X108.56 Y132.58 E415.09535
G1 X109.45 Y131.76 E415.17080
G1 X110.42 Y131.03 E415.24628
G1 X111.43 Y130.37 E415.32179
G1 X112.49 Y129.80 E415.39670
G1 X113.60 Y129.32 E415.47227
G1 X114.75 Y128.93 E415.54771
G1 X115.92 Y128.63 E415.62289
G1 X117.11 Y128.43 E415.69852
G1 X118.31 Y128.33 E415.77380
G1 X119.56 Y128.33 E415.85132
G1 X120.73 Y128.42 E415.92459
G1 X121.92 Y128.62 E415.99990
G1 X123.09 Y128.91 E416.07525
G1 X124.23 Y129.29 E416.15027
G1 F2400 E414.75027
G0 F7200 X123.50 Y131.77
G1 F2400 E416.15027
G1 F2700 X122.40 Y131.39 E416.22285
G1 X121.27 Y131.11 E416.29536
G1 X120.11 Y130.95 E416.36795
G1 X118.95 Y130.89 E416.44055
G1 X117.79 Y130.95 E416.51316
G1 X116.64 Y131.11 E416.58569
G1 X115.51 Y131.39 E416.65832
G1 X114.41 Y131.77 E416.73084
G1 X113.35 Y132.25 E416.80342
G1 X112.37 Y132.81 E416.87400
G1 X111.42 Y133.49 E416.94653
G1 X110.54 Y134.25 E417.01914
G1 X109.64 Y135.19 E417.10030
G1 X109.64 Y149.58 E417.99776
G1 X128.27 Y149.58 E419.15983
G1 X128.27 Y135.19 E420.05723
G1 X127.39 Y134.27 E420.13640
G1 X126.51 Y133.51 E420.20895
G1 X125.56 Y132.83 E420.28157
G1 X124.56 Y132.25 E420.35411
G1 X123.50 Y131.77 E420.42675
G1 F2400 E419.02675
G0 F7200 X148.11 Y133.81
;TYPE:WALL-INNER
G1 F2400 E420.42675
G1 F2700 X148.51 Y133.37 E420.46380
G1 X149.35 Y132.57 E420.53570
G1 X150.23 Y131.86 E420.60653
G1 X151.17 Y131.22 E420.67757
G1 X152.17 Y130.65 E420.74899
G1 X153.21 Y130.16 E420.82055
G1 X154.28 Y129.75 E420.89205
G1 X155.38 Y129.44 E420.96326
G1 X156.50 Y129.21 E421.03448
G1 X157.63 Y129.07 E421.10572
G1 X158.81 Y129.02 E421.17944
G1 X159.91 Y129.06 E421.24834
G1 X161.06 Y129.20 E421.32024
G1 X162.18 Y129.42 E421.39120
G1 X163.27 Y129.73 E421.46233
G1 X164.35 Y130.13 E421.53423
G1 X165.38 Y130.62 E421.60512
G1 X166.37 Y131.18 E421.67606
G1 X167.33 Y131.82 E421.74787
G1 X168.22 Y132.53 E421.81909
G1 X169.05 Y133.31 E421.89025
G1 X169.50 Y133.81 E421.93166
G1 X169.50 Y150.10 E422.94755
G1 X148.11 Y150.10 E424.28105
G1 X148.11 Y133.81 E425.29701
G0 F7200 X148.29 Y133.79
G1 F2700 X148.29 Y149.92 E426.30304
G1 X169.32 Y149.92 E427.61472
G1 X169.32 Y133.80 E428.62038
G1 X167.97 Y132.55 E428.73486
G1 X167.01 Y131.81 E428.81052
G1 X166.02 Y131.17 E428.88402
G1 X165.94 Y131.12 E428.88984
G1 X164.87 Y130.55 E428.96574
G1 X163.72 Y130.07 E429.04333
G1 X162.53 Y129.69 E429.12103
G1 X161.32 Y129.42 E429.19871
G1 X160.09 Y129.25 E429.27628
G1 X158.93 Y129.20 E429.34814
G1 X158.82 Y129.19 E429.35514
G1 X157.60 Y129.25 E429.43167
G1 X156.36 Y129.41 E429.50921
G1 X155.15 Y129.67 E429.58692
G1 X153.96 Y130.05 E429.66459
G1 X152.81 Y130.52 E429.74221
G1 X151.70 Y131.10 E429.81989
G1 X150.70 Y131.74 E429.89401
G1 X150.62 Y131.79 E429.90018
G1 X149.66 Y132.53 E429.97531
G1 X148.80 Y133.33 E430.04880
G1 X148.29 Y133.79 E430.09171
G0 F7200 X148.89 Y134.06
G1 F2700 X148.89 Y149.32 E431.04380
G1 X168.72 Y149.32 E432.28064
G1 X168.72 Y134.06 E433.23254
G1 X167.59 Y133.01 E433.32901
G1 X166.67 Y132.30 E433.40139
G1 X165.70 Y131.67 E433.47332
G1 X164.61 Y131.10 E433.55006
G1 X163.51 Y130.64 E433.62439
G1 X162.38 Y130.27 E433.69882
G1 X161.21 Y130.01 E433.77318
G1 X160.03 Y129.85 E433.84748
G1 X158.88 Y129.80 E433.91940
G1 X158.81 Y129.79 E433.92340
G1 X157.65 Y129.84 E433.99625
G1 X156.47 Y130.00 E434.07058
G1 X155.30 Y130.25 E434.14498
G1 X154.16 Y130.61 E434.21936
G1 X153.06 Y131.07 E434.29373
G1 X152.00 Y131.62 E434.36812
G1 X151.03 Y132.24 E434.44033
G1 X150.05 Y132.99 E434.51689
G1 X149.21 Y133.77 E434.58861
G1 X148.89 Y134.06 E434.61532
G0 F7200 X148.08 Y132.94
G1 F2700 X148.95 Y132.12 E434.68974
G1 X149.87 Y131.38 E434.76322
G1 X150.87 Y130.70 E434.83853
G1 X151.89 Y130.12 E434.91234
G1 X152.98 Y129.60 E434.98707
G1 X154.08 Y129.19 E435.06051
G1 X155.24 Y128.85 E435.13562
G1 X156.41 Y128.62 E435.21008
G1 X157.58 Y128.47 E435.28390
G1 X158.82 Y128.42 E435.36105
G1 X159.96 Y128.47 E435.43232
G1 X161.14 Y128.60 E435.50680
G1 X162.32 Y128.84 E435.58133
G1 X163.46 Y129.16 E435.65542
G1 X164.58 Y129.58 E435.73020
G1 X165.66 Y130.09 E435.80461
G1 X166.69 Y130.66 E435.87797
G1 X167.69 Y131.34 E435.95302
G1 X168.61 Y132.08 E436.02724
G1 X169.48 Y132.90 E436.10154
G1 X170.10 Y133.57 E436.15854
G1 X170.10 Y150.70 E437.22631
G1 X147.51 Y150.70 E438.63465
G1 X147.51 Y133.57 E439.70249
G1 X148.08 Y132.94 E439.75547
G0 F7200 X147.66 Y132.52
;TYPE:WALL-OUTER
G1 F2700 X148.56 Y131.67 E439.83302
G1 X149.51 Y130.90 E439.90908
G1 X150.55 Y130.19 E439.98752
G1 X151.62 Y129.58 E440.06440
G1 X152.73 Y129.06 E440.14125
G1 X153.91 Y128.61 E440.21948
G1 X155.09 Y128.27 E440.29610
G1 X156.30 Y128.03 E440.37348
G1 X157.53 Y127.88 E440.45082
G1 X158.79 Y127.82 E440.52909
G1 X158.81 Y127.82 E440.53065
G1 X160.01 Y127.87 E440.60567
G1 X161.24 Y128.01 E440.68291
G1 X162.45 Y128.25 E440.75959
G1 X163.65 Y128.59 E440.83770
G1 X164.81 Y129.02 E440.91448
G1 X165.94 Y129.55 E440.99204
G1 X167.01 Y130.16 E441.06892
G1 X168.05 Y130.86 E441.14730
G1 X169.00 Y131.62 E441.22343
G1 X169.91 Y132.47 E441.30095
G1 X170.70 Y133.34 E441.37414
G1 X170.70 Y151.30 E442.49374
G1 X146.91 Y151.30 E443.97692
G1 X146.91 Y133.34 E445.09651
G1 X147.66 Y132.52 E445.16548
G1 F2400 E443.76548
G0 F7200 X149.49 Y134.32
G1 F2400 E445.16548
G1 F2700 X149.49 Y148.72 E446.06363
G1 X168.12 Y148.72 E447.22564
G1 X168.12 Y134.32 E448.12372
G1 X167.20 Y133.47 E448.20219
G1 X166.32 Y132.79 E448.27132
G1 X165.37 Y132.18 E448.34162
G1 X164.35 Y131.64 E448.41346
G1 X163.30 Y131.20 E448.48454
G1 X162.22 Y130.85 E448.55563
G1 X161.11 Y130.60 E448.62673
G1 X159.98 Y130.45 E448.69776
G1 X158.85 Y130.40 E448.76806
G1 X158.81 Y130.40 E448.77068
G1 X157.70 Y130.44 E448.83997
G1 X156.57 Y130.59 E448.91102
G1 X155.46 Y130.84 E448.98211
G1 X154.37 Y131.18 E449.05323
G1 X153.31 Y131.61 E449.12431
G1 X152.30 Y132.14 E449.19538
G1 X151.35 Y132.75 E449.26579
G1 X151.31 Y132.77 E449.26854
G1 X150.44 Y133.45 E449.33758
G1 X149.49 Y134.32 E449.41804
G1 F2400 E448.01804
G0 F7200 X148.47 Y118.56
;TYPE:WALL-INNER
G1 F2400 E449.41804
G1 F2700 X148.47 Y102.11 E450.44379
G1 X148.97 Y101.70 E450.48403
G1 X149.98 Y100.99 E450.56124
G1 X151.09 Y100.34 E450.64149
G1 X152.25 Y99.76 E450.72240
G1 X153.48 Y99.27 E450.80500
G1 X154.67 Y98.89 E450.88287
G1 X155.96 Y98.59 E450.96531
G1 X157.20 Y98.40 E451.04373
G1 X158.47 Y98.30 E451.12336
G1 X159.80 Y98.30 E451.20593
G1 X161.06 Y98.39 E451.28461
G1 X162.32 Y98.58 E451.36408
G1 X163.61 Y98.88 E451.44716
G1 X164.81 Y99.26 E451.52514
G1 X166.03 Y99.75 E451.60741
G1 X167.16 Y100.30 E451.68587
G1 X168.27 Y100.95 E451.76592
G1 X169.36 Y101.71 E451.84853
G1 X169.85 Y102.11 E451.88820
G1 X169.85 Y118.56 E452.91394
G1 X148.47 Y118.56 E454.24745
G0 F7200 X148.64 Y118.38
G1 F2700 X169.67 Y118.38 E455.55912
G1 X169.67 Y102.11 E456.57376
G1 X167.97 Y100.97 E456.70172
G1 X166.69 Y100.25 E456.79350
G1 X165.40 Y99.67 E456.88151
G1 X164.13 Y99.22 E456.96565
G1 X162.70 Y98.84 E457.05785
G1 X161.31 Y98.60 E457.14575
G1 X159.90 Y98.48 E457.23383
G1 X158.55 Y98.47 E457.31808
G1 X158.45 Y98.47 E457.32438
G1 X157.08 Y98.59 E457.41018
G1 X155.69 Y98.82 E457.49815
G1 X154.32 Y99.17 E457.58628
G1 X153.04 Y99.62 E457.67056
G1 X151.70 Y100.22 E457.76253
G1 X150.46 Y100.90 E457.85048
G1 X148.64 Y102.11 E457.98695
G1 X148.64 Y118.38 E459.00172
G0 F7200 X149.24 Y117.78
G1 F2700 X169.07 Y117.78 E460.23856
G1 X169.07 Y102.43 E461.19582
G1 X167.64 Y101.47 E461.30379
G1 X166.42 Y100.79 E461.39093
G1 X165.18 Y100.22 E461.47580
G1 X163.86 Y99.76 E461.56306
G1 X162.57 Y99.43 E461.64577
G1 X161.23 Y99.19 E461.73057
G1 X159.88 Y99.08 E461.81552
G1 X158.55 Y99.07 E461.89815
G1 X158.48 Y99.07 E461.90282
G1 X157.16 Y99.18 E461.98550
G1 X155.81 Y99.41 E462.07037
G1 X154.50 Y99.75 E462.15529
G1 X153.24 Y100.19 E462.23797
G1 X151.97 Y100.75 E462.32516
G1 X150.77 Y101.41 E462.41004
G1 X149.24 Y102.43 E462.52492
G1 X149.24 Y117.78 E463.48225
G1 F2400 E462.08225
G0 F7200 X147.87 Y119.16
G1 F2400 E463.48225
G1 F2700 X147.87 Y101.83 E464.56312
G1 X148.59 Y101.23 E464.62180
G1 X149.66 Y100.49 E464.70264
G1 X150.80 Y99.81 E464.78552
G1 X152.00 Y99.22 E464.86913
G1 X153.27 Y98.70 E464.95464
G1 X154.51 Y98.31 E465.03577
G1 X155.84 Y98.00 E465.12078
G1 X157.13 Y97.81 E465.20210
G1 X158.45 Y97.70 E465.28473
G1 X159.82 Y97.70 E465.37017
G1 X161.11 Y97.80 E465.45079
G1 X162.44 Y98.00 E465.53429
G1 X163.76 Y98.30 E465.61928
G1 X165.02 Y98.70 E465.70139
G1 X166.27 Y99.19 E465.78508
G1 X167.45 Y99.77 E465.86705
G1 X168.59 Y100.45 E465.95002
G1 X169.72 Y101.23 E466.03546
G1 X170.45 Y101.83 E466.09436
G1 X170.45 Y119.16 E467.17523
G1 X147.87 Y119.16 E468.58357
G0 F7200 X147.27 Y119.76
;TYPE:WALL-OUTER
G1 F2700 X147.27 Y101.54 E469.71963
G1 X148.21 Y100.77 E469.79585
G1 X149.33 Y99.98 E469.88125
G1 X150.52 Y99.28 E469.96701
G1 X151.76 Y98.67 E470.05341
G1 X153.05 Y98.15 E470.13998
G1 X154.35 Y97.74 E470.22503
G1 X155.73 Y97.41 E470.31337
G1 X157.06 Y97.21 E470.39753
G1 X158.43 Y97.10 E470.48323
G1 X159.85 Y97.10 E470.57172
G1 X161.18 Y97.20 E470.65478
G1 X162.56 Y97.41 E470.74188
G1 X163.90 Y97.72 E470.82783
G1 X165.20 Y98.12 E470.91291
G1 X166.50 Y98.64 E471.00001
G1 X167.72 Y99.24 E471.08458
G1 X168.93 Y99.95 E471.17201
G1 X170.08 Y100.75 E471.25946
G1 X171.05 Y101.54 E471.33760
G1 X171.05 Y119.76 E472.47366
G1 X147.27 Y119.76 E473.95683
G1 F2400 E472.55683
G0 F7200 X149.84 Y117.18
G1 F2400 E473.95683
G1 F2700 X168.47 Y117.18 E475.11884
G1 X168.47 Y102.75 E476.01873
G1 X167.26 Y101.94 E476.10966
G1 X166.15 Y101.32 E476.18916
G1 X164.95 Y100.78 E476.27097
G1 X163.68 Y100.33 E476.35497
G1 X162.45 Y100.01 E476.43459
G1 X161.16 Y99.79 E476.51623
G1 X159.85 Y99.68 E476.59805
G1 X158.50 Y99.67 E476.68211
G1 X157.23 Y99.78 E476.76166
G1 X155.94 Y100.00 E476.84337
G1 X154.67 Y100.32 E476.92520
G1 X153.44 Y100.75 E477.00616
G1 X152.23 Y101.29 E477.08868
G1 X151.09 Y101.92 E477.17044
G1 X149.84 Y102.75 E477.26373
G1 X149.84 Y117.18 E478.16363
;LAYER:1
M106 S12
G0 F7200 X148.89 Y118.13 Z0.40
;TYPE:WALL-INNER
G1 F3480 X169.42 Y118.13 E478.80387
G1 X169.42 Y102.25 E479.29925
G1 X167.82 Y101.17 E479.35962
G1 X166.60 Y100.49 E479.40294
G1 X165.34 Y99.91 E479.44631
G1 X164.03 Y99.45 E479.48969
G1 X162.73 Y99.11 E479.53148
G1 X162.62 Y99.08 E479.53522
G1 X161.38 Y98.86 E479.57444
G1 X161.25 Y98.84 E479.57840
G1 X159.92 Y98.73 E479.61993
G1 X158.58 Y98.72 E479.66168
G1 X158.46 Y98.72 E479.66548
G1 X157.14 Y98.83 E479.70673
G1 X155.81 Y99.06 E479.74873
G1 X155.70 Y99.08 E479.75251
G1 X154.42 Y99.41 E479.79353
G1 X153.11 Y99.86 E479.83680
G1 X151.84 Y100.42 E479.88017
G1 X150.62 Y101.09 E479.92358
G1 X149.50 Y101.84 E479.96544
G1 X148.89 Y102.25 E479.98836
G1 X148.89 Y118.13 E480.48370
G0 F7200 X148.22 Y118.81
G1 F3480 X148.22 Y101.99 E481.00808
G1 X148.75 Y101.55 E481.02979
G1 X149.82 Y100.80 E481.07039
G1 X150.99 Y100.11 E481.11273
G1 X152.12 Y99.55 E481.15196
G1 X153.33 Y99.06 E481.19279
G1 X154.58 Y98.66 E481.23367
G1 X155.89 Y98.35 E481.27583
G1 X157.14 Y98.16 E481.31508
G1 X158.44 Y98.05 E481.35574
G1 X159.79 Y98.05 E481.39796
G1 X159.82 Y98.05 E481.39874
G1 X161.04 Y98.14 E481.43708
G1 X162.33 Y98.33 E481.47772
G1 X163.65 Y98.64 E481.51991
G1 X164.86 Y99.01 E481.55931
G1 X166.07 Y99.49 E481.59992
G1 X167.26 Y100.07 E481.64136
G1 X168.38 Y100.72 E481.68162
G1 X169.51 Y101.51 E481.72444
G1 X170.10 Y101.99 E481.74832
G1 X170.10 Y118.81 E482.27267
G1 X148.22 Y118.81 E482.95501
G0 F7200 X147.72 Y119.31
G1 F3480 X147.72 Y101.75 E483.50237
G1 X148.45 Y101.16 E483.53177
G1 X149.54 Y100.39 E483.57358
G1 X150.77 Y99.65 E483.61828
G1 X151.91 Y99.09 E483.65785
G1 X153.15 Y98.59 E483.69936
G1 X154.44 Y98.18 E483.74174
G1 X155.78 Y97.86 E483.78456
G1 X157.06 Y97.66 E483.82511
G1 X158.42 Y97.55 E483.86762
G1 X159.79 Y97.55 E483.91028
G1 X159.83 Y97.55 E483.91146
G1 X161.10 Y97.64 E483.95124
G1 X162.44 Y97.84 E483.99339
G1 X163.76 Y98.15 E484.03574
G1 X165.03 Y98.54 E484.07702
G1 X166.27 Y99.03 E484.11890
G1 X167.49 Y99.62 E484.16090
G1 X168.66 Y100.31 E484.20317
G1 X169.80 Y101.10 E484.24666
G1 X170.60 Y101.75 E484.27877
G1 X170.60 Y119.31 E484.82610
G1 X147.72 Y119.31 E485.53962
G1 F2400 E484.13962
G0 F7200 X149.39 Y117.63
G1 F2400 E485.53962
G1 F3480 X168.92 Y117.63 E486.14869
G1 X168.92 Y102.51 E486.62015
G1 X167.55 Y101.59 E486.67159
G1 X166.38 Y100.94 E486.71362
G1 X165.15 Y100.38 E486.75568
G1 X163.88 Y99.92 E486.79775
G1 X162.61 Y99.59 E486.83879
G1 X162.51 Y99.56 E486.84195
G1 X161.28 Y99.36 E486.88066
G1 X159.90 Y99.23 E486.92400
G1 X158.58 Y99.22 E486.96507
G1 X158.48 Y99.22 E486.96818
G1 X157.21 Y99.33 E487.00815
G1 X155.90 Y99.55 E487.04936
G1 X154.57 Y99.88 E487.09229
G1 X153.29 Y100.33 E487.13431
G1 X152.06 Y100.87 E487.17634
G1 X150.88 Y101.52 E487.21846
G1 X149.78 Y102.25 E487.25958
G1 X149.39 Y102.51 E487.27418
G1 X149.39 Y117.63 E487.74561
G0 F7200 X149.89 Y117.13
;TYPE:WALL-OUTER
G1 F3480 X168.42 Y117.13 E488.32350
G1 X168.42 Y102.78 E488.77104
G1 X167.29 Y102.02 E488.81354
G1 X166.15 Y101.38 E488.85429
G1 X164.96 Y100.84 E488.89502
G1 X163.73 Y100.40 E488.93576
G1 X162.40 Y100.05 E488.97865
G1 X161.19 Y99.85 E489.01688
G1 X161.12 Y99.83 E489.01932
G1 X159.88 Y99.73 E489.05806
G1 X158.58 Y99.72 E489.09848
G1 X158.50 Y99.72 E489.10091
G1 X157.27 Y99.83 E489.13959
G1 X155.99 Y100.04 E489.18004
G1 X154.71 Y100.36 E489.22108
G1 X153.48 Y100.79 E489.26181
G1 X152.28 Y101.32 E489.30256
G1 X151.14 Y101.95 E489.34335
G1 X150.06 Y102.67 E489.38377
G1 X149.89 Y102.78 E489.39001
G1 X149.89 Y117.13 E489.83756
G1 F2400 E488.43756
G0 F7200 X147.22 Y119.81
G1 F2400 E489.83756
G1 F3480 X147.22 Y101.52 E490.40790
G1 X148.14 Y100.76 E490.44526
G1 X149.27 Y99.97 E490.48822
G1 X150.54 Y99.21 E490.53420
G1 X151.70 Y98.64 E490.57447
G1 X152.99 Y98.12 E490.61810
G1 X154.31 Y97.70 E490.66104
G1 X155.66 Y97.38 E490.70449
G1 X157.02 Y97.16 E490.74732
G1 X158.39 Y97.05 E490.79033
G1 X159.79 Y97.05 E490.83383
G1 X159.85 Y97.05 E490.83586
G1 X161.16 Y97.15 E490.87663
G1 X162.52 Y97.35 E490.91951
G1 X163.88 Y97.66 E490.96317
G1 X165.19 Y98.07 E491.00597
G1 X166.47 Y98.58 E491.04883
G1 X167.73 Y99.19 E491.09240
G1 X168.93 Y99.89 E491.13569
G1 X170.10 Y100.70 E491.18043
G1 X171.10 Y101.52 E491.22048
G1 X171.10 Y119.81 E491.79078
G1 X147.22 Y119.81 E492.53549
G1 F2400 E491.13549
G0 F7200 X148.39 Y118.54
;TYPE:FILL
G1 F2400 E492.53549
G1 F3180 X148.55 Y118.03 E492.54982
G1 X148.55 Y117.32 E492.56413
G1 X148.55 Y116.61 E492.57837
G1 X148.55 Y115.90 E492.59261
G1 X148.55 Y115.20 E492.60685
G1 X148.55 Y114.49 E492.62109
G1 X148.55 Y113.78 E492.63533
G1 X148.55 Y113.08 E492.64962
G1 X148.55 Y112.37 E492.66390
G1 X148.55 Y111.66 E492.67819
G1 X148.55 Y110.95 E492.69248
G1 X148.55 Y110.25 E492.70678
G1 X148.55 Y109.54 E492.72102
G1 X148.55 Y108.83 E492.73526
G1 X148.55 Y108.13 E492.74950
G1 X148.55 Y107.42 E492.76375
G1 X148.55 Y106.71 E492.77803
G1 X148.55 Y106.00 E492.79232
G1 X148.55 Y105.30 E492.80660
G1 X148.55 Y104.59 E492.82089
G1 X148.55 Y103.88 E492.83519
G1 X148.55 Y103.18 E492.84943
G1 X148.72 Y102.66 E492.86628
G0 F7200 X148.39 Y102.28
G1 F3180 X149.27 Y101.40 E492.90495
G0 F7200 X150.24 Y101.14
G1 F3180 X151.16 Y100.22 E492.94550
G0 F7200 X151.86 Y100.23
G1 F3180 X152.81 Y99.63 E492.97387
G1 X153.93 Y99.22 E492.99729
G1 X154.93 Y98.92 E493.01844
G1 X155.84 Y98.72 E493.03757
G1 X156.70 Y98.56 E493.05515
G1 X157.51 Y98.46 E493.07166
G1 X158.28 Y98.40 E493.08715
G1 X159.00 Y98.39 E493.10127
G1 X159.70 Y98.39 E493.11564
G1 X160.37 Y98.43 E493.12898
G1 X161.03 Y98.48 E493.14242
G1 X161.64 Y98.57 E493.15474
G1 X162.25 Y98.67 E493.16734
G1 X162.84 Y98.79 E493.17922
G1 X163.40 Y98.93 E493.19107
G1 X163.96 Y99.08 E493.20290
G1 X164.49 Y99.26 E493.21395
G1 X165.02 Y99.44 E493.22553
G1 X165.53 Y99.64 E493.23648
G1 X166.02 Y99.85 E493.24759
G1 X166.50 Y100.07 E493.25844
G1 X167.09 Y100.19 E493.26881
G1 X167.31 Y100.68 E493.27955
G1 X168.00 Y100.70 E493.29003
G1 X168.19 Y101.21 E493.30042
G1 X168.85 Y101.26 E493.31074
G1 X169.04 Y101.78 E493.32080
G1 X169.66 Y101.86 E493.33036
G1 X169.76 Y102.47 E493.34188
G1 X169.76 Y103.18 E493.35616
G1 X169.76 Y103.89 E493.37045
G1 X169.76 Y104.60 E493.38473
G1 X169.76 Y105.30 E493.39902
G1 X169.76 Y106.01 E493.41330
G1 X169.76 Y106.72 E493.42763
G1 X169.76 Y107.42 E493.44196
G1 X169.76 Y108.13 E493.45627
G1 X169.76 Y108.84 E493.47055
G1 X169.76 Y109.55 E493.48484
G1 X169.76 Y110.25 E493.49912
G1 X169.76 Y110.96 E493.51341
G1 X169.76 Y111.67 E493.52769
G1 X169.76 Y112.37 E493.54198
G1 X169.76 Y113.08 E493.55631
G1 X169.76 Y113.79 E493.57064
G1 X169.76 Y114.50 E493.58494
G1 X169.76 Y115.20 E493.59923
G1 X169.76 Y115.91 E493.61352
G1 X169.76 Y116.62 E493.62780
G1 X169.76 Y117.32 E493.64209
G1 X169.76 Y118.03 E493.65637
G1 X169.32 Y118.47 E493.67441
G1 X168.62 Y118.47 E493.68870
G1 X167.91 Y118.47 E493.70298
G1 X167.20 Y118.47 E493.71729
G1 X166.49 Y118.47 E493.73162
G1 X165.79 Y118.47 E493.74595
G1 X165.08 Y118.47 E493.76023
G1 X164.37 Y118.47 E493.77452
G1 X163.66 Y118.47 E493.78880
G1 X162.96 Y118.47 E493.80309
G1 X162.25 Y118.47 E493.81737
G1 X161.54 Y118.47 E493.83166
G1 X160.84 Y118.47 E493.84594
G1 X160.13 Y118.47 E493.86025
G1 X159.42 Y118.47 E493.87458
G1 X158.72 Y118.47 E493.88886
G1 X158.01 Y118.47 E493.90315
G1 X157.30 Y118.47 E493.91743
G1 X156.59 Y118.47 E493.93172
G1 X155.89 Y118.47 E493.94600
G1 X155.18 Y118.47 E493.96029
G1 X154.47 Y118.47 E493.97458
G1 X153.76 Y118.47 E493.98888
G1 X153.06 Y118.47 E494.00321
G1 X152.35 Y118.47 E494.01754
G1 X151.64 Y118.47 E494.03182
G1 X150.94 Y118.47 E494.04611
G1 X150.23 Y118.47 E494.06040
G1 X149.52 Y118.47 E494.07468
G1 X149.01 Y118.63 E494.09155
G1 F2400 E492.69155
G0 F7200 X153.08 Y129.94
;TYPE:WALL-INNER
G1 F2400 E494.09155
G1 F3480 X154.22 Y129.51 E494.12944
G1 X155.30 Y129.20 E494.16448
G1 X156.43 Y128.97 E494.20048
G1 X157.58 Y128.82 E494.23659
G1 X158.80 Y128.77 E494.27470
G1 X158.81 Y128.77 E494.27523
G1 X159.95 Y128.82 E494.31055
G1 X159.97 Y128.82 E494.31133
G1 X161.07 Y128.95 E494.34572
G1 X162.20 Y129.17 E494.38189
G1 X163.33 Y129.49 E494.41840
G1 X164.46 Y129.91 E494.45583
G1 X165.46 Y130.38 E494.49043
G1 X166.49 Y130.96 E494.52737
G1 X167.45 Y131.60 E494.56327
G1 X168.36 Y132.33 E494.59973
G1 X169.21 Y133.12 E494.63595
G1 X169.75 Y133.71 E494.66074
G1 X169.75 Y150.35 E495.17944
G1 X147.86 Y150.35 E495.86179
G1 X147.86 Y133.71 E496.38058
G1 X148.31 Y133.21 E496.40140
G1 X149.15 Y132.41 E496.43752
G1 X150.07 Y131.67 E496.47433
G1 X151.03 Y131.01 E496.51071
G1 X152.03 Y130.44 E496.54654
G1 X153.08 Y129.94 E496.58286
G0 F7200 X152.94 Y130.74
G1 F3480 X151.85 Y131.30 E496.62102
G1 X150.86 Y131.93 E496.65759
G1 X149.85 Y132.70 E496.69735
G1 X148.98 Y133.49 E496.73388
G1 X148.54 Y133.91 E496.75281
G1 X148.54 Y149.67 E497.24438
G1 X169.07 Y149.67 E497.88463
G1 X169.07 Y133.91 E498.37627
G1 X167.81 Y132.74 E498.42975
G1 X166.89 Y132.03 E498.46603
G1 X165.87 Y131.37 E498.50409
G1 X164.79 Y130.79 E498.54223
G1 X163.66 Y130.32 E498.58037
G1 X162.50 Y129.94 E498.61851
G1 X161.30 Y129.67 E498.65662
G1 X160.09 Y129.51 E498.69477
G1 X158.92 Y129.45 E498.73120
G1 X158.81 Y129.44 E498.73470
G1 X157.69 Y129.49 E498.76968
G1 X157.58 Y129.50 E498.77318
G1 X156.43 Y129.65 E498.80926
G1 X155.24 Y129.91 E498.84732
G1 X154.07 Y130.27 E498.88548
G1 X152.94 Y130.74 E498.92362
G0 F7200 X153.15 Y131.19
G1 F3480 X152.10 Y131.74 E498.96038
G1 X151.13 Y132.35 E498.99621
G1 X150.17 Y133.09 E499.03396
G1 X149.32 Y133.86 E499.06976
G1 X149.04 Y134.12 E499.08185
G1 X149.04 Y149.17 E499.55104
G1 X168.57 Y149.17 E500.16011
G1 X168.57 Y134.12 E500.62932
G1 X167.49 Y133.12 E500.67531
G1 X166.60 Y132.44 E500.71025
G1 X165.61 Y131.80 E500.74696
G1 X164.57 Y131.25 E500.78373
G1 X163.49 Y130.79 E500.82052
G1 X162.36 Y130.43 E500.85730
G1 X161.21 Y130.16 E500.89405
G1 X160.04 Y130.00 E500.93081
G1 X158.90 Y129.95 E500.96649
G1 X158.81 Y129.94 E500.96940
G1 X157.72 Y129.99 E501.00354
G1 X157.62 Y130.00 E501.00635
G1 X156.52 Y130.14 E501.04117
G1 X155.37 Y130.39 E501.07790
G1 X154.24 Y130.75 E501.11468
G1 X153.15 Y131.19 E501.15147
G1 F2400 E499.75147
G0 F7200 X152.89 Y129.48
G1 F2400 E501.15147
G1 F3480 X154.04 Y129.04 E501.18976
G1 X154.07 Y129.03 E501.19091
G1 X155.16 Y128.72 E501.22624
G1 X156.35 Y128.47 E501.26411
G1 X157.54 Y128.33 E501.30144
G1 X158.78 Y128.27 E501.33993
G1 X158.81 Y128.27 E501.34105
G1 X159.97 Y128.32 E501.37719
G1 X160.00 Y128.32 E501.37812
G1 X161.14 Y128.46 E501.41409
G1 X162.32 Y128.69 E501.45149
G1 X163.49 Y129.02 E501.48937
G1 X164.63 Y129.44 E501.52736
G1 X164.67 Y129.46 E501.52873
G1 X165.70 Y129.93 E501.56395
G1 X166.75 Y130.53 E501.60169
G1 X167.75 Y131.20 E501.63912
G1 X168.68 Y131.95 E501.67649
G1 X169.57 Y132.78 E501.71432
G1 X170.25 Y133.52 E501.74569
G1 X170.25 Y150.85 E502.28600
G1 X147.36 Y150.85 E502.99952
G1 X147.36 Y133.52 E503.53993
G1 X147.96 Y132.86 E503.56739
G1 X148.82 Y132.03 E503.60484
G1 X149.76 Y131.28 E503.64244
G1 X150.76 Y130.59 E503.68019
G1 X151.80 Y130.00 E503.71748
G1 X152.89 Y129.48 E503.75523
G0 F7200 X152.69 Y129.02
;TYPE:WALL-OUTER
G1 F3480 X153.92 Y128.55 E503.79639
G1 X155.04 Y128.23 E503.83275
G1 X156.27 Y127.98 E503.87171
G1 X157.50 Y127.83 E503.91032
G1 X158.81 Y127.77 E503.95124
G1 X159.99 Y127.82 E503.98822
G1 X160.06 Y127.82 E503.99019
G1 X161.22 Y127.96 E504.02681
G1 X162.43 Y128.20 E504.06520
G1 X163.65 Y128.54 E504.10459
G1 X164.81 Y128.97 E504.14333
G1 X165.92 Y129.49 E504.18151
G1 X167.02 Y130.11 E504.22076
G1 X168.04 Y130.79 E504.25904
G1 X169.02 Y131.57 E504.29814
G1 X169.93 Y132.43 E504.33719
G1 X170.75 Y133.32 E504.37500
G1 X170.75 Y151.35 E504.93695
G1 X146.86 Y151.35 E505.68166
G1 X146.86 Y133.32 E506.24364
G1 X147.60 Y132.51 E506.27781
G1 X148.50 Y131.66 E506.31654
G1 X149.46 Y130.87 E506.35525
G1 X150.48 Y130.18 E506.39374
G1 X151.57 Y129.55 E506.43295
G1 X152.69 Y129.02 E506.47145
G1 F2400 E505.07145
G0 F7200 X153.36 Y131.65
G1 F2400 E506.47145
G1 F3480 X152.35 Y132.17 E506.50687
G1 X151.40 Y132.77 E506.54195
G1 X150.49 Y133.47 E506.57767
G1 X149.66 Y134.23 E506.61277
G1 X149.54 Y134.34 E506.61799
G1 X149.54 Y148.67 E507.06479
G1 X168.07 Y148.67 E507.64268
G1 X168.07 Y134.34 E508.08947
G1 X167.17 Y133.50 E508.12796
G1 X166.31 Y132.85 E508.16154
G1 X165.36 Y132.23 E508.19694
G1 X164.36 Y131.70 E508.23236
G1 X163.31 Y131.26 E508.26777
G1 X162.23 Y130.91 E508.30317
G1 X161.12 Y130.66 E508.33854
G1 X160.00 Y130.50 E508.37394
G1 X158.88 Y130.45 E508.40900
G1 X158.81 Y130.44 E508.41116
G1 X157.74 Y130.49 E508.44449
G1 X157.67 Y130.50 E508.44661
G1 X156.60 Y130.64 E508.48017
G1 X155.50 Y130.88 E508.51556
G1 X154.41 Y131.22 E508.55097
G1 X153.36 Y131.65 E508.58638
G0 F7200 X152.35 Y130.85
;TYPE:FILL
G1 F3180 X153.34 Y130.21 E508.61713
G1 X154.46 Y129.80 E508.64164
G1 X155.44 Y129.52 E508.66276
G1 X156.34 Y129.33 E508.68132
G1 X157.16 Y129.21 E508.69792
G1 X157.94 Y129.15 E508.71359
G1 X158.68 Y129.12 E508.72847
G1 X159.37 Y129.13 E508.74214
G1 X160.04 Y129.17 E508.75613
G1 X160.67 Y129.24 E508.76891
G1 X161.29 Y129.33 E508.78182
G1 X161.87 Y129.46 E508.79372
G1 X162.45 Y129.59 E508.80580
G1 X162.99 Y129.75 E508.81701
G1 X163.53 Y129.92 E508.82856
G1 X164.04 Y130.12 E508.83929
G1 X164.54 Y130.32 E508.85062
G1 X165.02 Y130.55 E508.86138
G1 X165.61 Y130.66 E508.87230
G1 X165.83 Y131.16 E508.88272
G1 X166.51 Y131.18 E508.89307
G1 X166.70 Y131.70 E508.90344
G1 X167.35 Y131.76 E508.91349
G1 X167.52 Y132.29 E508.92370
G1 X168.14 Y132.38 E508.93367
G1 X168.28 Y132.94 E508.94390
G1 X168.88 Y133.05 E508.95394
G1 X169.02 Y133.62 E508.96389
G1 X169.49 Y133.86 E508.97252
G1 X169.41 Y134.65 E508.98676
G1 X169.41 Y135.35 E509.00101
G1 X169.41 Y136.06 E509.01525
G1 X169.41 Y136.77 E509.02949
G1 X169.41 Y137.47 E509.04379
G1 X169.41 Y138.18 E509.05808
G1 X169.41 Y138.89 E509.07236
G1 X169.41 Y139.60 E509.08665
G1 X169.41 Y140.30 E509.10094
G1 X169.41 Y141.01 E509.11518
G1 X169.41 Y141.72 E509.12942
G1 X169.41 Y142.42 E509.14366
G1 X169.41 Y143.13 E509.15790
G1 X169.41 Y143.84 E509.17221
G1 X169.41 Y144.55 E509.18649
G1 X169.41 Y145.25 E509.20078
G1 X169.41 Y145.96 E509.21506
G1 X169.41 Y146.67 E509.22935
G1 X169.41 Y147.37 E509.24359
G1 X169.41 Y148.08 E509.25783
G1 X169.41 Y148.79 E509.27207
G1 X169.41 Y149.50 E509.28631
G1 X168.90 Y150.01 E509.30764
G1 X168.19 Y150.01 E509.32202
G1 X167.48 Y150.01 E509.33637
G1 X166.77 Y150.01 E509.35074
G1 X166.07 Y150.01 E509.36511
G1 X165.36 Y150.01 E509.37949
G1 X164.65 Y150.01 E509.39386
G1 X163.94 Y150.01 E509.40823
G1 X163.24 Y150.01 E509.42261
G1 X162.53 Y150.01 E509.43698
G1 X161.82 Y150.01 E509.45135
G1 X161.12 Y150.01 E509.46573
G1 X160.41 Y150.01 E509.48008
G1 X159.70 Y150.01 E509.49445
G1 X159.00 Y150.01 E509.50882
G1 X158.29 Y150.01 E509.52320
G1 X157.58 Y150.01 E509.53757
G1 X156.87 Y150.01 E509.55194
G1 X156.17 Y150.01 E509.56632
G1 X155.46 Y150.01 E509.58069
G1 X154.75 Y150.01 E509.59506
G1 X154.04 Y150.01 E509.60941
G1 X153.34 Y150.01 E509.62379
G1 X152.63 Y150.01 E509.63816
G1 X151.92 Y150.01 E509.65253
G1 X151.22 Y150.01 E509.66691
G1 X150.51 Y150.01 E509.68128
G1 X149.80 Y150.01 E509.69566
G1 X149.10 Y150.01 E509.71003
G1 X148.47 Y149.93 E509.72438
G1 X148.04 Y149.65 E509.73867
G1 X148.20 Y148.78 E509.75295
G1 X148.20 Y148.08 E509.76719
G1 X148.20 Y147.37 E509.78145
G1 X148.20 Y146.66 E509.79569
G1 X148.20 Y145.95 E509.80994
G1 X148.20 Y145.25 E509.82418
G1 X148.20 Y144.54 E509.83842
G1 X148.20 Y143.83 E509.85266
G1 X148.20 Y143.13 E509.86690
G1 X148.20 Y142.42 E509.88114
G1 X148.20 Y141.71 E509.89538
G1 X148.20 Y141.00 E509.90962
G1 X148.20 Y140.30 E509.92386
G1 X148.20 Y139.59 E509.93813
G1 X148.20 Y138.88 E509.95237
G1 X148.20 Y138.18 E509.96661
G1 X148.20 Y137.47 E509.98085
G1 X148.20 Y136.76 E509.99509
G1 X148.20 Y136.06 E510.00933
G1 X148.20 Y135.35 E510.02357
G1 X148.20 Y134.64 E510.03781
G1 X148.35 Y133.78 E510.05203
G1 X148.65 Y133.14 E510.07410
G1 F2400 E508.67410
G0 F7200 X150.51 Y131.98
G1 F2400 E510.07410
G1 F3180 X151.60 Y130.88 E510.12254
G1 F2400 E508.72254
G0 F7200 X129.89 Y134.64
;TYPE:WALL-INNER
G1 F2400 E510.12254
G1 F3480 X129.89 Y151.20 E510.63893
G1 X108.01 Y151.20 E511.32131
G1 X108.01 Y134.64 E511.83779
G1 X108.47 Y134.06 E511.86058
G1 X108.48 Y134.05 E511.86127
G1 X109.21 Y133.27 E511.89467
G1 X110.04 Y132.51 E511.92965
G1 X110.98 Y131.79 E511.96642
G1 X111.88 Y131.21 E512.00008
G1 X112.89 Y130.67 E512.03565
G1 X113.92 Y130.22 E512.07083
G1 X114.99 Y129.85 E512.10616
G1 X116.14 Y129.56 E512.14297
G1 X117.20 Y129.38 E512.17654
G1 X118.32 Y129.28 E512.21168
G1 X119.51 Y129.28 E512.24873
G1 X120.59 Y129.37 E512.28235
G1 X121.70 Y129.54 E512.31757
G1 X122.85 Y129.83 E512.35449
G1 X123.87 Y130.17 E512.38806
G1 X124.92 Y130.62 E512.42346
G1 X125.91 Y131.14 E512.45852
G1 X126.87 Y131.75 E512.49399
G1 X127.77 Y132.43 E512.52916
G1 X128.61 Y133.19 E512.56440
G1 X129.38 Y134.00 E512.59951
G1 X129.89 Y134.64 E512.62489
G0 F7200 X129.22 Y134.81
G1 F3480 X128.05 Y133.58 E512.67775
G1 X127.10 Y132.76 E512.71686
G1 X126.08 Y132.03 E512.75596
G1 X124.99 Y131.40 E512.79507
G1 X123.85 Y130.88 E512.83418
G1 X122.67 Y130.47 E512.87331
G1 X121.45 Y130.18 E512.91238
G1 X120.20 Y130.00 E512.95151
G1 X118.95 Y129.94 E512.99062
G1 X117.70 Y130.00 E513.02974
G1 X116.46 Y130.18 E513.06883
G1 X115.24 Y130.47 E513.10794
G1 X114.05 Y130.88 E513.14704
G1 X112.91 Y131.40 E513.18614
G1 X111.92 Y131.97 E513.22175
G1 X111.82 Y132.03 E513.22546
G1 X110.86 Y132.72 E513.26244
G1 X109.90 Y133.54 E513.30148
G1 X109.07 Y134.40 E513.33879
G1 X108.69 Y134.81 E513.35637
G1 X108.69 Y150.53 E513.84654
G1 X129.22 Y150.53 E514.48682
G1 X129.22 Y134.81 E514.97702
G0 F7200 X128.72 Y135.00
G1 F3480 X127.70 Y133.94 E515.02289
G1 X126.79 Y133.15 E515.06050
G1 X125.81 Y132.45 E515.09812
G1 X124.76 Y131.85 E515.13574
G1 X123.67 Y131.35 E515.17338
G1 X122.52 Y130.95 E515.21103
G1 X121.35 Y130.67 E515.24862
G1 X120.16 Y130.50 E515.28627
G1 X118.95 Y130.44 E515.32388
G1 X117.75 Y130.50 E515.36153
G1 X116.55 Y130.67 E515.39912
G1 X115.38 Y130.95 E515.43674
G1 X114.24 Y131.35 E515.47436
G1 X113.14 Y131.85 E515.51198
G1 X112.18 Y132.41 E515.54677
G1 X112.09 Y132.45 E515.54973
G1 X111.16 Y133.12 E515.58535
G1 X110.25 Y133.90 E515.62292
G1 X109.44 Y134.74 E515.65946
G1 X109.19 Y135.01 E515.67075
G1 X109.19 Y150.03 E516.13910
G1 X128.72 Y150.03 E516.74820
G1 X128.72 Y135.00 E517.21657
G1 F2400 E515.81657
G0 F7200 X129.76 Y133.68
G1 F2400 E517.21657
G1 F3480 X130.39 Y134.46 E517.24809
G1 X130.39 Y151.70 E517.78556
G1 X107.51 Y151.70 E518.49912
G1 X107.51 Y134.46 E519.03668
G1 X108.08 Y133.75 E519.06493
G1 X108.85 Y132.92 E519.10040
G1 X109.73 Y132.12 E519.13731
G1 X110.67 Y131.40 E519.17457
G1 X111.64 Y130.77 E519.21031
G1 X112.66 Y130.22 E519.24671
G1 X113.74 Y129.75 E519.28341
G1 X114.84 Y129.37 E519.31959
G1 X116.01 Y129.07 E519.35737
G1 X117.14 Y128.88 E519.39297
G1 X118.30 Y128.78 E519.42937
G1 X119.51 Y128.78 E519.46697
G1 X119.53 Y128.78 E519.46775
G1 X120.66 Y128.87 E519.50285
G1 X121.80 Y129.05 E519.53898
G1 X122.96 Y129.34 E519.57629
G1 X124.05 Y129.71 E519.61211
G1 X125.14 Y130.17 E519.64897
G1 X126.16 Y130.71 E519.68495
G1 X127.16 Y131.34 E519.72179
G1 X128.09 Y132.05 E519.75836
G1 X128.96 Y132.83 E519.79489
G1 X129.76 Y133.68 E519.83110
G0 F7200 X130.14 Y133.34
;TYPE:WALL-OUTER
G1 F3480 X130.89 Y134.29 E519.86881
G1 X130.89 Y152.20 E520.42736
G1 X107.01 Y152.20 E521.17210
G1 X107.01 Y134.29 E521.73068
G1 X107.72 Y133.39 E521.76645
G1 X108.50 Y132.56 E521.80190
G1 X109.40 Y131.75 E521.83969
G1 X110.37 Y131.00 E521.87786
G1 X111.38 Y130.34 E521.91535
G1 X112.44 Y129.77 E521.95313
G1 X113.56 Y129.28 E521.99118
G1 X114.70 Y128.89 E522.02872
G1 X115.94 Y128.58 E522.06840
G1 X117.08 Y128.39 E522.10461
G1 X118.28 Y128.28 E522.14223
G1 X119.51 Y128.28 E522.18036
G1 X119.56 Y128.28 E522.18208
G1 X120.70 Y128.37 E522.21771
G1 X121.90 Y128.56 E522.25561
G1 X123.09 Y128.86 E522.29378
G1 X124.23 Y129.24 E522.33132
G1 X125.34 Y129.71 E522.36911
G1 X126.42 Y130.28 E522.40695
G1 X127.44 Y130.93 E522.44474
G1 X128.40 Y131.66 E522.48244
G1 X129.31 Y132.47 E522.52045
G1 X130.14 Y133.34 E522.55783
G1 F2400 E521.15783
G0 F7200 X128.22 Y135.21
G1 F2400 E522.55783
G1 F3480 X127.36 Y134.30 E522.59671
G1 X126.48 Y133.54 E522.63285
G1 X125.54 Y132.87 E522.66901
G1 X124.53 Y132.29 E522.70512
G1 X123.48 Y131.81 E522.74128
G1 X122.38 Y131.43 E522.77744
G1 X121.26 Y131.16 E522.81357
G1 X120.11 Y131.00 E522.84970
G1 X118.95 Y130.94 E522.88585
G1 X117.79 Y131.00 E522.92200
G1 X116.65 Y131.16 E522.95810
G1 X115.52 Y131.43 E522.99426
G1 X114.43 Y131.81 E523.03039
G1 X113.37 Y132.29 E523.06653
G1 X112.43 Y132.84 E523.10052
G1 X111.47 Y133.51 E523.13697
G1 X110.59 Y134.26 E523.17309
G1 X109.80 Y135.09 E523.20883
G1 X109.69 Y135.21 E523.21384
G1 X109.69 Y149.53 E523.66036
G1 X128.22 Y149.53 E524.23827
G1 X128.22 Y135.21 E524.68479
G0 F7200 X129.04 Y134.36
;TYPE:FILL
G1 F3180 X129.09 Y133.95 E524.69480
G1 X128.52 Y133.82 E524.70486
G1 X128.39 Y133.24 E524.71496
G1 X127.79 Y133.13 E524.72494
G1 X127.64 Y132.57 E524.73514
G1 X127.02 Y132.49 E524.74498
G1 X126.84 Y131.96 E524.75527
G1 X126.19 Y131.91 E524.76564
G1 X125.99 Y131.40 E524.77579
G1 X125.30 Y131.38 E524.78655
G1 X125.07 Y130.90 E524.79670
G1 X124.47 Y130.79 E524.80783
G1 X123.98 Y130.58 E524.81853
G1 X123.46 Y130.39 E524.82987
G1 X122.93 Y130.21 E524.84121
G1 X122.38 Y130.06 E524.85293
G1 X121.81 Y129.92 E524.86475
G1 X121.22 Y129.80 E524.87689
G1 X120.60 Y129.71 E524.88953
G1 X119.96 Y129.65 E524.90249
G1 X119.28 Y129.62 E524.91630
G1 X118.58 Y129.62 E524.93029
G1 X117.82 Y129.66 E524.94567
G1 X117.02 Y129.75 E524.96182
G1 X116.17 Y129.90 E524.97870
G1 X115.23 Y130.13 E524.99821
G1 X114.17 Y130.49 E525.02111
G1 X113.25 Y131.06 E525.05478
G0 F7200 X112.55 Y131.04
G1 F3180 X111.68 Y131.92 E525.09330
G0 F7200 X110.55 Y132.34
G1 F3180 X108.18 Y134.71 E525.19746
G0 F7200 X108.51 Y135.09
G1 F3180 X108.35 Y135.60 E525.21177
G1 X108.35 Y136.31 E525.22605
G1 X108.35 Y137.02 E525.24034
G1 X108.35 Y137.72 E525.25467
G1 X108.35 Y138.43 E525.26897
G1 X108.35 Y139.14 E525.28326
G1 X108.35 Y139.85 E525.29754
G1 X108.35 Y140.55 E525.31183
G1 X108.35 Y141.26 E525.32611
G1 X108.35 Y141.97 E525.34040
G1 X108.35 Y142.68 E525.35468
G1 X108.35 Y143.38 E525.36897
G1 X108.35 Y144.09 E525.38330
G1 X108.35 Y144.80 E525.39760
G1 X108.35 Y145.50 E525.41189
G1 X108.35 Y146.21 E525.42617
G1 X108.35 Y146.92 E525.44046
G1 X108.35 Y147.62 E525.45475
G1 X108.35 Y148.33 E525.46903
G1 X108.35 Y149.04 E525.48332
G1 X108.35 Y149.75 E525.49760
G1 X108.35 Y150.45 E525.51193
G1 X108.51 Y151.00 E525.52625
G1 X109.35 Y150.86 E525.54055
G1 X110.06 Y150.86 E525.55484
G1 X110.77 Y150.86 E525.56912
G1 X111.47 Y150.86 E525.58345
G1 X112.18 Y150.86 E525.59778
G1 X112.89 Y150.86 E525.61209
G1 X113.59 Y150.86 E525.62637
G1 X114.30 Y150.86 E525.64066
G1 X115.01 Y150.86 E525.65494
G1 X115.72 Y150.86 E525.66923
G1 X116.42 Y150.86 E525.68351
G1 X117.13 Y150.86 E525.69780
G1 X117.84 Y150.86 E525.71213
G1 X118.54 Y150.86 E525.72646
G1 X119.25 Y150.86 E525.74076
G1 X119.96 Y150.86 E525.75505
G1 X120.67 Y150.86 E525.76933
G1 X121.37 Y150.86 E525.78362
G1 X122.08 Y150.86 E525.79790
G1 X122.79 Y150.86 E525.81219
G1 X123.49 Y150.86 E525.82647
G1 X124.20 Y150.86 E525.84076
G1 X124.91 Y150.86 E525.85509
G1 X125.62 Y150.86 E525.86939
G1 X126.32 Y150.86 E525.88368
G1 X127.03 Y150.86 E525.89797
G1 X127.74 Y150.86 E525.91225
G1 X128.44 Y150.86 E525.92654
G1 X129.15 Y150.86 E525.94082
G1 X129.56 Y150.46 E525.95739
G1 X129.56 Y149.75 E525.97164
G1 X129.56 Y149.04 E525.98588
G1 X129.56 Y148.34 E526.00012
G1 X129.56 Y147.63 E526.01436
G1 X129.56 Y146.92 E526.02860
G1 X129.56 Y146.21 E526.04286
G1 X129.56 Y145.51 E526.05710
G1 X129.56 Y144.80 E526.07134
G1 X129.56 Y144.09 E526.08559
G1 X129.56 Y143.39 E526.09983
G1 X129.56 Y142.68 E526.11407
G1 X129.56 Y141.97 E526.12831
G1 X129.56 Y141.26 E526.14255
G1 X129.56 Y140.56 E526.15679
G1 X129.56 Y139.85 E526.17105
G1 X129.56 Y139.14 E526.18529
G1 X129.56 Y138.44 E526.19954
G1 X129.56 Y137.73 E526.21378
G1 X129.56 Y137.02 E526.22802
G1 X129.56 Y136.31 E526.24226
G1 X129.56 Y135.61 E526.25650
G1 X129.55 Y134.91 E526.27077
G1 X129.58 Y134.53 E526.28268
G1 F2400 E524.88268
G0 F7200 X129.54 Y120.63
;TYPE:WALL-INNER
G1 F2400 E526.28268
G1 F3480 X107.66 Y120.63 E526.96506
G1 X107.66 Y103.86 E527.48816
G1 X108.15 Y103.42 E527.50857
G1 X109.19 Y102.63 E527.54941
G1 X109.21 Y102.62 E527.55004
G1 X110.20 Y101.99 E527.58666
G1 X111.30 Y101.39 E527.62580
G1 X112.45 Y100.88 E527.66492
G1 X113.62 Y100.46 E527.70358
G1 X114.81 Y100.13 E527.74237
G1 X116.06 Y99.88 E527.78187
G1 X117.28 Y99.74 E527.82033
G1 X118.58 Y99.68 E527.86096
G1 X118.61 Y99.68 E527.86168
G1 X119.82 Y99.73 E527.89953
G1 X119.85 Y99.73 E527.90034
G1 X121.02 Y99.86 E527.93706
G1 X122.26 Y100.10 E527.97647
G1 X123.46 Y100.42 E528.01509
G1 X124.65 Y100.83 E528.05452
G1 X125.77 Y101.33 E528.09285
G1 X126.89 Y101.92 E528.13221
G1 X127.94 Y102.59 E528.17108
G1 X128.94 Y103.33 E528.20978
G1 X129.54 Y103.86 E528.23484
G1 X129.54 Y120.63 E528.75785
G0 F7200 X128.87 Y119.96
G1 F3480 X128.87 Y104.10 E529.25232
G1 X127.42 Y103.05 E529.30819
G1 X126.25 Y102.33 E529.35085
G1 X125.07 Y101.74 E529.39194
G1 X123.85 Y101.25 E529.43308
G1 X122.58 Y100.87 E529.47423
G1 X121.29 Y100.59 E529.51538
G1 X119.99 Y100.42 E529.55648
G1 X118.72 Y100.36 E529.59594
G1 X118.61 Y100.36 E529.59962
G1 X117.39 Y100.41 E529.63745
G1 X117.28 Y100.41 E529.64104
G1 X116.04 Y100.57 E529.68001
G1 X114.75 Y100.83 E529.72109
G1 X113.48 Y101.21 E529.76222
G1 X112.25 Y101.69 E529.80338
G1 X111.07 Y102.27 E529.84449
G1 X109.94 Y102.94 E529.88563
G1 X108.90 Y103.69 E529.92527
G1 X108.33 Y104.10 E529.94721
G1 X108.33 Y119.96 E530.44165
G1 X128.87 Y119.96 E531.08193
G0 F7200 X128.37 Y119.46
G1 F3480 X128.37 Y104.35 E531.55286
G1 X127.05 Y103.40 E531.60371
G1 X126.01 Y102.77 E531.64151
G1 X124.87 Y102.20 E531.68135
G1 X123.68 Y101.73 E531.72117
G1 X122.46 Y101.35 E531.76101
G1 X121.21 Y101.08 E531.80086
G1 X119.94 Y100.92 E531.84067
